ncols 400
nrows 400
xllcorner 1
yllcorner 1
cellsize 100
NODATA_value -9999
864 864 864 867 867 870 870 870 870 870 870 870 870 870 870 870 870 870 870 870 870 873 873 873 873 873 873 870 867 867 864 864 864 864 867 867 870 870 870 870 870 870 870 870 873 873 873 873 873 873 873 873 873 873 873 876 879 879 879 879 882 882 885 888 891 894 900 903 930 954 978 996 1014 1029 1047 1065 1080 1095 1107 1119 1128 1131 1128 1125 1116 1107 1095 1083 1068 1062 1059 1062 1080 1098 1110 1119 1128 1143 1158 1179 1200 1224 1239 1257 1269 1269 1272 1266 1254 1242 1224 1209 1209 1209 1209 1209 1209 1209 1209 1209 1209 1209 1209 1209 1209 1209 1209 1209 1209 1209 1209 1209 1209 1209 1209 1209 1209 1209 1209 1209 1209 1209 1209 1209 1209 1209 1209 1209 1209 1209 1209 1209 1209 1209 1209 1209 1209 1209 1209 1209 1209 1209 1209 1209 1209 1209 1209 1209 1209 1209 1209 1209 1209 1209 1209 1209 1209 1209 1209 1209 1209 1209 1209 1209 1209 1209 1209 1209 1209 1209 1209 1209 1209 1209 1209 1209 1209 1209 1209 1209 1209 1209 1209 1209 1209 1209 1209 1209 1209 1209 1209 1209 1209 1209 1209 1209 1209 1209 1209 1209 1209 1209 1209 1209 1209 1209 1209 1209 1209 1209 1209 1209 1209 1209 1209 1209 1209 1209 1209 1209 1209 1209 1209 1209 1209 1209 1209 1209 1209 1209 1209 1209 1209 1209 1209 1209 1209 1209 1209 1209 1209 1209 1209 1209 1209 1209 1209 1209 1209 1209 1209 1209 1209 1209 1209 1209 1209 1209 1209 1209 1209 1209 1209 1209 1209 1209 1209 1209 1209 1209 1209 1209 1209 1209 1209 1209 1209 1209 1209 1209 1209 1209 1209 1209 1209 1209 1209 1209 1209 1209 1209 1209 1209 1209 1209 1209 1209 1209 1209 1209 1209 1209 1209 1209 1209 1209 1209 1209 1209 1209 1209 1209 1209 1209 1209 1209 1209 1209 1209 1209 1209 1209 1209 1209 1209 1209 1209 1209 1209 1209 1209 1209 1209 1209 1209 1209 1209 1209 1209 1209 1209 1209 1209 1209 1209 1209 1209 1209 1209 1209 1209 1209 1209 1209 1209 1209 1209 1209 1209 1209 1209 1209 1209 1209 1209 1209 1209 1209 1209 1209 1209 1209 1209 1209 1209 1209 1209 1209 1209 1209
885 885 867 870 870 870 873 873 873 870 870 870 870 870 870 870 870 870 870 870 870 870 870 870 873 873 873 870 870 867 864 864 864 864 864 867 870 870 870 873 873 873 873 873 873 873 873 873 873 873 873 873 873 873 873 873 876 876 876 879 879 882 882 885 888 894 900 906 933 963 987 1008 1032 1050 1065 1080 1092 1101 1113 1122 1134 1137 1137 1134 1125 1119 1110 1101 1092 1086 1083 1086 1101 1113 1125 1134 1146 1161 1176 1194 1215 1236 1248 1260 1269 1269 1269 1260 1248 1236 1224 1200 1197 1188 1176 1176 1176 1176 1179 1185 1185 1182 1179 1170 1158 1146 1137 1125 1122 1122 1122 1134 1146 1155 1164 1173 1167 1158 1146 1134 1122 1116 1113 1107 1119 1131 1140 1152 1161 1170 1176 1182 1188 1197 1203 1206 1209 1206 1200 1194 1182 1170 1158 1146 1134 1122 1110 1101 1092 1086 1086 1089 1092 1092 1095 1086 1074 1065 1068 1074 1083 1104 1125 1140 1152 1161 1164 1167 1167 1155 1146 1128 1107 1089 1071 1053 1038 1029 1017 1008 999 987 969 954 939 927 915 912 909 906 906 903 903 900 900 897 894 891 888 885 885 885 885 885 885 885 885 885 885 885 885 885 885 885 885 885 885 885 885 885 885 885 885 885 885 885 885 885 885 885 885 885 885 885 885 885 885 885 885 885 885 885 885 885 885 885 885 885 885 885 885 885 885 885 885 885 885 885 885 885 885 885 885 885 885 885 885 885 885 885 885 885 885 885 885 885 885 885 885 885 885 885 885 885 885 885 885 885 885 885 885 885 885 885 885 885 885 885 885 885 885 885 885 885 885 885 885 885 885 885 885 885 885 885 885 885 885 885 885 885 885 885 885 885 885 885 885 885 885 885 885 885 885 885 885 885 885 885 885 885 885 885 885 885 885 885 885 885 885 885 885 885 885 885 885 885 885 885 885 885 885 885 885 885 885 885 885 885 885 885 885 885 885 885 885 885 885 885 885 885
1074 1074 867 867 867 870 870 870 870 870 870 870 870 870 870 870 870 870 870 870 870 870 870 870 870 873 873 873 870 870 867 867 867 864 867 867 867 870 870 873 873 873 873 873 873 873 873 873 873 873 873 873 873 873 873 873 873 873 876 876 879 879 882 882 885 891 897 903 930 957 984 1011 1035 1050 1065 1080 1089 1098 1110 1122 1137 1140 1143 1143 1134 1128 1122 1116 1110 1107 1104 1107 1119 1128 1140 1152 1164 1179 1197 1212 1230 1248 1257 1266 1272 1269 1266 1257 1245 1233 1221 1203 1200 1197 1191 1191 1191 1191 1194 1197 1197 1194 1194 1182 1173 1161 1149 1140 1137 1134 1137 1146 1155 1167 1176 1185 1179 1170 1161 1149 1137 1131 1125 1119 1125 1128 1134 1140 1146 1155 1167 1176 1188 1200 1209 1212 1218 1215 1209 1203 1185 1170 1155 1143 1128 1119 1110 1107 1107 1107 1113 1119 1122 1119 1116 1107 1089 1074 1080 1089 1101 1122 1143 1155 1164 1170 1176 1179 1176 1167 1158 1140 1122 1101 1083 1068 1050 1035 1020 1002 987 969 957 942 933 924 915 912 909 906 906 903 903 903 900 897 894 891 891 891 888 882 879 879 876 873 873 873 873 873 873 873 873 873 876 879 885 891 903 915 927 927 930 933 942 951 969 987 1002 1008 1014 1008 999 987 969 951 936 927 918 927 945 960 981 1002 1017 1026 1038 1038 1038 1035 1035 1032 1035 1041 1044 1050 1053 1056 1056 1056 1056 1053 1050 1050 1047 1041 1032 1026 1017 1011 1005 1005 1005 1005 1008 1011 1011 1011 1005 993 984 975 966 960 951 942 927 909 888 876 867 858 852 849 849 849 849 849 849 846 843 840 840 840 840 840 840 840 840 840 840 840 840 840 840 840 840 840 840 840 840 840 840 840 843 843 843 843 843 846 846 843 843 843 840 840 840 840 843 849 855 855 852 846 843 840 840 843 843 846 846 846 849 849 849 852 855 870 885 903 924 945 960 969 978 987 996 1002 1008 1014 1014 1014 1014 1017 1020 1029 1041 1053 1065 1074
1086 1086 867 867 864 867 867 867 867 867 867 867 870 870 870 870 870 870 870 870 870 870 870 870 870 870 873 873 873 873 870 870 870 867 867 867 867 867 870 870 873 873 873 873 873 873 870 873 873 873 873 873 876 876 876 876 873 873 873 876 876 876 876 879 882 888 894 900 921 945 969 993 1020 1035 1044 1053 1065 1077 1095 1116 1137 1143 1146 1149 1140 1131 1125 1119 1113 1113 1116 1119 1128 1137 1146 1161 1173 1191 1206 1221 1236 1251 1257 1263 1269 1266 1263 1257 1248 1239 1230 1218 1215 1209 1203 1203 1203 1203 1206 1209 1209 1206 1203 1194 1182 1173 1164 1155 1152 1155 1155 1161 1170 1176 1185 1194 1191 1185 1176 1167 1155 1149 1143 1137 1140 1143 1149 1158 1167 1176 1185 1194 1203 1212 1221 1227 1230 1227 1221 1212 1197 1182 1170 1158 1146 1137 1131 1128 1131 1137 1140 1146 1146 1140 1134 1122 1104 1086 1095 1104 1119 1140 1161 1170 1179 1185 1185 1185 1179 1167 1158 1140 1125 1107 1089 1074 1056 1038 1020 999 981 963 951 936 930 924 918 915 909 909 906 906 903 903 900 897 894 891 891 891 888 885 882 879 876 873 873 873 873 873 873 873 873 876 879 879 885 891 897 909 918 924 927 936 951 963 981 996 1011 1014 1017 1014 1005 996 978 960 945 939 933 942 957 972 987 1002 1020 1035 1050 1053 1056 1056 1053 1050 1053 1056 1059 1062 1065 1068 1068 1068 1068 1068 1068 1062 1056 1044 1029 1014 1008 999 993 996 999 1005 1011 1014 1014 1014 1011 1002 993 984 975 966 957 945 927 906 882 873 861 855 852 849 849 849 849 849 846 846 843 840 840 840 840 840 840 840 840 840 840 840 840 840 840 840 840 840 840 840 840 840 840 840 843 843 843 843 843 846 849 846 846 843 843 840 840 840 843 849 855 855 852 849 846 843 840 840 843 843 846 846 849 849 852 858 867 888 909 930 942 954 963 972 978 990 1002 1011 1017 1023 1026 1026 1029 1032 1035 1044 1053 1065 1077 1086
1098 1098 864 864 864 864 864 864 867 867 867 867 867 870 870 870 870 870 870 870 870 870 870 870 870 870 870 870 870 870 870 870 870 867 867 867 867 867 867 870 870 870 870 873 873 870 870 870 870 870 873 876 876 876 879 876 873 873 873 873 873 876 876 879 882 885 888 894 906 918 936 960 984 999 1011 1023 1035 1050 1068 1095 1122 1131 1140 1143 1137 1128 1122 1119 1113 1113 1116 1119 1128 1137 1146 1161 1173 1191 1209 1224 1236 1251 1254 1257 1260 1254 1251 1248 1245 1239 1236 1227 1224 1221 1215 1212 1212 1212 1215 1218 1218 1218 1215 1206 1194 1185 1179 1170 1170 1170 1173 1179 1185 1191 1197 1203 1200 1197 1191 1182 1173 1164 1158 1152 1155 1158 1164 1176 1188 1197 1206 1218 1224 1230 1236 1242 1248 1242 1236 1227 1215 1200 1188 1176 1161 1158 1152 1149 1158 1164 1167 1167 1167 1158 1146 1134 1116 1098 1110 1122 1137 1158 1179 1188 1191 1194 1191 1188 1179 1164 1152 1137 1122 1107 1089 1074 1056 1038 1020 999 978 960 948 936 930 924 918 918 915 912 909 906 903 900 897 894 894 891 891 891 888 888 885 882 879 876 876 873 873 873 873 873 873 876 882 885 888 891 900 909 918 924 930 942 957 975 990 1008 1020 1023 1026 1023 1017 1008 993 975 963 957 948 954 966 975 993 1008 1026 1047 1068 1074 1074 1074 1068 1062 1065 1068 1071 1074 1077 1080 1083 1083 1083 1080 1080 1071 1062 1050 1032 1014 1002 993 990 993 999 1002 1005 1008 1011 1011 1008 999 990 981 975 966 957 945 930 909 888 876 864 855 852 849 849 852 852 849 846 846 843 843 840 840 840 840 840 840 840 840 840 840 840 840 840 843 843 843 840 840 840 840 840 840 840 843 843 843 843 843 843 843 843 843 843 840 843 843 843 846 849 849 849 849 846 843 840 843 843 843 846 846 849 852 858 867 879 903 933 954 963 975 981 984 990 1002 1014 1023 1029 1035 1038 1041 1044 1047 1050 1056 1065 1077 1086 1098
1107 1107 864 864 864 864 864 864 864 867 867 867 867 867 867 870 870 870 870 870 870 870 870 870 870 870 870 870 870 870 870 870 870 870 870 867 867 867 867 867 867 867 870 870 870 870 870 870 870 873 876 876 879 879 879 876 873 873 873 873 873 876 876 876 879 882 885 888 894 900 912 930 951 969 984 996 1011 1026 1050 1080 1110 1122 1128 1134 1125 1119 1116 1110 1104 1107 1110 1113 1125 1134 1146 1158 1170 1188 1206 1221 1233 1248 1248 1248 1245 1242 1239 1239 1236 1236 1236 1233 1230 1227 1224 1221 1221 1218 1224 1227 1230 1227 1224 1215 1206 1200 1191 1185 1185 1188 1191 1194 1200 1206 1209 1212 1212 1209 1206 1197 1191 1182 1170 1161 1167 1170 1176 1194 1209 1221 1233 1242 1248 1257 1260 1263 1266 1263 1257 1251 1239 1227 1212 1194 1176 1173 1170 1173 1179 1188 1188 1185 1182 1167 1155 1140 1122 1107 1119 1131 1149 1170 1194 1200 1200 1200 1191 1182 1170 1155 1140 1125 1110 1092 1077 1059 1044 1029 1011 993 972 957 948 939 933 927 924 921 918 912 909 906 903 900 900 897 897 897 900 900 894 891 888 885 882 879 876 876 876 873 873 876 876 882 888 897 906 915 918 921 924 930 936 951 969 990 1005 1023 1035 1035 1038 1035 1029 1023 1008 996 984 981 975 978 984 990 1002 1014 1035 1056 1080 1083 1086 1089 1083 1080 1080 1083 1086 1089 1092 1092 1089 1089 1086 1083 1080 1074 1068 1056 1038 1020 1008 996 990 990 993 993 996 996 999 1002 999 993 984 975 966 957 948 936 921 903 885 873 864 855 855 852 852 852 849 849 846 843 843 843 843 843 840 840 840 840 840 840 840 840 840 843 843 843 843 843 840 840 840 840 840 840 840 840 840 840 843 843 843 840 840 840 840 843 843 843 846 846 843 846 849 852 849 846 843 843 843 843 846 849 852 855 864 879 894 921 951 975 987 996 1002 1005 1011 1020 1029 1035 1044 1050 1053 1059 1062 1062 1065 1071 1080 1086 1098 1107
1119 1119 864 864 864 864 864 864 864 864 867 864 864 867 867 867 867 867 870 870 873 870 870 867 867 870 867 867 867 870 870 870 873 873 870 870 867 867 867 867 867 867 867 867 867 870 873 873 873 876 876 879 879 879 876 876 873 873 873 873 876 876 876 876 876 879 882 885 885 888 894 909 924 942 957 975 996 1014 1041 1074 1104 1113 1116 1116 1110 1104 1095 1089 1083 1086 1089 1098 1113 1128 1143 1158 1173 1191 1209 1221 1230 1239 1236 1233 1230 1227 1227 1227 1227 1227 1230 1230 1230 1227 1227 1224 1221 1218 1224 1227 1227 1227 1227 1221 1215 1209 1203 1197 1197 1200 1203 1209 1215 1218 1221 1227 1224 1224 1221 1212 1206 1197 1185 1176 1182 1185 1197 1212 1230 1239 1248 1257 1266 1272 1278 1284 1287 1281 1275 1266 1254 1239 1224 1206 1191 1191 1191 1191 1194 1197 1194 1185 1179 1164 1152 1140 1128 1119 1134 1152 1167 1188 1206 1209 1206 1200 1188 1173 1158 1143 1125 1110 1095 1080 1065 1047 1035 1020 1005 987 969 957 948 939 933 930 924 921 918 915 912 909 912 912 915 918 921 921 924 927 918 912 903 894 888 882 879 876 876 876 876 876 876 885 894 906 921 933 936 933 933 936 942 957 981 1005 1020 1035 1047 1047 1047 1044 1041 1035 1026 1014 1008 1005 1002 1002 1002 1002 1011 1020 1038 1062 1086 1095 1101 1104 1098 1095 1095 1098 1101 1098 1098 1098 1092 1089 1083 1080 1077 1071 1068 1059 1044 1032 1017 1005 993 990 987 984 981 981 984 990 987 981 975 966 954 945 930 918 906 891 876 867 861 858 855 855 852 849 849 846 846 843 843 843 843 843 843 840 840 840 840 840 840 843 843 843 843 843 840 840 840 840 840 840 840 840 843 843 843 843 840 840 840 840 840 840 843 843 843 846 846 846 846 846 849 852 849 846 843 843 843 846 846 849 855 861 873 894 915 939 963 987 1005 1023 1032 1035 1041 1047 1050 1056 1062 1068 1071 1077 1080 1080 1083 1086 1095 1101 1110 1122
1134 1134 867 867 864 864 864 864 864 864 864 864 864 864 864 864 867 867 867 870 870 867 867 867 867 870 870 870 870 873 873 873 873 873 873 873 873 873 873 873 870 870 867 867 867 870 873 873 873 873 876 876 876 873 873 873 873 873 873 876 876 876 876 876 876 876 879 882 882 885 888 894 903 918 939 957 987 1014 1044 1071 1101 1101 1101 1098 1092 1083 1077 1071 1065 1071 1080 1092 1110 1128 1146 1164 1179 1197 1215 1224 1230 1233 1227 1218 1212 1212 1212 1212 1212 1215 1218 1224 1224 1224 1221 1218 1215 1215 1215 1215 1218 1221 1224 1221 1218 1215 1215 1212 1212 1212 1215 1218 1224 1230 1233 1236 1236 1233 1233 1224 1218 1209 1200 1188 1194 1200 1212 1227 1245 1257 1266 1275 1281 1290 1296 1299 1302 1296 1287 1278 1260 1245 1233 1218 1206 1209 1209 1209 1209 1206 1197 1185 1173 1161 1149 1140 1134 1128 1146 1167 1185 1200 1218 1215 1206 1197 1179 1161 1146 1128 1110 1098 1083 1068 1056 1041 1026 1014 999 984 969 957 948 942 936 930 924 921 918 915 915 915 924 933 942 948 954 957 963 966 954 942 930 912 894 885 879 876 876 876 876 876 879 891 903 918 936 954 951 945 936 942 945 963 990 1020 1035 1050 1062 1059 1059 1053 1050 1044 1038 1032 1026 1026 1023 1020 1017 1017 1020 1023 1038 1065 1089 1104 1113 1119 1116 1110 1110 1110 1107 1101 1095 1089 1080 1074 1071 1068 1065 1062 1059 1053 1044 1038 1029 1020 1008 999 987 978 969 960 966 969 972 969 966 954 939 927 912 894 882 873 864 864 861 858 855 852 852 849 846 846 846 846 843 843 843 843 843 843 843 843 843 843 840 840 840 840 840 840 840 840 840 840 840 840 840 843 843 843 843 843 843 843 840 843 843 843 843 846 846 846 846 846 846 846 849 849 846 843 843 843 843 846 846 852 861 873 891 915 942 960 978 999 1017 1035 1047 1053 1059 1062 1065 1071 1077 1083 1089 1092 1098 1101 1101 1107 1113 1119 1125 1134
1146 1146 867 867 867 864 864 864 864 861 864 864 864 864 864 867 867 867 867 870 870 870 870 870 870 870 870 873 873 873 873 873 873 873 873 873 873 873 873 873 873 870 870 867 867 870 870 870 870 870 873 873 873 870 870 870 873 873 876 876 876 876 876 876 876 876 879 879 879 882 882 885 888 903 918 939 975 1008 1038 1065 1092 1089 1086 1080 1071 1062 1059 1053 1050 1065 1077 1092 1113 1134 1152 1173 1191 1203 1218 1224 1224 1224 1215 1203 1194 1194 1194 1194 1197 1200 1203 1209 1212 1212 1212 1209 1206 1203 1203 1200 1206 1212 1218 1218 1221 1224 1224 1224 1224 1224 1224 1230 1233 1236 1236 1239 1239 1242 1239 1236 1230 1221 1212 1200 1206 1212 1221 1239 1257 1272 1284 1293 1299 1308 1311 1311 1311 1299 1290 1278 1263 1248 1239 1233 1227 1227 1230 1227 1218 1212 1200 1185 1173 1155 1140 1134 1131 1131 1155 1176 1194 1206 1215 1209 1200 1188 1170 1149 1131 1116 1098 1086 1074 1062 1056 1047 1035 1023 1008 987 969 954 948 939 936 930 927 924 924 927 930 936 948 957 966 969 975 975 975 975 963 951 936 915 897 888 882 876 876 876 876 879 879 894 909 924 942 957 954 945 936 942 945 963 996 1026 1044 1059 1071 1068 1068 1062 1059 1053 1050 1047 1047 1044 1044 1041 1038 1035 1038 1041 1056 1080 1104 1116 1125 1134 1128 1125 1119 1113 1107 1098 1086 1077 1071 1062 1059 1056 1056 1053 1050 1044 1041 1035 1029 1023 1014 1002 990 978 966 954 957 960 960 957 954 942 930 918 900 882 870 864 858 858 858 858 855 852 849 849 846 846 846 846 843 843 843 843 843 843 843 843 843 843 840 840 840 840 840 840 840 840 840 840 840 840 840 843 843 843 843 843 843 843 843 843 843 843 846 849 846 846 846 846 849 849 846 846 843 843 840 843 843 846 849 855 870 888 909 936 963 981 996 1011 1029 1047 1059 1068 1074 1077 1080 1083 1092 1101 1107 1110 1116 1119 1122 1125 1131 1137 1143 1149
1164 1164 870 867 867 867 864 864 864 864 864 864 864 867 867 867 867 867 867 870 873 873 876 876 876 876 873 873 873 870 870 870 870 870 870 870 870 870 870 870 870 870 870 870 870 870 867 867 867 870 873 873 873 870 870 870 873 873 876 876 876 876 876 876 876 876 876 876 879 879 879 882 882 891 903 918 954 990 1020 1047 1071 1071 1065 1059 1053 1044 1041 1044 1047 1065 1083 1101 1122 1143 1161 1176 1194 1203 1212 1218 1215 1212 1200 1188 1176 1173 1170 1173 1176 1179 1185 1191 1194 1194 1194 1191 1185 1182 1182 1182 1188 1197 1206 1212 1218 1224 1227 1233 1233 1233 1233 1233 1233 1230 1230 1227 1230 1233 1236 1236 1236 1233 1224 1218 1221 1221 1230 1242 1257 1272 1290 1305 1311 1320 1320 1320 1320 1311 1302 1293 1284 1272 1263 1257 1251 1248 1248 1242 1230 1221 1206 1188 1170 1155 1137 1134 1137 1143 1167 1188 1206 1215 1221 1215 1203 1188 1167 1146 1128 1113 1095 1086 1074 1065 1056 1050 1035 1020 1002 984 966 954 954 951 948 945 942 942 942 945 954 963 972 981 987 990 990 987 981 978 963 948 933 915 900 891 882 876 876 876 879 879 882 897 915 930 945 957 954 945 939 945 951 972 1002 1032 1050 1068 1080 1077 1077 1074 1068 1065 1065 1065 1062 1062 1062 1059 1056 1053 1056 1062 1077 1098 1119 1128 1140 1146 1140 1137 1128 1119 1107 1095 1080 1068 1062 1053 1050 1047 1044 1041 1041 1035 1029 1023 1023 1020 1014 1005 996 981 969 957 954 951 948 945 942 933 924 912 894 873 864 858 855 855 852 852 849 849 849 846 846 846 846 846 846 843 843 846 846 843 843 843 843 840 840 840 840 843 843 843 840 840 840 840 840 840 843 843 843 843 843 843 843 843 843 843 843 843 846 846 846 846 846 849 849 849 846 846 843 843 843 843 846 849 852 861 882 903 927 954 981 993 1008 1023 1038 1053 1065 1077 1089 1092 1095 1098 1107 1116 1122 1128 1134 1137 1140 1143 1149 1152 1158 1167
1176 1176 867 867 867 867 867 867 867 867 867 864 864 867 867 867 867 867 867 870 870 873 873 873 873 876 873 870 870 873 873 873 873 873 873 873 873 873 870 870 870 870 870 870 870 870 867 867 867 867 867 870 870 870 870 870 873 873 876 876 876 876 876 876 873 876 876 876 879 879 882 882 885 888 894 903 933 960 987 1017 1044 1044 1041 1035 1029 1020 1026 1035 1044 1068 1092 1113 1134 1155 1167 1179 1188 1194 1197 1197 1194 1191 1179 1167 1158 1152 1146 1149 1155 1161 1167 1176 1176 1176 1176 1170 1161 1155 1158 1158 1167 1179 1194 1200 1209 1218 1224 1233 1236 1236 1236 1233 1227 1221 1218 1212 1218 1221 1227 1233 1242 1242 1236 1233 1233 1233 1236 1248 1257 1275 1293 1311 1320 1329 1332 1332 1332 1326 1320 1314 1308 1299 1290 1284 1275 1272 1266 1257 1242 1230 1209 1191 1170 1155 1140 1137 1146 1155 1179 1203 1218 1224 1230 1221 1206 1191 1170 1149 1131 1116 1101 1089 1080 1071 1059 1047 1032 1011 990 981 969 963 966 969 969 969 969 966 966 972 984 996 999 1002 1005 1005 1005 996 984 975 957 942 927 912 900 891 885 879 879 882 882 885 888 906 921 936 945 954 951 945 942 954 969 987 1011 1035 1053 1071 1086 1086 1089 1086 1083 1080 1080 1080 1077 1077 1077 1074 1071 1068 1071 1077 1092 1113 1137 1146 1155 1161 1158 1155 1143 1131 1119 1098 1080 1065 1053 1044 1038 1035 1029 1026 1023 1020 1014 1008 1011 1011 1008 1005 999 990 978 966 960 951 942 939 933 924 918 906 888 870 861 858 855 852 852 852 849 849 849 846 846 846 846 846 846 846 846 846 843 843 843 843 843 843 843 843 843 843 846 843 843 843 840 840 840 840 843 843 843 843 843 843 843 843 843 843 843 843 846 846 846 846 846 846 846 846 846 843 843 843 843 846 846 852 858 867 891 915 939 966 993 1008 1020 1035 1047 1059 1071 1083 1092 1098 1101 1110 1119 1128 1134 1140 1146 1149 1152 1155 1161 1167 1173 1179
1185 1185 867 867 867 867 867 870 870 870 867 867 864 867 867 867 867 867 867 867 867 867 870 870 873 873 873 870 870 873 873 873 873 873 873 873 873 873 873 873 873 873 873 873 870 870 870 867 864 864 867 867 867 867 870 870 873 873 873 876 876 876 876 876 873 873 876 876 876 879 882 882 885 888 888 894 912 930 954 981 1011 1011 1011 1008 1002 996 1008 1026 1044 1071 1098 1122 1143 1164 1173 1179 1182 1179 1179 1176 1173 1167 1155 1146 1134 1128 1122 1128 1134 1140 1149 1164 1161 1161 1158 1149 1137 1131 1134 1137 1146 1161 1176 1185 1197 1206 1215 1224 1230 1230 1230 1224 1215 1209 1203 1194 1200 1206 1215 1227 1242 1248 1248 1248 1245 1242 1245 1251 1260 1275 1296 1311 1326 1338 1344 1347 1350 1347 1344 1341 1335 1326 1320 1311 1302 1293 1284 1269 1251 1233 1212 1194 1176 1164 1152 1152 1161 1167 1191 1212 1227 1230 1233 1221 1209 1194 1176 1158 1140 1128 1116 1098 1083 1068 1053 1035 1026 1014 1005 1005 1005 1005 1005 1005 999 990 984 987 990 996 1008 1017 1020 1023 1023 1017 1014 1002 987 975 957 939 924 909 897 891 885 882 882 879 882 888 894 912 927 942 945 951 951 951 951 969 990 1008 1029 1047 1062 1077 1086 1092 1095 1095 1092 1092 1092 1092 1092 1092 1092 1089 1083 1083 1089 1095 1110 1131 1152 1158 1164 1167 1164 1158 1149 1137 1125 1107 1086 1071 1059 1050 1041 1032 1023 1014 1005 999 996 993 993 996 999 996 996 990 981 972 960 948 939 933 924 915 906 894 879 864 858 858 855 852 852 849 849 849 849 846 846 846 846 846 846 846 846 846 846 846 846 846 846 846 846 843 846 846 846 846 846 846 843 840 840 840 843 843 843 843 843 843 843 843 843 843 843 843 843 843 843 843 843 843 843 843 843 843 843 843 846 846 849 855 861 873 900 927 954 978 1002 1020 1035 1047 1056 1068 1077 1086 1095 1101 1107 1113 1125 1134 1140 1143 1149 1152 1158 1164 1170 1173 1179 1185
1170 1170 864 864 864 867 870 870 870 870 870 867 864 864 864 864 864 864 864 864 864 864 864 867 867 870 870 873 873 873 873 873 873 873 873 873 873 873 876 873 873 873 873 876 873 870 870 867 864 864 864 864 864 867 867 870 873 873 873 873 873 876 876 876 876 876 876 876 876 879 879 882 882 885 888 891 900 909 927 948 969 972 972 972 969 966 987 1017 1047 1077 1104 1128 1149 1167 1170 1170 1167 1164 1161 1158 1152 1149 1137 1125 1116 1110 1104 1110 1119 1128 1137 1155 1155 1149 1146 1137 1125 1119 1125 1128 1140 1152 1164 1170 1176 1185 1194 1203 1209 1212 1215 1209 1200 1194 1188 1182 1191 1200 1212 1227 1245 1251 1254 1257 1257 1254 1257 1263 1269 1281 1296 1311 1326 1338 1347 1353 1356 1359 1359 1359 1353 1347 1338 1329 1320 1308 1293 1278 1260 1239 1221 1203 1188 1179 1170 1170 1176 1182 1203 1221 1233 1233 1230 1221 1206 1191 1173 1155 1140 1125 1110 1095 1077 1065 1053 1044 1035 1032 1026 1029 1032 1032 1026 1020 1011 1005 999 1005 1014 1020 1029 1035 1038 1038 1035 1029 1023 1008 990 975 954 933 918 906 894 888 885 882 882 882 885 891 900 915 933 945 948 948 951 954 960 984 1008 1029 1047 1065 1077 1086 1092 1098 1101 1101 1101 1101 1104 1107 1107 1107 1104 1101 1098 1095 1104 1113 1125 1146 1164 1167 1170 1170 1164 1158 1149 1137 1125 1110 1095 1083 1071 1059 1047 1032 1017 1005 990 981 978 975 978 981 984 984 987 984 978 972 960 948 936 927 918 906 894 882 873 861 855 855 855 855 852 849 849 849 849 849 846 846 849 849 849 849 849 849 849 849 849 849 846 846 846 846 849 849 849 849 849 849 846 843 843 843 843 843 843 843 843 843 843 843 843 843 843 843 843 843 843 843 843 843 843 843 843 843 846 846 849 852 852 858 867 879 909 936 966 990 1017 1029 1044 1056 1062 1068 1074 1083 1089 1098 1104 1113 1119 1122 1125 1122 1125 1134 1140 1149 1155 1164 1167 1170
1158 1158 867 864 864 864 864 864 867 867 867 867 864 867 867 867 867 867 867 867 867 867 867 867 867 867 867 870 870 870 870 870 870 870 870 873 873 873 873 873 873 873 873 873 873 870 870 867 867 864 864 864 864 864 867 870 870 873 873 873 876 876 876 876 876 876 876 873 876 876 876 879 879 882 885 888 891 897 906 918 933 936 942 945 954 960 984 1020 1053 1077 1104 1125 1146 1167 1164 1161 1155 1149 1140 1137 1131 1128 1116 1104 1095 1089 1086 1095 1107 1119 1131 1149 1149 1143 1134 1125 1113 1107 1113 1119 1128 1140 1152 1155 1158 1164 1176 1185 1191 1194 1197 1191 1182 1176 1173 1170 1182 1197 1209 1230 1248 1257 1260 1266 1266 1269 1272 1275 1278 1290 1302 1314 1326 1338 1347 1353 1356 1362 1365 1365 1362 1359 1353 1341 1332 1317 1302 1284 1266 1248 1233 1218 1206 1200 1191 1191 1197 1200 1215 1230 1239 1233 1227 1215 1197 1182 1164 1146 1131 1113 1098 1083 1071 1062 1062 1059 1059 1056 1056 1056 1056 1050 1035 1023 1017 1014 1014 1023 1035 1044 1050 1056 1053 1050 1044 1035 1029 1011 993 975 951 927 912 900 888 885 885 885 885 885 891 897 906 921 939 948 948 948 954 960 972 999 1023 1047 1065 1086 1092 1101 1107 1107 1110 1110 1110 1110 1113 1116 1119 1119 1119 1116 1113 1110 1116 1125 1134 1149 1164 1164 1164 1161 1155 1146 1137 1122 1110 1098 1089 1080 1071 1062 1050 1038 1023 1008 993 981 972 963 963 963 966 969 975 972 972 969 960 951 939 930 918 903 885 873 867 861 858 855 855 852 852 852 849 849 849 849 849 849 849 852 855 861 864 864 864 864 861 858 855 852 852 852 852 852 852 852 852 849 849 846 846 843 843 843 843 843 843 843 843 843 843 843 843 843 843 843 843 843 843 843 843 843 846 846 846 849 852 852 852 858 867 882 909 936 963 993 1020 1032 1044 1056 1062 1068 1074 1080 1086 1092 1101 1107 1110 1113 1113 1110 1110 1119 1128 1137 1146 1155 1158 1158
1152 1152 867 864 864 864 864 864 864 864 864 864 867 867 870 870 867 867 867 867 864 867 867 867 864 864 867 867 870 870 867 867 870 870 870 873 873 873 873 873 873 873 873 870 870 870 870 870 867 867 864 864 864 864 864 867 870 873 873 876 876 876 876 876 876 876 873 873 873 873 876 876 876 879 882 885 888 888 894 897 903 909 918 927 948 966 993 1026 1059 1080 1104 1125 1143 1161 1158 1152 1143 1131 1119 1110 1107 1104 1095 1083 1077 1071 1065 1080 1098 1116 1128 1149 1143 1134 1125 1113 1101 1092 1098 1104 1113 1125 1134 1137 1140 1143 1155 1167 1173 1176 1179 1170 1161 1158 1158 1155 1173 1191 1209 1230 1248 1260 1269 1278 1281 1284 1287 1287 1290 1299 1311 1320 1329 1335 1341 1344 1347 1353 1356 1362 1362 1362 1356 1347 1338 1320 1305 1290 1275 1257 1248 1236 1227 1218 1212 1212 1218 1221 1230 1236 1239 1230 1221 1206 1188 1170 1152 1134 1116 1101 1086 1080 1074 1071 1074 1077 1077 1077 1074 1068 1065 1056 1044 1032 1032 1032 1035 1047 1056 1059 1062 1065 1056 1050 1041 1032 1020 1002 981 960 939 918 903 894 885 885 882 882 882 885 888 894 903 918 936 945 945 948 957 969 981 1008 1035 1056 1074 1092 1101 1110 1116 1119 1119 1122 1122 1125 1128 1128 1131 1134 1134 1134 1134 1134 1137 1140 1146 1155 1164 1161 1158 1152 1143 1134 1122 1107 1092 1086 1080 1074 1065 1059 1047 1035 1023 1008 993 981 969 957 954 954 954 957 963 963 966 966 960 951 942 927 912 897 879 867 864 861 858 855 855 852 852 852 849 849 849 849 849 852 855 864 873 882 885 891 891 885 882 876 867 858 858 855 855 855 852 852 852 849 849 849 849 846 843 843 843 843 843 843 843 843 843 843 843 843 843 843 843 843 843 846 846 846 846 846 849 852 852 852 852 858 867 882 906 930 957 987 1017 1029 1041 1053 1059 1065 1071 1077 1083 1089 1098 1101 1104 1104 1104 1101 1101 1110 1122 1131 1143 1152 1152 1152
1140 1140 867 867 864 864 864 864 861 861 861 864 867 867 870 870 867 867 864 864 864 867 867 867 864 864 864 867 867 867 867 870 870 870 873 873 873 873 873 873 873 873 870 870 870 870 870 870 870 870 867 867 864 864 864 867 867 870 873 873 876 876 876 876 873 873 873 873 873 873 873 873 873 876 882 885 885 888 888 891 894 906 915 930 957 981 1008 1038 1068 1092 1116 1134 1146 1155 1146 1137 1125 1110 1095 1086 1083 1080 1071 1062 1056 1056 1056 1074 1098 1119 1131 1149 1143 1131 1116 1104 1089 1080 1089 1095 1104 1113 1122 1122 1122 1128 1140 1155 1164 1167 1170 1161 1155 1149 1152 1152 1170 1191 1209 1227 1245 1257 1266 1275 1281 1284 1290 1293 1299 1305 1314 1323 1323 1326 1326 1326 1329 1335 1341 1347 1353 1359 1353 1347 1338 1326 1311 1296 1284 1272 1260 1251 1245 1239 1236 1233 1236 1239 1242 1242 1239 1230 1218 1203 1185 1167 1149 1131 1116 1104 1089 1089 1086 1086 1092 1098 1095 1095 1092 1083 1074 1065 1056 1047 1050 1053 1059 1065 1071 1071 1071 1068 1056 1047 1035 1020 1005 987 966 945 927 909 897 891 885 882 882 882 882 882 885 891 897 915 930 942 945 945 957 972 987 1014 1038 1059 1077 1098 1107 1116 1125 1128 1131 1134 1137 1140 1143 1143 1146 1149 1152 1155 1155 1158 1155 1155 1158 1161 1164 1158 1152 1143 1131 1119 1107 1089 1077 1074 1071 1065 1056 1047 1038 1029 1017 1005 990 978 966 951 948 945 945 948 951 954 957 960 954 951 939 921 903 888 873 861 861 861 858 858 855 852 852 852 852 852 852 852 855 861 867 882 900 918 924 927 930 924 918 906 888 873 867 861 858 855 855 852 852 849 849 849 846 846 846 846 843 843 843 843 843 843 843 843 843 843 843 843 843 843 843 843 846 846 849 852 852 855 855 855 855 861 870 879 903 924 948 975 1005 1020 1032 1044 1053 1062 1068 1071 1077 1083 1092 1095 1101 1104 1101 1098 1095 1107 1116 1125 1134 1140 1140 1140
1128 1128 867 867 867 864 864 864 861 861 861 864 864 867 867 867 867 867 864 864 864 864 867 867 867 864 864 864 864 867 867 867 870 870 870 873 873 873 873 873 870 870 870 870 870 870 870 870 873 873 870 867 867 864 864 867 867 870 873 873 873 873 873 873 873 873 873 873 873 876 876 873 873 876 876 879 882 885 888 891 894 903 912 927 957 990 1020 1050 1080 1101 1122 1134 1137 1143 1134 1122 1110 1092 1077 1065 1062 1056 1050 1044 1044 1050 1056 1074 1095 1116 1128 1143 1137 1122 1110 1095 1080 1071 1080 1089 1098 1104 1113 1110 1107 1113 1131 1149 1155 1161 1164 1155 1146 1143 1146 1149 1167 1188 1206 1221 1239 1248 1257 1269 1272 1278 1284 1290 1296 1305 1311 1317 1314 1311 1311 1308 1308 1314 1323 1332 1341 1350 1350 1347 1341 1329 1317 1308 1296 1284 1275 1269 1263 1260 1257 1257 1254 1254 1251 1248 1242 1230 1218 1203 1188 1170 1155 1137 1122 1113 1104 1104 1104 1107 1110 1113 1113 1110 1104 1095 1086 1077 1071 1065 1071 1077 1080 1083 1086 1080 1074 1065 1050 1038 1023 1005 987 966 948 930 915 903 894 891 888 885 882 882 882 882 885 891 894 909 921 933 939 945 957 969 984 1005 1026 1050 1071 1095 1107 1122 1131 1137 1143 1149 1152 1158 1161 1164 1167 1167 1170 1170 1170 1170 1167 1164 1164 1164 1161 1155 1143 1134 1119 1107 1092 1074 1062 1056 1050 1047 1038 1032 1029 1023 1017 1008 999 987 975 966 954 945 939 939 936 939 939 942 939 939 927 909 891 879 867 861 861 861 858 855 855 852 852 852 852 852 855 855 858 870 882 897 912 930 936 942 945 939 936 924 906 891 882 870 864 861 861 858 855 852 852 849 849 846 846 846 846 843 843 843 843 843 843 843 843 843 843 843 843 843 843 843 843 846 849 849 852 852 855 858 858 867 876 885 903 918 939 963 987 1005 1020 1035 1041 1050 1056 1062 1065 1074 1080 1086 1089 1092 1092 1089 1092 1101 1110 1116 1125 1131 1128 1128
1116 1116 867 867 867 867 864 864 864 861 861 864 864 864 867 867 867 867 867 867 867 867 867 867 867 867 864 864 864 864 867 867 867 870 870 870 870 870 870 870 870 870 870 870 870 870 870 870 870 870 870 867 867 867 864 867 867 870 870 873 873 873 870 870 870 873 873 873 873 876 876 873 873 873 873 876 879 882 885 888 891 900 906 921 957 990 1023 1059 1092 1107 1119 1125 1125 1125 1116 1104 1092 1077 1062 1053 1044 1035 1032 1032 1035 1050 1062 1080 1095 1113 1119 1128 1125 1113 1104 1089 1074 1068 1074 1083 1089 1095 1101 1101 1098 1107 1125 1143 1152 1155 1158 1149 1140 1137 1140 1146 1164 1182 1200 1215 1230 1239 1245 1251 1254 1257 1263 1272 1284 1290 1293 1299 1296 1293 1290 1287 1284 1296 1305 1317 1332 1344 1347 1347 1344 1335 1326 1317 1311 1302 1296 1290 1284 1281 1278 1275 1272 1272 1263 1257 1248 1239 1227 1212 1200 1185 1170 1155 1143 1131 1119 1119 1116 1116 1122 1125 1125 1122 1119 1113 1107 1101 1095 1092 1092 1095 1098 1095 1095 1086 1074 1065 1047 1032 1014 993 972 954 936 921 912 906 900 897 894 891 888 885 885 882 885 891 894 909 921 933 936 942 951 963 975 993 1014 1035 1059 1083 1101 1119 1134 1143 1152 1161 1167 1173 1176 1179 1179 1179 1176 1173 1173 1170 1167 1164 1158 1155 1152 1140 1131 1119 1107 1092 1080 1065 1050 1044 1038 1032 1026 1020 1014 1011 1008 1005 999 993 984 975 966 954 945 939 930 927 927 927 924 921 912 894 879 870 864 858 858 858 858 855 855 855 855 855 858 861 864 864 867 879 891 906 921 939 945 951 954 951 948 936 924 909 897 882 873 870 864 861 858 855 855 852 849 849 849 846 846 843 843 843 843 843 846 846 846 846 843 843 843 843 843 843 843 846 846 846 849 849 852 858 861 873 885 894 906 915 930 948 966 987 1005 1020 1026 1035 1041 1044 1050 1059 1071 1074 1074 1074 1077 1080 1086 1095 1104 1110 1113 1119 1116 1116
1101 1101 867 867 867 867 867 867 864 864 864 864 864 867 867 867 867 867 867 867 870 870 870 870 867 867 867 867 864 864 864 864 867 867 867 870 870 870 870 873 873 876 873 873 870 870 870 867 867 867 867 864 864 867 867 867 870 870 870 870 870 870 870 870 870 870 873 873 873 876 876 873 873 873 873 873 879 882 885 888 891 894 900 912 945 975 1011 1050 1083 1095 1110 1113 1110 1110 1098 1086 1074 1062 1050 1041 1032 1023 1029 1035 1044 1059 1074 1086 1095 1104 1107 1113 1107 1101 1092 1080 1065 1056 1065 1071 1077 1083 1089 1092 1095 1104 1125 1143 1149 1152 1152 1140 1131 1128 1134 1140 1155 1173 1191 1203 1218 1221 1224 1227 1230 1233 1239 1251 1260 1266 1272 1278 1275 1275 1272 1272 1272 1284 1296 1311 1323 1335 1341 1341 1341 1338 1335 1329 1320 1314 1311 1308 1305 1302 1299 1296 1290 1287 1278 1266 1257 1245 1236 1224 1209 1197 1185 1173 1161 1152 1140 1137 1134 1134 1137 1140 1140 1140 1137 1131 1128 1122 1119 1116 1113 1113 1113 1107 1101 1092 1077 1065 1047 1029 1008 990 969 951 936 924 921 918 915 909 903 897 891 885 885 885 888 891 897 909 924 933 936 936 945 951 960 981 999 1020 1044 1068 1092 1116 1134 1146 1158 1170 1179 1188 1188 1188 1185 1182 1176 1170 1167 1161 1158 1155 1149 1140 1134 1125 1113 1104 1092 1083 1071 1059 1047 1035 1026 1020 1014 1008 1002 999 996 996 996 993 990 984 978 969 960 948 933 927 921 915 909 903 891 879 867 864 861 861 858 858 858 855 855 858 861 864 873 882 885 885 888 891 894 906 924 942 951 957 960 960 957 948 936 927 909 894 882 876 870 864 861 858 855 852 852 849 849 846 846 846 846 846 846 843 843 846 846 849 849 849 846 846 843 846 846 846 846 846 846 849 852 858 864 876 888 900 909 915 924 936 945 966 987 1005 1014 1023 1029 1032 1038 1050 1062 1068 1068 1065 1071 1074 1080 1086 1095 1101 1104 1104 1104 1101
1089 1089 867 867 867 867 867 867 867 864 864 867 867 867 867 867 867 864 864 867 867 867 867 867 867 864 864 864 864 867 867 867 867 867 867 870 870 870 870 870 870 870 870 870 870 870 870 867 867 867 867 864 867 867 867 870 870 870 870 870 870 870 870 870 870 870 873 873 873 873 873 873 873 873 873 873 876 879 882 885 888 891 891 903 927 954 987 1026 1062 1080 1095 1101 1098 1098 1083 1071 1059 1047 1038 1029 1023 1017 1029 1038 1050 1062 1074 1080 1083 1089 1092 1101 1095 1089 1080 1068 1053 1047 1053 1059 1065 1071 1077 1083 1092 1104 1125 1143 1146 1149 1146 1134 1119 1119 1122 1128 1146 1164 1179 1191 1200 1206 1206 1206 1209 1212 1218 1227 1239 1245 1254 1257 1257 1254 1257 1260 1260 1275 1290 1305 1317 1329 1332 1335 1338 1338 1338 1335 1329 1326 1323 1323 1323 1323 1320 1317 1308 1302 1290 1278 1266 1254 1245 1233 1221 1209 1200 1188 1182 1173 1167 1161 1158 1155 1158 1164 1161 1161 1158 1152 1149 1146 1143 1137 1134 1131 1125 1119 1110 1098 1083 1068 1050 1032 1014 996 978 966 954 945 948 948 942 927 912 903 894 885 885 885 888 894 900 912 927 933 933 930 936 942 951 966 984 1005 1032 1056 1083 1107 1128 1143 1158 1170 1182 1194 1188 1185 1179 1170 1158 1155 1152 1146 1143 1137 1131 1128 1122 1113 1107 1098 1089 1080 1071 1062 1050 1041 1032 1023 1014 1002 996 987 981 984 984 984 981 978 972 966 960 948 939 930 921 912 900 888 879 870 864 861 861 861 861 858 858 858 861 867 873 882 894 903 906 906 909 906 906 915 930 945 954 963 966 966 966 960 951 942 921 903 891 882 873 867 864 858 855 852 852 849 849 846 846 846 846 846 846 846 846 846 846 846 846 846 846 846 846 846 846 846 846 846 846 849 852 858 864 873 885 897 903 909 915 924 930 951 972 990 999 1011 1017 1023 1029 1041 1056 1062 1062 1062 1065 1068 1074 1080 1086 1089 1089 1092 1089 1086
1074 1074 867 867 867 867 867 867 867 867 867 867 867 867 867 867 867 864 864 864 864 864 864 864 864 864 864 864 864 864 867 867 867 864 867 867 867 867 867 867 867 870 870 870 870 870 870 867 867 867 867 867 867 867 867 870 870 870 870 867 867 867 867 870 870 870 870 870 870 870 873 873 873 873 873 873 873 876 876 879 882 885 885 894 909 927 960 999 1035 1056 1080 1089 1089 1089 1074 1059 1044 1035 1026 1020 1017 1017 1029 1044 1053 1056 1059 1062 1065 1068 1077 1092 1086 1077 1071 1056 1041 1035 1041 1047 1053 1056 1062 1077 1092 1107 1125 1140 1143 1140 1137 1122 1110 1107 1110 1113 1131 1149 1164 1176 1185 1191 1191 1194 1197 1200 1206 1215 1224 1230 1236 1239 1236 1233 1239 1245 1251 1269 1287 1302 1311 1320 1323 1323 1323 1323 1326 1329 1332 1335 1335 1335 1338 1338 1338 1332 1323 1311 1299 1287 1278 1266 1257 1245 1233 1221 1218 1212 1206 1203 1200 1194 1188 1182 1182 1182 1179 1173 1167 1158 1149 1143 1140 1134 1131 1125 1122 1116 1110 1101 1086 1074 1059 1041 1026 1011 996 987 975 969 963 960 948 930 915 903 894 885 885 885 888 897 903 915 930 936 936 936 939 945 954 969 981 1002 1026 1050 1074 1098 1122 1137 1155 1167 1179 1188 1182 1179 1170 1161 1149 1146 1143 1137 1134 1128 1125 1119 1116 1110 1104 1098 1089 1083 1074 1065 1059 1050 1041 1029 1017 1005 993 981 975 975 975 975 975 972 969 963 957 948 936 927 915 903 891 876 870 867 861 861 861 861 861 858 858 861 864 876 888 900 909 921 924 924 924 924 921 927 936 948 957 966 972 975 975 969 963 954 933 915 900 888 879 873 864 858 855 852 852 849 849 846 846 846 846 846 846 846 846 846 846 846 846 846 846 846 846 846 846 846 846 849 849 852 855 858 864 870 879 888 891 897 903 909 918 939 960 978 987 996 1005 1014 1023 1038 1050 1059 1062 1065 1065 1065 1065 1071 1074 1077 1077 1077 1074 1074
1059 1059 867 867 867 867 864 864 864 867 867 867 870 867 867 864 864 864 864 864 864 864 864 864 861 861 861 861 861 861 864 864 864 861 861 864 864 864 867 867 870 870 870 873 870 870 870 867 867 867 867 867 867 867 870 870 870 870 870 867 867 867 867 867 870 870 870 870 873 873 873 876 876 876 876 876 876 876 876 879 879 882 882 888 900 909 936 972 1005 1032 1062 1077 1077 1080 1065 1050 1035 1026 1014 1011 1011 1011 1029 1047 1056 1053 1050 1050 1047 1047 1059 1074 1074 1068 1062 1050 1035 1023 1029 1032 1038 1041 1047 1068 1089 1107 1122 1137 1137 1134 1128 1116 1104 1101 1098 1098 1119 1137 1152 1161 1170 1173 1176 1176 1182 1185 1194 1203 1215 1218 1221 1221 1218 1215 1218 1227 1236 1257 1278 1293 1302 1308 1311 1308 1308 1311 1311 1317 1326 1332 1335 1341 1344 1347 1350 1344 1335 1323 1311 1299 1290 1278 1269 1257 1245 1236 1233 1227 1227 1224 1224 1218 1212 1209 1203 1200 1191 1182 1170 1158 1146 1137 1131 1122 1119 1116 1113 1110 1107 1098 1089 1080 1065 1050 1038 1026 1014 1005 993 984 975 966 951 933 915 903 894 885 885 885 891 900 906 918 933 939 942 942 948 957 966 978 987 1005 1026 1047 1068 1092 1113 1134 1152 1164 1173 1182 1173 1167 1161 1152 1143 1137 1134 1131 1128 1122 1119 1116 1116 1110 1104 1098 1089 1083 1077 1071 1065 1059 1050 1038 1023 1011 996 981 972 969 966 966 966 969 963 957 951 942 933 918 900 885 879 870 864 864 861 861 864 861 861 858 861 867 873 888 900 912 918 927 930 933 936 936 939 942 948 954 963 975 981 984 984 978 972 963 945 930 915 900 888 879 870 861 858 855 852 849 849 846 846 846 846 846 846 846 846 846 846 846 846 843 843 846 846 846 846 846 846 849 849 849 852 855 861 867 873 879 882 885 891 894 900 915 933 948 960 975 987 1002 1014 1032 1047 1056 1062 1065 1062 1059 1059 1062 1065 1065 1065 1062 1062 1059
1044 1044 867 867 867 867 867 864 864 864 867 867 870 870 867 867 864 864 864 864 864 867 867 867 864 861 861 861 861 861 861 861 861 861 861 861 864 864 867 867 870 870 870 870 870 870 870 867 867 867 867 867 867 867 870 870 870 870 870 870 867 867 867 867 867 870 870 873 873 873 873 873 876 876 876 879 879 876 876 879 879 879 882 885 891 897 921 948 975 1008 1038 1056 1062 1068 1053 1035 1020 1008 999 999 1008 1017 1032 1050 1059 1050 1041 1035 1032 1029 1041 1059 1059 1059 1056 1041 1029 1017 1017 1017 1023 1029 1038 1062 1086 1107 1122 1134 1134 1128 1122 1110 1098 1092 1092 1089 1107 1128 1143 1149 1155 1158 1161 1161 1167 1170 1179 1191 1200 1203 1203 1203 1200 1197 1200 1212 1224 1245 1269 1284 1290 1296 1296 1296 1293 1296 1296 1302 1314 1323 1332 1338 1344 1350 1356 1350 1344 1335 1326 1314 1302 1290 1281 1269 1260 1251 1245 1239 1239 1239 1242 1239 1236 1230 1221 1212 1200 1188 1173 1155 1140 1125 1116 1104 1101 1098 1098 1098 1098 1092 1086 1080 1068 1059 1047 1038 1029 1014 1002 990 978 969 954 933 915 903 894 888 888 888 894 903 912 924 933 942 948 951 966 981 993 999 1005 1014 1029 1044 1065 1089 1110 1131 1152 1161 1167 1173 1164 1155 1146 1140 1134 1128 1119 1113 1110 1104 1101 1101 1098 1098 1095 1092 1086 1083 1077 1071 1065 1056 1047 1035 1020 1005 990 975 966 963 960 960 963 963 957 951 942 930 915 900 888 873 870 867 864 864 864 864 864 861 861 861 864 873 882 900 915 927 930 933 939 942 942 945 948 951 954 957 966 975 984 984 987 981 972 963 951 936 921 906 894 882 870 861 858 855 852 849 849 849 846 846 846 846 846 846 846 846 846 846 846 846 846 846 846 846 846 846 846 849 849 849 852 855 858 864 867 870 876 879 882 888 891 903 918 930 948 966 981 999 1017 1032 1047 1056 1059 1065 1059 1053 1047 1050 1053 1053 1050 1050 1047 1041
1026 1026 864 864 864 864 864 864 864 864 867 867 870 870 867 867 867 864 864 864 864 867 870 867 867 864 861 861 861 861 861 861 861 861 861 861 861 864 864 867 870 870 870 870 870 867 867 867 867 867 867 867 867 867 870 870 870 870 870 870 870 867 867 867 867 870 870 873 873 873 873 873 873 876 876 879 879 879 879 879 876 879 882 885 885 888 906 924 948 981 1014 1032 1041 1047 1032 1014 999 990 981 990 1008 1026 1041 1053 1056 1041 1026 1020 1017 1017 1029 1044 1047 1047 1050 1038 1026 1014 1011 1005 1011 1020 1029 1056 1083 1104 1119 1134 1131 1125 1116 1104 1089 1086 1083 1083 1101 1122 1137 1143 1146 1149 1149 1146 1152 1155 1164 1173 1185 1188 1188 1188 1185 1185 1194 1206 1221 1245 1269 1284 1284 1284 1284 1281 1281 1284 1284 1290 1299 1305 1314 1326 1335 1344 1356 1356 1353 1350 1338 1329 1320 1308 1296 1284 1275 1266 1263 1260 1257 1257 1257 1251 1248 1239 1230 1218 1203 1188 1170 1152 1134 1119 1107 1095 1089 1083 1083 1083 1086 1083 1083 1080 1071 1062 1053 1041 1032 1017 1002 990 978 969 951 930 909 900 894 888 888 891 897 909 921 927 933 942 948 951 969 990 1005 1014 1020 1032 1041 1053 1071 1089 1107 1128 1146 1155 1158 1161 1152 1146 1137 1131 1125 1116 1107 1101 1095 1089 1086 1086 1086 1083 1083 1083 1080 1077 1074 1068 1065 1053 1044 1032 1017 1002 987 972 963 960 954 954 957 957 951 945 933 918 903 888 876 867 864 864 864 864 867 864 864 861 861 861 870 882 894 912 927 936 939 942 945 948 951 954 957 960 960 963 969 978 984 987 987 981 972 966 954 939 927 912 897 885 870 861 858 855 852 849 849 849 849 846 846 846 846 846 846 846 846 846 846 846 846 846 846 846 846 846 849 849 849 849 852 855 858 861 864 867 870 873 879 885 891 903 912 927 948 969 987 1008 1026 1038 1050 1059 1059 1059 1050 1044 1038 1038 1041 1041 1038 1035 1032 1026
1014 1014 864 864 864 864 864 864 864 864 867 867 867 867 867 867 867 864 864 864 864 867 870 870 867 864 864 861 861 861 861 861 861 861 861 861 861 864 867 867 867 867 867 867 867 867 867 870 870 873 870 867 867 867 867 867 867 867 870 870 867 867 867 867 864 867 870 873 870 870 870 873 873 876 876 879 879 882 879 879 876 876 876 879 882 885 894 906 918 945 969 990 1002 1014 1002 987 978 978 981 996 1020 1041 1047 1053 1050 1032 1011 1008 1008 1008 1014 1023 1026 1026 1026 1017 1011 1005 1002 1002 1008 1014 1023 1050 1074 1098 1113 1128 1125 1116 1107 1092 1080 1074 1077 1077 1095 1113 1125 1131 1134 1134 1134 1134 1140 1146 1152 1164 1173 1176 1176 1176 1176 1176 1185 1203 1221 1245 1266 1278 1275 1272 1269 1266 1266 1269 1272 1275 1281 1287 1299 1311 1323 1338 1353 1356 1359 1359 1350 1341 1332 1320 1308 1302 1293 1287 1281 1278 1272 1269 1266 1260 1251 1242 1230 1218 1200 1182 1164 1146 1128 1110 1098 1083 1077 1068 1065 1068 1071 1074 1074 1074 1068 1062 1053 1041 1032 1017 1005 993 978 966 948 924 903 897 891 888 891 891 903 915 927 930 936 939 945 951 969 993 1014 1026 1038 1047 1059 1068 1080 1095 1110 1125 1143 1146 1149 1149 1143 1134 1128 1122 1116 1107 1098 1089 1083 1077 1074 1074 1074 1071 1071 1071 1068 1068 1065 1065 1062 1053 1044 1032 1017 1002 987 972 963 957 951 948 948 945 942 936 927 909 894 882 873 867 864 864 864 867 870 867 864 864 864 864 876 891 909 921 933 942 945 948 951 954 960 963 969 972 975 978 981 984 987 987 987 981 975 966 957 948 936 921 906 891 876 864 861 858 855 852 849 849 849 849 846 846 846 846 846 849 849 849 849 846 846 846 846 846 846 849 849 852 849 849 849 852 855 858 864 867 870 876 879 885 891 903 912 927 948 969 987 1008 1026 1035 1047 1050 1044 1038 1032 1026 1023 1026 1029 1029 1026 1023 1017 1014
1002 1002 867 867 867 867 864 864 864 864 867 867 867 867 867 867 867 867 867 867 867 867 870 870 867 867 867 864 864 861 861 861 861 861 861 861 861 864 867 867 867 867 867 867 867 867 867 870 870 870 870 870 870 870 870 867 867 867 867 870 867 867 864 864 864 867 867 870 870 870 870 873 873 876 879 879 879 879 879 879 876 876 876 876 879 882 885 891 897 912 930 945 960 975 972 966 963 978 990 1008 1032 1053 1053 1053 1041 1020 999 996 999 999 1002 1005 1005 1002 999 996 990 990 993 996 1002 1011 1023 1047 1074 1095 1110 1125 1119 1110 1098 1083 1068 1065 1068 1071 1086 1101 1113 1113 1116 1119 1116 1119 1128 1137 1146 1155 1164 1164 1161 1161 1164 1167 1182 1203 1227 1242 1257 1266 1260 1257 1251 1248 1248 1251 1254 1260 1263 1269 1281 1296 1311 1329 1347 1356 1362 1365 1359 1353 1344 1332 1320 1314 1311 1305 1299 1293 1287 1275 1266 1257 1248 1236 1224 1212 1194 1173 1155 1137 1119 1101 1089 1074 1062 1050 1044 1047 1050 1056 1059 1065 1059 1056 1050 1038 1029 1020 1008 999 978 957 939 915 894 891 888 888 894 897 909 921 936 936 936 939 945 951 969 990 1011 1029 1047 1059 1071 1083 1095 1107 1116 1128 1137 1140 1140 1137 1131 1125 1119 1113 1107 1101 1092 1083 1074 1065 1059 1059 1056 1059 1059 1062 1059 1059 1056 1053 1053 1047 1041 1032 1020 1008 999 987 975 966 954 945 939 930 924 918 909 897 882 876 870 867 867 864 867 867 867 867 864 864 873 879 891 906 918 927 936 942 945 951 954 960 963 969 972 978 981 984 987 990 993 990 990 984 975 966 957 948 936 921 903 891 879 870 864 858 855 852 849 849 849 849 846 846 846 849 849 849 849 849 849 846 846 846 846 846 846 849 849 852 852 849 849 852 852 858 861 867 873 879 885 891 900 909 921 933 951 969 987 1002 1017 1029 1038 1041 1035 1026 1023 1017 1014 1017 1020 1020 1017 1014 1008 999
990 990 867 867 867 867 867 867 867 867 867 867 867 867 867 867 867 864 864 864 867 867 867 870 867 867 867 867 864 864 861 861 861 861 861 861 861 864 867 867 867 867 867 864 864 867 867 867 870 870 870 870 870 870 870 870 867 867 867 867 867 864 864 864 864 864 867 867 867 870 870 873 876 876 879 879 879 876 876 879 879 879 876 876 876 879 879 879 882 888 894 906 921 936 942 948 960 984 1008 1029 1047 1065 1056 1050 1035 1011 990 987 990 993 993 993 990 984 978 969 963 963 972 981 993 1011 1026 1056 1083 1101 1110 1119 1113 1104 1095 1077 1062 1059 1062 1065 1077 1092 1098 1098 1095 1098 1101 1104 1119 1134 1146 1149 1155 1152 1146 1146 1152 1158 1176 1200 1224 1236 1248 1254 1248 1242 1236 1233 1230 1236 1239 1245 1245 1248 1263 1278 1296 1317 1338 1353 1362 1371 1368 1362 1356 1347 1338 1329 1323 1317 1308 1299 1287 1272 1257 1245 1230 1218 1203 1191 1176 1158 1140 1125 1107 1092 1077 1062 1050 1038 1032 1032 1035 1038 1044 1047 1047 1044 1038 1029 1020 1011 999 987 969 951 933 915 894 891 891 891 900 906 918 933 948 948 951 954 960 966 984 1005 1026 1044 1062 1077 1086 1098 1107 1119 1128 1131 1137 1134 1131 1128 1122 1113 1110 1104 1101 1092 1086 1080 1068 1053 1047 1047 1044 1047 1047 1050 1047 1047 1044 1044 1041 1038 1035 1029 1020 1011 1002 993 984 972 960 948 936 924 915 903 894 885 876 873 870 867 867 867 867 867 867 867 867 873 885 897 909 921 930 933 939 942 945 951 954 960 966 972 975 978 984 987 993 996 999 996 993 984 978 969 957 948 933 918 900 891 885 876 870 864 858 852 849 849 846 846 846 846 849 849 849 849 849 849 846 846 846 846 846 846 846 849 849 852 852 852 852 852 852 855 861 867 876 882 894 903 915 927 939 951 963 975 984 993 1002 1017 1029 1035 1035 1035 1029 1020 1014 1014 1014 1011 1008 1002 996 990
984 984 867 867 867 867 867 867 867 867 867 867 867 867 867 864 864 864 864 864 864 864 867 867 867 867 867 870 870 867 864 864 861 861 861 861 861 864 867 867 867 867 864 864 864 867 867 870 870 870 870 870 870 867 867 867 867 867 867 867 864 864 864 864 864 864 867 867 867 870 870 876 879 879 879 879 876 876 876 876 879 879 879 879 879 876 879 879 879 885 888 894 903 912 924 936 951 984 1017 1035 1053 1065 1053 1041 1023 999 975 975 978 984 981 981 975 966 957 951 945 945 960 975 996 1020 1044 1068 1092 1104 1107 1110 1104 1095 1083 1068 1053 1050 1053 1053 1065 1074 1080 1077 1077 1083 1092 1101 1116 1131 1140 1140 1140 1137 1134 1131 1140 1149 1170 1194 1221 1230 1239 1242 1236 1230 1224 1218 1215 1218 1221 1224 1227 1230 1245 1263 1281 1305 1329 1344 1356 1368 1368 1371 1368 1359 1350 1341 1335 1323 1311 1299 1284 1266 1245 1227 1209 1194 1182 1167 1152 1140 1125 1110 1095 1080 1065 1053 1041 1029 1020 1017 1017 1020 1026 1032 1032 1032 1026 1017 1008 996 984 972 957 945 930 912 894 894 891 894 903 912 927 945 963 966 972 978 984 990 1008 1029 1047 1065 1083 1095 1104 1113 1122 1131 1137 1137 1137 1134 1125 1119 1110 1101 1095 1092 1089 1086 1080 1074 1059 1047 1041 1035 1032 1032 1035 1035 1035 1035 1032 1032 1032 1026 1023 1017 1011 1002 996 990 984 975 966 954 939 924 912 900 891 882 873 870 867 867 867 867 867 867 867 873 879 888 906 924 933 939 942 942 942 945 945 948 954 960 966 972 978 984 987 993 996 1002 1002 999 996 987 978 969 957 942 933 921 912 909 906 900 888 879 867 858 849 849 849 849 849 849 849 849 852 849 849 849 849 846 846 846 849 849 849 849 849 849 852 852 852 852 852 855 861 867 876 888 900 912 927 939 951 963 972 984 990 999 1005 1017 1026 1032 1032 1029 1023 1014 1008 1008 1008 1002 999 996 990 984
978 978 870 873 873 870 867 867 867 867 867 870 870 867 867 867 867 867 864 864 864 864 864 864 864 867 867 867 867 867 867 864 864 861 861 861 861 864 864 864 864 864 864 864 864 867 867 867 867 870 870 870 870 867 867 867 867 867 867 864 864 864 864 864 864 867 867 867 867 870 870 873 879 879 879 879 876 873 873 876 876 876 876 876 876 876 879 879 879 882 885 888 894 900 912 924 945 981 1017 1038 1050 1059 1044 1029 1011 987 960 963 969 972 972 969 963 951 939 936 933 936 957 978 1005 1035 1062 1080 1098 1107 1104 1101 1092 1083 1074 1059 1044 1038 1038 1038 1044 1053 1056 1059 1059 1071 1089 1104 1116 1128 1134 1131 1128 1125 1119 1122 1134 1143 1164 1188 1212 1221 1227 1230 1224 1221 1212 1206 1200 1200 1200 1203 1206 1212 1230 1248 1269 1293 1314 1332 1347 1362 1368 1374 1374 1368 1362 1350 1338 1326 1311 1299 1278 1254 1230 1209 1185 1167 1155 1140 1128 1119 1107 1095 1080 1068 1056 1044 1032 1017 1008 1005 1002 1005 1011 1017 1017 1014 1011 999 990 981 969 960 951 939 927 912 894 894 894 897 909 921 936 957 975 990 1002 1014 1020 1029 1041 1056 1071 1086 1101 1113 1125 1134 1140 1143 1143 1140 1134 1125 1113 1101 1092 1083 1077 1074 1074 1068 1065 1059 1050 1038 1032 1023 1017 1020 1020 1020 1020 1020 1020 1020 1020 1014 1011 1005 999 990 984 978 972 966 957 948 936 921 909 894 885 879 873 870 870 870 870 873 873 873 873 885 897 912 930 945 951 954 954 954 951 951 948 948 954 960 966 975 981 987 993 999 1002 1008 1008 1002 999 990 981 972 963 951 945 942 936 933 930 924 906 888 873 861 849 849 849 849 849 849 849 849 852 849 849 849 849 849 849 849 849 849 849 849 849 849 849 852 852 852 852 855 861 870 879 891 906 924 942 954 963 972 978 984 993 999 1008 1014 1023 1023 1023 1023 1017 1008 1005 1005 1002 999 996 990 984 978
972 972 870 873 873 870 867 867 867 864 867 867 870 867 867 867 867 867 867 867 864 864 861 861 864 864 864 864 864 864 867 867 864 864 864 864 864 864 864 864 864 864 864 864 864 867 867 867 867 867 867 867 867 867 867 867 867 867 864 864 864 864 864 864 867 867 867 870 870 870 870 873 876 876 879 879 876 873 873 873 873 873 876 876 876 876 876 879 879 882 885 888 891 894 906 918 939 975 1014 1029 1038 1047 1029 1014 993 969 948 948 954 960 960 960 954 942 933 930 930 936 963 987 1017 1047 1077 1089 1098 1101 1095 1089 1080 1071 1062 1050 1038 1026 1017 1008 1017 1026 1035 1044 1053 1068 1089 1104 1113 1125 1125 1122 1116 1116 1113 1119 1137 1155 1173 1188 1203 1206 1209 1209 1206 1206 1200 1194 1188 1182 1179 1182 1188 1194 1215 1233 1254 1272 1293 1311 1329 1344 1356 1371 1374 1368 1362 1350 1335 1323 1308 1293 1275 1254 1233 1209 1185 1164 1146 1128 1113 1101 1086 1074 1062 1050 1041 1032 1020 1008 996 990 984 987 990 993 990 990 987 981 975 966 954 948 936 927 918 906 894 894 894 900 912 927 945 966 987 1008 1026 1041 1050 1059 1074 1086 1101 1113 1125 1137 1146 1152 1152 1152 1146 1137 1125 1113 1098 1086 1077 1068 1062 1059 1056 1050 1047 1041 1032 1023 1017 1008 1002 1005 1005 1008 1008 1011 1011 1008 1008 1002 999 993 984 978 972 966 960 954 948 939 930 921 906 891 882 876 873 873 873 873 876 876 879 882 882 900 918 933 948 963 966 966 966 963 957 957 954 954 957 963 969 975 984 990 999 1005 1011 1014 1014 1008 1002 996 987 981 972 966 963 966 966 963 957 945 921 897 879 864 849 849 849 849 849 849 849 849 849 849 849 849 849 849 849 849 849 849 849 849 849 849 849 849 849 849 849 855 864 873 885 897 918 942 966 969 975 978 978 981 987 996 1005 1008 1014 1014 1011 1008 1005 1002 1002 1002 1005 1002 996 990 981 972
969 969 867 864 864 864 864 864 864 864 864 867 867 867 867 867 867 864 864 867 864 864 861 861 861 861 861 861 861 861 861 864 864 864 864 864 864 864 864 864 861 861 864 864 864 864 864 867 867 867 867 867 870 870 870 867 867 867 867 864 864 864 864 864 867 867 867 870 870 870 870 870 873 873 873 873 870 870 870 870 873 873 876 876 876 876 879 879 879 882 885 885 888 891 900 912 930 963 999 1014 1020 1026 1008 993 972 954 936 936 945 948 948 948 942 933 924 927 927 939 966 996 1026 1056 1083 1089 1095 1095 1089 1080 1071 1062 1053 1044 1035 1020 1005 990 999 1008 1020 1041 1059 1074 1092 1107 1113 1119 1116 1110 1107 1110 1113 1122 1143 1164 1176 1185 1191 1191 1188 1188 1191 1191 1188 1182 1176 1170 1161 1164 1170 1176 1197 1215 1233 1251 1272 1290 1311 1332 1347 1362 1368 1362 1359 1347 1332 1317 1305 1290 1275 1257 1236 1212 1188 1164 1143 1122 1104 1086 1068 1056 1047 1035 1029 1020 1011 999 990 981 972 969 966 966 963 963 963 960 957 948 939 933 921 915 906 900 894 894 897 903 918 933 954 975 999 1023 1047 1065 1077 1086 1101 1116 1128 1140 1152 1161 1164 1170 1164 1158 1149 1131 1116 1101 1086 1074 1065 1059 1053 1044 1038 1032 1023 1017 1011 1005 999 993 984 987 993 996 999 1002 999 999 996 990 984 978 972 963 960 954 948 945 939 933 924 915 903 891 882 879 873 873 876 876 879 879 885 891 900 915 933 948 960 972 975 975 972 969 963 963 963 963 966 969 972 981 990 999 1008 1017 1020 1023 1023 1014 1008 1002 993 984 981 978 975 975 978 969 963 951 927 906 885 867 852 849 849 849 849 849 849 849 849 849 849 849 849 849 849 849 849 849 849 849 849 849 849 849 849 849 849 855 861 867 882 894 915 945 972 975 978 978 975 975 981 990 999 1005 1008 1008 1005 1005 1002 999 996 999 1005 999 993 987 975 966
960 960 864 864 864 864 864 864 864 864 864 867 867 867 867 867 867 864 864 864 864 864 861 861 861 861 861 861 861 861 861 861 861 864 864 864 867 867 867 864 864 864 864 864 864 867 867 867 867 867 867 867 867 867 867 867 867 867 867 867 867 867 867 867 867 867 867 870 870 870 870 870 870 870 870 870 867 867 867 870 870 873 873 876 876 876 876 879 879 882 882 885 885 888 894 903 915 945 972 987 993 996 981 966 951 936 924 927 933 936 936 936 930 924 918 924 930 945 975 1005 1032 1062 1089 1089 1092 1089 1080 1071 1062 1053 1047 1038 1032 1014 996 978 987 999 1017 1044 1068 1083 1098 1107 1107 1110 1107 1101 1095 1104 1116 1131 1152 1173 1179 1179 1179 1176 1170 1170 1173 1176 1173 1167 1164 1155 1149 1146 1152 1155 1173 1191 1209 1230 1248 1272 1299 1323 1338 1353 1359 1356 1350 1341 1329 1317 1302 1290 1275 1257 1239 1215 1194 1170 1146 1122 1101 1080 1059 1047 1035 1026 1020 1011 1008 1002 996 987 975 966 954 942 939 936 936 933 933 930 924 921 912 906 900 897 894 897 900 909 924 942 963 987 1014 1038 1062 1083 1095 1107 1119 1134 1149 1161 1176 1182 1182 1185 1173 1164 1149 1128 1110 1095 1080 1068 1062 1056 1050 1044 1038 1032 1023 1014 1005 996 990 984 978 978 981 981 984 987 987 987 987 984 978 972 963 957 951 948 942 933 927 918 909 900 894 885 882 879 876 879 882 882 885 888 894 903 912 927 945 957 969 981 981 981 981 975 969 966 966 966 972 975 981 987 996 1005 1014 1023 1026 1029 1026 1020 1014 1008 999 993 990 987 987 984 984 978 969 954 933 909 888 870 855 852 849 849 849 849 849 849 852 852 852 852 849 849 849 849 849 849 849 849 849 849 849 852 849 849 849 852 855 861 876 888 912 942 969 975 981 984 981 975 981 990 996 999 1002 1002 999 999 999 999 999 1002 1002 999 987 978 969 960
954 954 864 864 864 864 864 864 864 864 864 867 867 867 867 867 867 864 864 864 864 864 861 861 861 861 861 861 861 861 861 861 861 861 864 867 867 870 870 867 867 864 864 867 867 867 867 867 867 867 867 867 867 867 864 864 864 867 867 867 867 867 867 867 867 867 867 867 870 870 870 870 870 870 867 867 867 864 867 867 870 873 873 876 876 876 876 879 882 879 879 882 882 885 888 891 897 915 930 939 945 951 942 933 924 918 912 918 924 927 924 921 918 912 909 921 936 957 987 1020 1044 1065 1086 1083 1083 1080 1071 1062 1053 1047 1038 1029 1017 1005 987 969 990 1008 1029 1053 1080 1089 1095 1098 1095 1095 1089 1086 1083 1101 1119 1137 1152 1170 1173 1170 1167 1161 1155 1152 1155 1155 1152 1149 1143 1137 1128 1131 1137 1143 1161 1182 1200 1224 1245 1272 1299 1326 1338 1350 1353 1344 1338 1329 1320 1311 1299 1287 1269 1251 1233 1212 1191 1167 1146 1125 1107 1089 1071 1062 1050 1041 1032 1023 1020 1017 1014 1005 996 984 969 954 942 933 927 924 921 918 915 912 906 903 900 900 897 903 906 915 933 951 972 999 1023 1050 1080 1101 1116 1131 1143 1155 1167 1182 1197 1203 1200 1197 1185 1170 1152 1131 1110 1095 1086 1074 1071 1065 1059 1053 1050 1041 1032 1023 1011 999 993 984 978 975 972 972 972 972 972 975 975 972 969 963 954 948 942 936 930 921 912 903 894 885 885 882 879 879 879 885 891 894 897 903 909 918 927 942 954 969 978 990 990 990 987 981 975 972 972 972 975 981 987 993 1002 1011 1020 1029 1029 1032 1029 1026 1020 1014 1005 999 999 996 996 993 990 981 972 957 933 912 891 873 858 855 852 849 849 849 849 849 849 852 855 852 852 849 849 849 849 849 849 849 849 849 852 852 852 852 849 849 852 858 867 879 903 933 963 975 987 993 993 993 993 993 993 993 990 990 990 993 999 1005 1011 1008 1008 996 981 966 960 951
942 942 864 864 864 864 864 864 864 864 867 867 867 867 867 867 867 867 867 867 864 864 861 861 861 861 861 861 861 861 861 861 861 861 864 864 867 870 870 870 870 867 867 867 867 867 867 867 867 867 867 870 867 864 864 864 864 864 867 867 867 867 867 867 867 867 867 867 867 870 870 870 870 870 870 870 867 867 867 867 870 870 873 873 876 876 876 879 879 879 882 882 882 882 885 888 891 897 903 909 915 918 918 915 912 909 906 909 912 915 912 909 909 909 909 930 951 975 1005 1035 1056 1071 1083 1077 1074 1065 1056 1047 1038 1029 1020 1008 996 984 972 963 987 1011 1035 1056 1077 1083 1083 1083 1080 1077 1074 1077 1077 1098 1119 1137 1149 1161 1161 1158 1155 1149 1143 1140 1137 1137 1134 1131 1125 1122 1116 1122 1131 1140 1161 1179 1203 1227 1251 1278 1305 1329 1338 1344 1344 1335 1326 1320 1314 1308 1296 1281 1266 1248 1227 1209 1188 1167 1149 1131 1116 1101 1089 1080 1071 1059 1050 1041 1038 1035 1032 1026 1020 1008 993 975 960 945 933 927 921 915 909 906 903 903 903 903 903 909 915 924 942 960 981 1005 1032 1062 1095 1122 1140 1161 1170 1179 1188 1203 1218 1221 1218 1215 1194 1176 1155 1137 1119 1107 1101 1092 1089 1086 1083 1077 1071 1059 1047 1035 1026 1014 1005 999 990 981 972 966 960 957 957 960 960 960 957 951 945 936 927 918 909 903 897 891 885 882 879 879 879 885 888 897 906 915 921 924 930 936 939 954 966 978 990 999 999 999 996 990 984 981 978 978 981 984 990 999 1008 1020 1029 1035 1038 1038 1038 1032 1029 1023 1017 1011 1008 1005 1002 999 993 984 975 960 936 915 894 879 861 858 852 852 849 849 849 849 849 852 852 855 852 852 852 849 849 849 849 849 849 849 852 855 855 852 849 849 852 855 867 876 897 924 954 966 978 984 984 984 984 981 978 969 960 963 969 975 987 999 1005 1002 999 987 972 954 948 942
933 933 864 864 861 864 864 864 864 864 867 867 867 867 867 867 867 867 867 867 867 864 864 864 861 861 861 861 861 861 861 861 861 861 864 867 867 867 867 867 867 867 867 867 867 867 867 867 867 867 867 870 867 864 864 864 864 867 867 867 867 867 867 867 867 867 867 867 867 870 870 870 870 870 873 873 870 867 867 867 870 870 873 873 876 876 876 876 879 879 882 882 882 879 882 885 888 888 888 891 894 897 900 903 903 900 897 900 903 906 903 903 903 909 912 939 966 993 1023 1050 1065 1071 1077 1068 1059 1050 1038 1029 1017 1008 996 981 966 960 957 957 984 1014 1035 1053 1068 1071 1068 1065 1062 1059 1062 1068 1077 1095 1116 1131 1140 1146 1149 1146 1143 1137 1131 1125 1122 1116 1113 1110 1110 1113 1116 1125 1137 1152 1173 1194 1215 1239 1266 1287 1311 1329 1335 1338 1335 1326 1317 1311 1308 1302 1290 1281 1266 1248 1230 1212 1191 1176 1161 1149 1134 1122 1110 1095 1083 1071 1062 1053 1050 1047 1044 1038 1032 1023 1011 999 987 975 963 951 936 927 915 906 906 903 903 903 903 909 918 927 948 966 987 1011 1038 1074 1110 1140 1164 1188 1200 1206 1218 1227 1239 1239 1227 1218 1200 1179 1161 1146 1131 1122 1116 1110 1107 1101 1095 1089 1080 1068 1056 1044 1032 1023 1014 1008 1002 996 987 978 969 960 954 951 948 945 945 939 933 927 918 906 900 894 888 885 882 882 882 885 888 897 903 912 918 927 930 936 942 945 951 963 978 987 999 1008 1008 1005 1005 1002 996 996 993 993 993 996 999 1011 1023 1032 1038 1044 1047 1047 1047 1044 1041 1035 1026 1020 1017 1014 1011 1005 999 990 978 966 945 927 912 894 876 867 858 852 852 852 852 849 849 852 852 852 852 852 852 852 849 849 849 849 849 849 852 855 855 852 849 849 852 855 864 873 888 912 933 945 957 963 963 963 963 957 954 945 933 936 948 960 975 990 996 993 990 978 960 945 939 933
930 930 864 864 861 864 864 864 864 867 867 867 867 867 867 867 867 867 867 867 867 867 867 864 864 861 861 861 861 861 861 861 861 861 864 867 867 864 864 864 864 864 867 867 867 867 864 864 864 864 867 867 867 864 864 864 864 867 867 867 864 864 864 864 864 864 864 864 867 867 870 870 870 870 870 870 870 867 867 870 870 873 873 873 873 873 876 876 879 879 882 882 879 879 882 882 885 888 888 891 891 891 894 894 894 894 894 894 897 900 900 897 903 906 912 945 975 1005 1029 1056 1059 1059 1059 1050 1041 1029 1014 1002 990 978 969 960 951 948 951 957 987 1020 1041 1050 1059 1056 1050 1044 1047 1050 1059 1074 1089 1101 1113 1122 1125 1128 1131 1131 1131 1125 1116 1110 1104 1095 1095 1098 1101 1116 1128 1140 1155 1167 1188 1206 1227 1251 1275 1296 1311 1326 1326 1326 1323 1314 1302 1299 1296 1293 1284 1278 1266 1248 1233 1215 1197 1182 1170 1158 1143 1131 1119 1104 1092 1083 1077 1071 1065 1062 1056 1047 1038 1029 1020 1008 996 984 972 960 951 936 924 912 909 903 903 903 906 912 921 930 948 963 987 1014 1041 1080 1119 1155 1182 1209 1221 1233 1245 1251 1257 1248 1236 1221 1203 1185 1170 1158 1146 1137 1131 1125 1119 1116 1107 1095 1086 1074 1062 1050 1038 1029 1023 1017 1011 1005 999 990 978 966 957 945 936 933 930 927 924 921 909 900 894 891 888 885 885 885 888 894 900 909 915 924 930 936 939 945 948 954 960 972 987 999 1005 1014 1017 1014 1014 1014 1014 1014 1014 1014 1011 1011 1014 1026 1038 1044 1047 1053 1053 1056 1056 1053 1053 1047 1038 1032 1029 1026 1020 1014 1008 996 984 972 960 951 936 921 903 885 867 858 855 852 852 852 852 852 852 852 852 852 852 849 849 849 849 849 849 849 849 852 852 852 849 849 852 852 858 864 873 888 903 912 921 927 924 924 924 927 927 921 918 924 939 954 966 981 990 987 981 969 951 933 930 930
936 936 864 864 864 864 864 864 864 867 867 867 870 867 867 867 867 870 867 867 867 864 864 864 864 864 861 861 861 861 861 861 861 864 864 867 867 864 861 861 861 861 861 864 864 864 867 867 864 864 864 864 864 864 861 864 864 864 864 864 867 867 867 867 867 864 864 864 867 867 867 870 870 873 873 873 873 873 873 873 873 873 876 876 876 876 876 876 876 879 879 882 879 879 879 882 882 885 885 888 888 888 891 891 891 891 891 894 894 894 894 897 900 909 915 948 981 1011 1032 1050 1053 1047 1041 1029 1020 1008 993 978 969 960 951 948 942 945 951 960 993 1026 1044 1050 1053 1047 1038 1035 1044 1050 1062 1080 1095 1101 1104 1107 1110 1110 1113 1116 1119 1110 1104 1095 1089 1080 1086 1092 1101 1122 1143 1158 1173 1188 1203 1218 1239 1260 1284 1299 1311 1323 1320 1317 1308 1299 1287 1284 1284 1281 1278 1275 1266 1251 1236 1221 1206 1191 1176 1164 1149 1137 1122 1113 1104 1095 1092 1086 1080 1074 1065 1056 1044 1032 1020 1008 996 981 972 966 957 945 930 921 912 903 903 906 909 915 924 933 945 960 984 1011 1041 1083 1125 1161 1191 1224 1242 1257 1269 1269 1269 1257 1239 1221 1209 1194 1182 1170 1158 1152 1146 1140 1131 1125 1113 1101 1086 1074 1062 1053 1044 1035 1029 1023 1017 1011 1005 999 987 975 960 945 933 927 921 918 915 912 906 903 897 894 888 891 894 897 903 909 915 918 921 927 936 942 948 954 957 963 966 981 993 1005 1017 1026 1026 1026 1026 1026 1026 1026 1026 1026 1026 1023 1026 1035 1047 1053 1059 1062 1062 1062 1059 1059 1059 1053 1047 1044 1038 1035 1029 1020 1014 1005 993 984 975 966 951 936 918 897 873 861 858 855 852 852 852 852 852 852 852 852 852 852 849 849 849 849 849 849 849 852 852 852 852 852 852 852 855 861 867 879 888 897 903 906 906 906 909 909 909 909 912 918 930 945 957 972 981 972 963 951 936 924 930 936
948 948 864 864 864 864 864 864 867 867 867 867 867 867 867 867 867 867 867 864 864 864 861 861 861 861 861 861 861 861 861 864 864 867 867 867 864 864 861 861 861 861 861 861 861 864 864 864 864 864 864 864 861 861 861 864 864 864 864 864 867 867 867 867 867 867 864 864 867 867 867 870 873 873 873 873 876 876 876 873 873 873 876 876 876 876 876 876 876 879 879 879 879 879 879 879 879 882 882 885 885 888 888 888 888 891 891 891 891 891 894 894 900 909 921 954 987 1014 1029 1047 1041 1032 1023 1011 1002 990 975 963 954 948 942 939 936 945 957 969 999 1032 1050 1047 1047 1041 1035 1032 1044 1056 1068 1083 1095 1092 1089 1089 1089 1092 1095 1098 1098 1095 1089 1083 1077 1074 1083 1095 1113 1137 1161 1179 1191 1206 1218 1230 1245 1269 1290 1305 1311 1320 1311 1305 1296 1284 1275 1269 1266 1266 1266 1269 1263 1257 1248 1233 1218 1203 1188 1173 1158 1146 1134 1125 1116 1110 1107 1101 1092 1083 1071 1059 1047 1032 1017 1002 987 972 963 957 948 939 927 918 912 909 906 909 912 918 927 936 945 957 978 1002 1029 1071 1110 1149 1185 1218 1239 1260 1275 1269 1266 1254 1239 1227 1212 1200 1188 1179 1167 1161 1152 1146 1137 1128 1116 1101 1086 1074 1065 1053 1044 1035 1029 1023 1017 1011 1005 999 987 975 960 945 933 927 921 918 918 915 912 906 903 903 903 906 912 918 924 930 933 933 930 939 948 957 960 963 966 972 975 990 1005 1017 1026 1035 1038 1038 1038 1041 1041 1041 1041 1041 1038 1035 1035 1047 1056 1062 1065 1068 1065 1065 1062 1065 1065 1062 1056 1050 1044 1038 1029 1023 1017 1008 999 990 981 975 960 948 933 909 885 870 861 855 852 852 852 852 852 852 852 852 852 852 849 849 849 849 849 849 852 852 852 852 852 852 852 852 855 858 864 870 879 885 891 894 894 897 897 897 900 900 903 912 921 930 945 957 963 951 942 933 924 918 933 948
966 966 864 864 864 864 864 867 867 867 867 867 867 867 867 867 867 864 864 864 861 861 861 861 861 861 861 861 861 861 861 864 867 867 867 867 864 864 861 861 861 861 861 861 861 864 864 864 864 864 864 861 861 861 864 864 867 867 867 867 867 867 867 867 864 867 867 867 867 867 870 870 873 873 873 873 873 873 873 873 873 873 873 873 876 876 876 876 876 879 879 879 879 876 876 876 879 879 882 885 885 888 888 888 888 888 891 891 891 891 894 894 903 918 933 966 996 1020 1032 1047 1038 1029 1017 999 984 969 960 948 942 936 933 933 930 945 963 984 1011 1038 1050 1044 1041 1038 1035 1035 1047 1059 1068 1077 1083 1080 1077 1074 1077 1077 1080 1080 1083 1077 1074 1071 1071 1071 1086 1104 1125 1149 1173 1191 1206 1221 1230 1242 1257 1275 1296 1305 1311 1314 1305 1299 1287 1275 1263 1257 1254 1251 1254 1257 1254 1254 1251 1239 1224 1212 1200 1188 1176 1164 1155 1146 1137 1128 1116 1107 1095 1083 1071 1059 1047 1032 1020 1008 996 984 969 957 945 936 927 918 915 912 912 912 912 921 930 939 948 954 975 999 1026 1065 1107 1143 1179 1212 1236 1257 1272 1269 1266 1257 1242 1230 1218 1206 1194 1185 1173 1167 1158 1149 1137 1125 1110 1095 1077 1065 1056 1044 1035 1026 1023 1020 1017 1011 1005 996 987 975 963 948 936 930 924 921 921 918 915 912 909 915 918 924 933 939 945 951 951 948 942 951 963 969 972 972 975 981 987 1002 1017 1029 1038 1047 1050 1050 1053 1056 1056 1059 1059 1056 1053 1047 1047 1059 1068 1071 1074 1074 1068 1065 1065 1068 1074 1068 1065 1056 1047 1038 1029 1020 1014 1005 999 990 984 975 966 957 945 924 900 882 870 855 852 852 852 852 852 852 852 852 852 852 852 849 849 849 849 849 852 852 852 855 855 855 852 852 855 858 861 867 873 879 882 885 888 888 891 891 891 894 897 900 903 909 912 918 921 918 915 918 921 927 945 966
978 978 867 864 864 864 867 867 867 867 867 867 867 867 864 864 864 864 861 861 861 861 861 861 861 861 861 861 861 861 864 864 867 867 867 864 864 861 861 861 861 861 861 861 861 861 864 864 864 864 864 864 864 864 864 867 867 867 867 867 867 867 867 867 867 867 867 867 867 870 870 870 873 873 873 873 873 873 873 873 873 873 870 870 873 873 876 876 876 876 876 876 879 879 879 879 879 879 879 882 885 885 885 885 888 888 888 891 891 891 897 903 918 942 963 987 1011 1026 1032 1038 1032 1020 1008 990 972 957 948 939 933 927 924 927 930 948 972 996 1017 1038 1044 1038 1029 1029 1032 1035 1047 1059 1065 1068 1071 1068 1062 1062 1062 1062 1065 1065 1065 1062 1059 1062 1068 1077 1095 1116 1140 1161 1185 1203 1218 1236 1245 1257 1266 1281 1296 1302 1308 1308 1299 1290 1278 1266 1251 1245 1236 1233 1236 1239 1242 1245 1248 1239 1230 1221 1212 1203 1194 1185 1179 1167 1155 1143 1125 1110 1098 1083 1071 1059 1044 1035 1029 1020 1011 1002 990 969 948 936 927 921 918 915 912 915 915 924 933 942 948 954 975 1002 1029 1068 1107 1143 1173 1206 1227 1248 1263 1266 1266 1260 1248 1233 1224 1212 1200 1191 1179 1170 1161 1149 1131 1113 1095 1074 1056 1041 1029 1020 1014 1011 1008 1011 1011 1005 999 993 981 972 960 948 939 930 924 921 921 918 918 915 915 924 933 939 942 948 951 951 954 954 954 963 975 981 978 978 981 990 996 1014 1029 1044 1053 1062 1065 1065 1065 1068 1071 1071 1074 1074 1071 1068 1065 1071 1077 1080 1077 1077 1074 1071 1071 1074 1074 1068 1062 1053 1044 1032 1023 1014 1008 999 990 981 975 966 960 954 948 930 909 891 876 858 855 852 852 852 852 852 852 852 852 852 852 852 852 852 852 852 852 852 852 855 855 855 855 855 855 858 861 867 870 873 876 879 882 885 885 885 888 888 888 891 894 894 897 900 903 906 912 921 933 948 963 978
984 984 867 864 864 864 864 867 867 867 867 867 867 867 867 864 864 864 864 861 861 861 861 861 861 861 861 861 861 861 861 864 867 867 864 864 861 861 861 861 861 861 861 861 861 861 861 864 864 864 864 864 864 867 867 867 867 867 867 867 867 867 867 867 867 867 867 870 870 870 870 870 870 870 873 873 873 873 873 873 873 870 870 870 870 873 873 873 873 876 876 876 879 879 879 879 879 879 879 879 882 882 882 885 885 888 888 888 891 894 903 918 936 969 999 1011 1023 1029 1026 1023 1020 1011 1002 981 960 948 939 930 924 921 921 924 930 951 978 1008 1020 1032 1035 1026 1017 1020 1026 1032 1044 1053 1056 1053 1053 1053 1050 1050 1050 1050 1050 1047 1047 1047 1050 1059 1074 1089 1113 1134 1158 1176 1197 1218 1233 1251 1260 1269 1278 1287 1299 1302 1302 1299 1290 1281 1269 1257 1242 1230 1218 1212 1215 1215 1221 1230 1236 1233 1230 1227 1218 1212 1203 1197 1188 1176 1164 1152 1134 1119 1104 1089 1074 1062 1050 1044 1038 1032 1023 1014 1002 984 969 957 945 933 927 918 918 924 927 936 942 948 951 957 975 999 1026 1065 1104 1137 1167 1197 1221 1245 1263 1269 1272 1266 1257 1245 1236 1224 1215 1203 1191 1176 1164 1149 1128 1107 1083 1059 1032 1017 1005 993 990 984 984 984 984 981 978 972 963 951 945 939 933 927 924 921 915 912 915 918 924 936 945 951 957 960 963 963 966 969 969 978 987 993 990 990 993 1002 1008 1026 1041 1056 1065 1074 1077 1077 1080 1080 1083 1083 1086 1089 1086 1086 1083 1086 1089 1086 1083 1077 1077 1074 1074 1071 1071 1062 1056 1047 1038 1029 1020 1011 1002 993 984 975 969 963 957 954 948 930 915 897 879 861 855 855 852 852 852 852 852 852 852 852 852 852 852 852 852 852 852 852 852 855 858 855 855 855 855 858 861 864 867 870 873 876 879 882 882 882 882 885 885 885 888 888 891 894 900 909 918 936 954 972 978 984
999 999 864 864 864 864 864 867 867 867 867 867 867 867 867 867 867 867 867 864 861 861 861 861 861 861 861 861 861 861 861 864 867 867 864 864 861 861 861 861 861 861 861 861 861 861 861 861 861 864 864 867 867 867 867 867 867 867 867 867 867 867 867 867 867 867 870 870 870 870 870 870 870 870 870 870 873 873 873 873 873 873 870 870 870 870 870 870 873 873 876 876 876 879 879 879 879 879 879 879 879 882 882 882 885 885 888 891 897 903 918 939 957 984 1011 1014 1014 1014 1008 1002 999 1002 999 981 963 948 936 924 921 918 921 930 942 966 993 1020 1023 1026 1023 1014 1002 1008 1014 1020 1029 1038 1041 1041 1041 1038 1038 1038 1038 1038 1041 1041 1044 1056 1065 1080 1098 1116 1134 1155 1176 1194 1215 1230 1248 1263 1272 1281 1287 1293 1296 1296 1293 1290 1281 1269 1257 1245 1230 1215 1203 1191 1191 1191 1197 1206 1215 1215 1218 1218 1212 1206 1200 1191 1185 1176 1167 1158 1143 1131 1116 1101 1086 1077 1065 1056 1050 1041 1032 1023 1011 996 984 969 954 942 933 924 924 930 936 942 948 954 960 966 987 1011 1035 1071 1107 1140 1170 1203 1227 1251 1269 1275 1281 1278 1269 1260 1248 1236 1224 1209 1194 1182 1164 1149 1128 1107 1083 1056 1026 1011 996 984 981 975 972 972 969 966 960 954 942 933 930 927 927 924 924 921 915 909 918 927 936 945 954 960 966 972 975 978 981 981 984 990 996 1002 1005 1005 1008 1014 1023 1038 1053 1068 1077 1089 1092 1092 1092 1092 1092 1095 1098 1104 1104 1104 1104 1104 1104 1098 1089 1080 1077 1074 1071 1068 1065 1056 1047 1038 1032 1023 1014 1005 996 990 984 975 969 963 957 951 945 930 915 897 879 864 858 855 855 852 852 852 852 852 852 852 852 852 852 852 852 852 852 852 855 858 858 858 855 855 858 861 861 867 870 870 873 876 876 876 879 879 882 882 882 885 885 888 891 897 903 918 936 954 975 993 996 999
1017 1017 864 864 864 864 867 867 867 867 867 867 864 864 864 864 867 867 864 864 861 861 861 861 861 861 861 861 861 861 864 864 864 864 864 864 864 861 861 861 861 861 861 861 861 861 861 861 861 864 864 864 867 867 867 867 867 867 864 864 864 864 867 864 864 867 867 870 870 870 870 870 870 870 870 870 870 873 873 873 873 873 873 870 870 870 870 870 870 873 873 873 876 876 876 876 879 879 879 879 879 879 882 882 885 885 888 891 897 906 927 951 969 993 1014 1011 1005 999 993 987 990 993 996 981 966 951 936 918 918 918 924 942 957 981 1008 1029 1026 1023 1017 1005 993 996 1005 1011 1017 1023 1026 1026 1029 1029 1029 1029 1029 1029 1038 1044 1053 1071 1089 1107 1122 1140 1158 1176 1194 1212 1230 1248 1263 1278 1284 1290 1293 1293 1293 1287 1284 1278 1266 1257 1245 1233 1218 1203 1185 1173 1173 1170 1176 1182 1191 1197 1200 1200 1197 1194 1188 1179 1173 1170 1167 1161 1152 1146 1131 1116 1104 1095 1086 1074 1065 1056 1041 1029 1017 1005 990 975 960 948 936 927 927 933 939 948 954 963 975 987 1008 1029 1053 1086 1119 1152 1188 1221 1245 1266 1284 1290 1296 1293 1284 1272 1260 1245 1230 1212 1194 1179 1164 1146 1131 1116 1095 1074 1050 1035 1020 1011 1005 999 993 984 978 966 957 948 939 930 927 924 924 921 921 921 921 921 933 942 948 954 957 963 969 975 981 987 990 990 993 996 999 1002 1008 1014 1020 1029 1038 1050 1065 1077 1086 1098 1101 1101 1101 1098 1098 1101 1107 1113 1113 1116 1116 1116 1113 1107 1098 1092 1083 1077 1071 1065 1056 1050 1041 1032 1026 1017 1011 999 990 984 978 969 966 960 954 951 945 927 912 894 879 864 858 858 855 855 855 855 852 852 852 852 852 852 852 852 852 852 852 852 852 855 855 855 855 855 858 861 861 864 867 870 870 873 873 873 876 876 879 882 885 888 894 900 903 906 915 936 957 975 993 1011 1014 1017
1035 1035 864 864 864 864 867 867 867 867 867 867 867 864 864 864 864 864 864 864 861 861 861 861 861 861 861 861 861 861 864 864 864 864 864 864 864 861 861 861 861 861 861 861 861 861 864 864 864 864 864 864 867 867 870 867 867 864 864 861 864 864 864 864 864 867 867 870 870 870 870 870 867 867 867 867 870 870 873 873 873 873 873 873 873 873 870 870 870 870 870 873 873 876 876 876 876 879 882 879 879 879 879 882 882 885 885 891 894 903 927 960 975 993 1014 1002 993 987 981 978 981 987 990 981 972 957 936 918 918 921 930 951 975 999 1017 1035 1029 1023 1011 1002 990 993 996 1002 1005 1008 1011 1014 1017 1020 1020 1023 1026 1029 1041 1059 1077 1098 1119 1137 1149 1164 1182 1197 1212 1230 1248 1263 1278 1290 1293 1293 1290 1284 1278 1272 1266 1260 1251 1242 1230 1221 1209 1191 1176 1161 1155 1152 1155 1164 1173 1176 1182 1182 1176 1173 1167 1158 1152 1155 1158 1158 1158 1158 1146 1134 1125 1113 1104 1092 1077 1062 1047 1032 1017 1005 993 975 960 948 933 921 921 930 936 948 957 972 990 1008 1026 1047 1068 1098 1131 1161 1197 1230 1254 1278 1296 1302 1308 1302 1293 1281 1263 1245 1227 1206 1188 1170 1155 1140 1125 1110 1098 1083 1068 1056 1044 1032 1026 1017 1011 1002 993 981 969 957 945 936 930 927 924 924 921 927 933 942 948 954 960 960 963 969 975 984 990 996 999 1002 1002 1005 1008 1011 1017 1026 1032 1041 1050 1062 1077 1089 1098 1110 1113 1113 1113 1113 1110 1113 1119 1125 1125 1125 1125 1125 1122 1116 1110 1101 1092 1083 1074 1065 1053 1044 1035 1026 1020 1011 1002 993 981 975 966 960 954 951 948 945 939 924 906 891 876 861 858 858 858 855 855 855 855 852 852 852 852 852 852 852 852 852 852 852 852 855 855 855 855 855 858 858 861 864 864 867 870 870 873 873 873 876 879 885 891 897 906 915 918 921 930 954 978 996 1014 1026 1032 1035
1059 1059 864 864 864 864 864 867 867 867 867 867 867 864 864 864 864 864 864 861 861 861 861 861 861 861 861 861 861 861 864 864 864 864 864 861 861 861 861 861 861 861 861 861 861 864 864 864 864 864 864 864 867 870 870 870 867 864 864 861 861 864 864 864 864 867 870 870 870 870 867 867 867 867 867 867 867 870 870 870 873 873 873 873 873 873 873 873 873 873 873 873 873 876 876 876 879 879 879 879 882 882 879 879 879 882 882 885 888 897 915 939 954 975 993 981 972 966 966 969 975 978 981 969 960 945 930 915 915 915 924 951 975 996 1014 1029 1017 1008 996 981 969 972 981 987 990 993 996 999 1002 1011 1017 1023 1032 1041 1056 1077 1095 1119 1143 1161 1176 1194 1206 1221 1233 1251 1266 1278 1287 1299 1296 1290 1284 1275 1263 1254 1245 1239 1230 1221 1212 1203 1194 1182 1170 1158 1149 1140 1140 1146 1155 1158 1161 1161 1158 1155 1146 1137 1134 1137 1143 1149 1152 1158 1152 1146 1140 1131 1122 1107 1089 1074 1056 1038 1020 1005 990 975 957 942 930 918 921 927 936 951 963 981 1005 1026 1047 1065 1083 1110 1140 1170 1203 1236 1260 1284 1302 1308 1314 1308 1296 1281 1263 1242 1221 1203 1182 1164 1146 1128 1116 1104 1092 1083 1077 1065 1056 1047 1038 1029 1023 1014 1005 993 978 966 954 942 936 933 930 930 930 936 948 963 963 966 969 969 969 975 984 990 996 1005 1008 1014 1017 1020 1020 1026 1032 1038 1044 1053 1062 1074 1086 1101 1113 1125 1128 1128 1128 1128 1128 1131 1134 1137 1137 1137 1134 1131 1128 1122 1119 1113 1101 1092 1080 1068 1053 1041 1029 1017 1008 1002 990 981 969 960 948 942 939 936 936 933 930 915 900 888 873 861 861 858 858 858 855 855 855 855 855 855 852 852 852 852 852 852 852 855 855 855 855 855 855 855 858 858 861 861 864 867 867 870 873 873 876 879 885 894 906 915 924 933 933 933 942 966 990 1008 1026 1041 1050 1059
1074 1074 861 861 861 861 864 864 864 864 864 867 867 864 864 864 864 864 864 864 864 861 861 861 861 864 861 861 861 864 864 864 864 864 861 861 861 861 861 861 861 861 861 861 861 864 864 864 864 864 864 864 867 870 873 870 870 867 867 864 864 864 864 864 864 867 867 870 870 870 867 867 867 867 867 867 867 870 870 870 870 873 873 873 873 873 873 873 873 873 873 873 876 876 876 876 876 879 879 879 882 882 879 879 879 879 879 882 885 888 903 918 930 948 963 957 948 948 954 963 966 969 969 960 948 936 924 912 912 915 924 948 972 987 1002 1014 1002 990 978 963 951 957 963 969 972 972 978 984 987 1002 1017 1029 1044 1059 1077 1095 1116 1140 1164 1185 1203 1218 1230 1242 1251 1266 1281 1290 1296 1302 1296 1287 1278 1263 1248 1236 1227 1215 1209 1200 1191 1185 1179 1170 1164 1155 1140 1128 1128 1131 1134 1137 1140 1140 1137 1134 1128 1119 1113 1119 1125 1134 1143 1152 1152 1152 1149 1140 1134 1119 1104 1086 1065 1044 1023 1005 987 969 951 936 924 918 921 930 942 957 972 993 1020 1047 1065 1083 1098 1122 1146 1173 1206 1236 1263 1287 1305 1311 1314 1305 1290 1278 1257 1236 1218 1197 1176 1155 1134 1116 1104 1089 1077 1071 1062 1056 1050 1044 1038 1032 1026 1017 1008 993 978 966 954 945 942 939 939 945 954 960 972 981 978 975 972 972 969 978 987 996 1005 1011 1020 1026 1035 1038 1044 1047 1050 1056 1062 1065 1071 1086 1098 1113 1128 1143 1146 1149 1152 1149 1149 1146 1146 1143 1140 1137 1134 1128 1125 1119 1113 1107 1098 1089 1077 1065 1053 1038 1026 1014 1005 996 984 975 963 954 942 933 927 918 915 915 912 903 891 882 876 867 864 861 858 858 858 858 855 855 855 855 855 855 852 852 852 852 855 855 858 858 858 855 855 855 855 858 858 861 864 864 867 870 873 876 882 888 894 909 927 936 942 945 945 945 954 978 1002 1020 1038 1053 1065 1074
1086 1086 861 861 861 861 861 864 864 864 864 867 867 867 867 864 864 864 864 864 864 864 864 864 864 864 864 864 864 864 867 864 864 861 861 861 861 861 861 861 861 861 861 861 864 864 864 864 864 864 864 864 867 870 870 870 870 870 867 864 864 864 864 864 864 864 867 867 867 867 867 867 867 867 867 867 867 870 870 870 870 873 873 873 876 876 873 873 870 870 870 873 873 876 876 876 876 876 876 879 879 879 879 879 879 879 879 879 882 882 888 894 903 915 924 927 930 936 945 954 957 957 957 948 936 927 918 909 912 915 924 942 960 975 984 993 981 969 960 951 942 942 945 948 948 948 954 963 972 999 1023 1047 1065 1083 1101 1119 1140 1161 1185 1206 1221 1239 1248 1257 1266 1275 1287 1293 1299 1305 1296 1284 1272 1257 1239 1224 1209 1197 1188 1179 1173 1167 1164 1158 1152 1143 1128 1116 1113 1113 1113 1116 1119 1119 1119 1116 1107 1098 1092 1098 1104 1113 1125 1137 1137 1140 1140 1137 1131 1119 1107 1095 1077 1056 1035 1011 990 969 951 936 927 921 924 936 945 966 987 1011 1041 1071 1089 1101 1116 1137 1155 1182 1212 1242 1266 1290 1305 1305 1308 1299 1284 1269 1248 1230 1212 1191 1173 1152 1131 1110 1095 1077 1062 1050 1038 1038 1035 1035 1029 1026 1014 1002 993 984 972 963 957 951 951 948 951 963 972 981 987 993 987 981 978 975 975 981 990 1002 1008 1017 1026 1035 1044 1050 1056 1062 1068 1071 1074 1080 1083 1095 1110 1122 1140 1155 1161 1167 1173 1167 1164 1158 1149 1143 1137 1131 1128 1122 1116 1110 1104 1098 1089 1083 1071 1059 1047 1038 1026 1014 1002 990 981 972 963 954 942 933 921 909 903 897 894 888 882 876 873 867 864 861 858 858 858 858 858 858 858 858 858 855 852 852 852 852 855 855 858 858 858 858 855 855 855 858 858 861 864 864 867 870 873 879 888 897 906 927 948 957 957 957 960 963 972 993 1017 1035 1050 1065 1077 1086
1092 1092 861 861 861 861 861 864 864 864 867 867 867 867 867 864 864 864 864 867 867 867 867 867 864 864 864 864 867 867 870 867 864 861 861 861 861 861 861 861 861 861 861 864 864 864 864 864 864 864 864 864 864 864 867 867 867 867 867 867 867 864 864 864 864 864 864 864 864 864 864 867 867 867 867 867 867 870 870 870 870 870 873 873 873 873 873 873 873 873 873 873 873 876 873 873 873 873 873 876 876 879 879 879 879 879 879 879 879 882 885 888 894 903 912 918 921 930 939 948 951 948 948 936 927 918 912 906 912 918 927 945 960 969 975 981 969 957 948 942 933 933 936 939 939 939 951 966 981 1011 1044 1068 1089 1107 1128 1146 1167 1185 1206 1221 1230 1239 1248 1254 1260 1272 1281 1290 1296 1302 1293 1284 1272 1254 1239 1224 1209 1197 1185 1176 1167 1158 1152 1146 1140 1131 1116 1104 1098 1095 1095 1098 1101 1101 1098 1098 1089 1083 1077 1080 1086 1092 1104 1113 1119 1122 1122 1122 1119 1113 1107 1098 1080 1065 1044 1020 993 975 954 939 933 927 930 942 951 972 993 1020 1056 1089 1107 1122 1137 1152 1167 1191 1221 1251 1269 1290 1302 1299 1299 1287 1272 1257 1239 1224 1206 1188 1170 1149 1128 1107 1089 1068 1053 1035 1017 1017 1017 1017 1014 1008 999 987 975 972 969 966 960 957 960 963 969 978 990 996 1002 1005 999 990 984 981 978 987 996 1005 1014 1023 1032 1044 1053 1059 1068 1074 1080 1083 1089 1092 1098 1110 1119 1131 1149 1164 1173 1182 1188 1179 1173 1161 1149 1134 1128 1119 1113 1107 1101 1095 1089 1083 1077 1071 1062 1053 1044 1032 1020 1011 999 990 981 975 969 963 954 942 924 906 894 885 876 870 867 864 864 861 861 861 858 858 858 861 861 861 861 858 858 855 855 852 852 852 852 852 855 855 858 858 858 858 858 858 858 861 864 864 867 870 876 879 894 906 921 942 960 966 966 963 972 984 996 1014 1029 1044 1056 1071 1083 1095
1101 1101 858 861 861 861 861 861 864 864 864 867 867 867 864 864 864 864 864 867 867 867 867 867 864 861 861 861 864 864 864 864 864 861 861 861 861 861 861 861 861 861 861 864 864 864 864 864 864 864 864 864 864 864 864 864 864 864 864 864 864 864 864 864 864 864 864 864 864 864 864 867 867 867 867 867 867 870 870 870 870 870 870 873 873 873 873 873 873 873 873 873 873 873 873 873 873 873 873 876 876 879 879 879 879 876 876 879 879 879 882 885 891 897 906 912 918 924 933 942 942 942 936 927 918 912 909 903 912 918 930 945 957 963 966 969 957 945 939 933 927 927 930 933 939 945 960 981 1005 1038 1068 1095 1116 1134 1152 1173 1191 1206 1221 1230 1230 1233 1239 1245 1251 1263 1275 1281 1290 1293 1287 1281 1272 1257 1242 1230 1215 1203 1191 1179 1167 1155 1146 1137 1128 1116 1104 1092 1086 1080 1077 1077 1080 1080 1080 1080 1074 1068 1062 1062 1065 1071 1080 1089 1092 1095 1098 1101 1101 1098 1098 1095 1080 1068 1047 1026 1002 981 960 948 942 936 939 948 957 975 993 1023 1062 1098 1122 1140 1158 1170 1182 1203 1230 1257 1275 1290 1296 1290 1284 1275 1260 1245 1233 1218 1200 1182 1164 1143 1122 1104 1086 1071 1050 1029 1008 999 993 987 981 978 972 966 963 963 963 963 966 966 975 984 990 999 1005 1011 1014 1014 1008 999 993 990 984 990 999 1011 1023 1032 1044 1053 1065 1071 1077 1083 1089 1092 1095 1101 1107 1116 1125 1140 1158 1176 1185 1194 1197 1188 1179 1164 1149 1131 1122 1113 1107 1098 1092 1086 1083 1077 1071 1065 1059 1053 1044 1035 1026 1014 1005 993 987 981 975 966 957 942 927 909 894 882 873 867 864 861 861 858 858 858 861 861 861 861 864 864 864 861 858 858 855 855 852 852 852 852 852 855 855 858 858 861 858 858 858 861 861 864 867 870 876 882 894 906 921 939 954 963 963 966 981 996 1011 1026 1041 1053 1065 1077 1089 1101
1110 1110 858 861 861 861 864 864 864 867 867 867 867 864 864 864 864 864 864 867 867 867 867 864 864 861 861 861 861 861 861 861 861 861 861 861 861 861 861 861 861 861 861 864 864 864 864 864 861 861 864 864 864 861 861 861 861 861 864 864 864 864 864 864 867 864 864 864 864 864 867 867 867 867 867 867 867 867 870 870 870 870 870 873 873 873 873 870 870 870 870 873 873 873 876 876 876 876 876 876 876 876 876 876 876 876 876 876 879 879 882 885 888 894 900 906 912 921 930 939 936 933 927 921 912 909 906 903 909 915 927 942 957 960 960 957 945 933 927 924 921 927 930 936 951 966 990 1020 1050 1077 1104 1128 1146 1164 1179 1194 1206 1215 1224 1227 1224 1224 1227 1233 1239 1248 1260 1269 1278 1284 1284 1281 1272 1257 1245 1230 1218 1206 1194 1182 1170 1155 1143 1128 1113 1101 1089 1077 1068 1062 1056 1059 1059 1059 1059 1059 1056 1050 1044 1044 1044 1047 1053 1062 1065 1068 1074 1074 1077 1077 1077 1074 1062 1050 1035 1017 999 978 960 948 942 936 939 948 957 972 990 1017 1059 1098 1125 1149 1173 1188 1200 1221 1242 1266 1278 1293 1299 1290 1278 1266 1251 1236 1227 1215 1200 1182 1164 1143 1125 1107 1092 1077 1059 1044 1026 1014 1002 993 984 975 969 963 960 960 960 963 969 972 984 993 1005 1011 1017 1020 1020 1020 1014 1008 1002 996 990 999 1008 1017 1029 1041 1053 1065 1074 1080 1089 1095 1098 1104 1107 1113 1119 1128 1134 1149 1167 1182 1191 1200 1203 1191 1179 1164 1146 1128 1119 1110 1101 1092 1086 1080 1074 1071 1065 1059 1056 1050 1044 1038 1029 1020 1008 996 990 984 978 966 954 939 924 906 894 882 873 867 864 861 858 858 858 858 861 861 861 864 864 867 867 864 861 858 855 855 855 852 852 852 852 852 855 855 858 861 861 861 861 861 861 864 864 870 876 882 891 900 912 927 939 948 957 963 981 1002 1020 1035 1050 1062 1071 1083 1095 1110
1101 1101 861 861 861 864 864 867 867 867 867 867 864 864 864 864 864 861 864 864 864 864 864 864 861 861 861 864 864 864 861 861 861 861 861 861 861 861 861 861 861 861 864 864 864 864 864 861 861 861 861 861 861 861 861 861 861 861 861 861 864 864 867 867 867 864 864 861 864 867 867 867 867 867 870 870 870 870 870 870 870 870 870 873 873 873 873 873 873 873 870 873 873 873 873 873 876 876 876 876 876 876 876 876 876 876 876 876 879 879 882 882 885 891 894 903 909 915 924 930 927 924 918 912 906 903 903 903 909 918 927 936 948 948 945 939 933 927 924 921 921 930 939 954 978 1002 1029 1056 1083 1107 1131 1152 1167 1182 1191 1200 1206 1212 1215 1215 1212 1212 1218 1221 1230 1239 1248 1257 1266 1275 1275 1275 1269 1257 1248 1236 1221 1212 1200 1191 1176 1158 1140 1125 1107 1092 1080 1068 1059 1050 1044 1041 1038 1035 1035 1032 1029 1023 1020 1020 1017 1020 1029 1035 1038 1044 1047 1050 1050 1053 1050 1050 1041 1035 1023 1008 993 975 957 945 942 939 945 951 960 975 990 1017 1056 1098 1128 1155 1182 1200 1218 1236 1257 1275 1287 1296 1299 1290 1278 1263 1248 1233 1224 1212 1200 1182 1167 1149 1134 1116 1101 1086 1074 1062 1047 1038 1026 1011 999 984 975 969 963 963 963 966 972 978 990 1002 1011 1020 1029 1029 1026 1023 1017 1014 1008 1002 999 1005 1017 1029 1041 1053 1062 1071 1080 1089 1098 1104 1110 1116 1122 1128 1131 1140 1146 1158 1173 1188 1197 1203 1203 1191 1176 1161 1143 1128 1116 1107 1098 1089 1080 1074 1068 1062 1056 1050 1047 1044 1041 1035 1029 1020 1011 999 993 984 978 960 945 930 915 900 891 882 873 867 864 861 858 858 858 858 858 858 861 861 864 867 867 870 867 864 858 858 855 855 855 852 852 852 852 855 855 858 858 858 858 858 861 861 864 867 873 879 888 897 906 918 930 939 951 963 981 1002 1020 1032 1047 1059 1071 1080 1089 1101
1086 1086 861 861 861 861 864 864 867 867 867 867 864 864 864 864 861 861 861 864 864 864 864 864 861 861 861 861 861 861 861 861 864 864 861 861 861 861 861 861 861 861 864 864 864 864 861 861 861 861 861 861 861 861 864 864 864 864 864 864 864 864 864 864 864 864 861 861 864 867 867 867 867 867 870 870 870 873 870 870 870 870 870 873 873 873 873 873 873 873 873 873 873 873 873 873 876 876 879 876 876 876 876 876 876 876 876 876 879 879 879 882 885 888 891 897 903 909 915 921 918 915 909 906 900 900 903 903 912 921 927 933 939 936 930 924 924 921 921 921 924 939 954 972 1005 1035 1062 1089 1113 1131 1152 1167 1179 1191 1197 1197 1200 1200 1200 1200 1200 1200 1203 1209 1218 1230 1242 1251 1257 1266 1266 1269 1266 1260 1251 1239 1230 1218 1206 1197 1179 1161 1143 1125 1107 1092 1080 1068 1059 1047 1038 1029 1023 1014 1008 1002 996 993 990 990 990 996 1002 1008 1014 1017 1023 1023 1023 1026 1023 1023 1020 1017 1008 996 984 966 948 936 939 942 951 960 972 984 999 1023 1062 1098 1131 1158 1188 1209 1230 1251 1269 1284 1293 1302 1302 1293 1281 1269 1254 1239 1227 1212 1200 1188 1173 1161 1146 1134 1116 1101 1089 1077 1065 1053 1044 1032 1020 1008 996 987 978 975 975 978 984 990 1002 1017 1026 1035 1041 1041 1041 1038 1032 1029 1023 1017 1011 1017 1029 1041 1056 1068 1077 1086 1092 1101 1110 1116 1122 1131 1134 1137 1143 1149 1155 1164 1179 1194 1197 1203 1200 1188 1173 1158 1143 1128 1116 1107 1095 1083 1071 1065 1056 1050 1044 1041 1038 1035 1032 1026 1023 1017 1008 999 990 984 975 957 936 921 906 891 885 876 870 867 861 861 858 858 858 858 858 861 861 864 867 873 876 879 879 876 873 867 861 855 855 855 855 852 852 855 855 855 858 858 858 858 858 861 861 864 870 876 885 894 900 909 918 930 942 957 978 999 1014 1029 1041 1053 1062 1071 1080 1086
1068 1068 861 861 861 861 864 864 867 867 867 867 864 864 864 864 861 861 861 861 864 864 864 864 864 861 861 861 861 861 861 861 861 861 861 861 861 861 861 861 861 861 861 864 861 861 861 861 861 861 861 861 861 861 864 864 864 864 864 864 864 864 864 861 861 861 861 861 864 867 867 867 867 870 870 873 873 873 873 870 870 870 870 873 870 870 873 873 873 873 873 873 870 870 873 873 876 876 879 876 873 873 873 873 876 876 876 879 879 879 879 882 882 888 891 894 900 903 909 912 909 906 903 900 897 900 903 909 918 924 930 930 927 924 921 918 918 918 918 924 927 948 972 999 1029 1062 1086 1107 1128 1143 1158 1170 1176 1185 1185 1185 1182 1182 1179 1179 1182 1182 1188 1194 1203 1218 1230 1242 1251 1257 1260 1263 1263 1263 1260 1251 1239 1227 1212 1200 1185 1170 1155 1143 1134 1125 1116 1107 1095 1083 1068 1053 1041 1029 1023 1017 1014 1008 1005 999 990 987 987 984 990 993 996 996 999 999 999 1002 999 996 990 981 972 957 942 933 942 948 957 972 984 1002 1020 1044 1077 1110 1140 1167 1194 1218 1242 1263 1278 1296 1299 1302 1299 1290 1278 1266 1254 1242 1227 1215 1203 1191 1179 1167 1155 1140 1125 1107 1095 1083 1071 1059 1050 1038 1026 1017 1005 996 987 984 984 987 996 1002 1014 1029 1041 1047 1053 1056 1056 1053 1047 1041 1035 1026 1020 1029 1041 1053 1068 1080 1089 1095 1101 1110 1119 1128 1134 1143 1146 1152 1155 1161 1164 1173 1185 1197 1200 1200 1197 1185 1170 1158 1143 1131 1119 1104 1092 1077 1065 1053 1044 1035 1035 1032 1029 1026 1023 1020 1014 1008 1002 996 990 984 975 954 933 915 900 885 879 873 870 864 861 861 858 858 858 858 861 861 861 867 873 879 885 894 894 891 891 879 867 858 858 855 855 855 852 855 855 855 855 858 858 858 858 858 861 864 867 873 879 888 894 897 903 915 930 948 969 990 1008 1020 1032 1041 1050 1056 1062 1068
1050 1050 864 864 861 864 864 864 867 867 867 867 867 864 864 864 864 861 864 864 864 864 867 864 864 864 861 861 861 861 861 861 861 861 861 861 861 861 861 861 861 861 861 861 861 861 861 861 861 861 861 861 861 861 861 864 864 864 864 864 864 864 861 861 861 861 861 861 864 864 867 867 867 870 870 870 873 873 870 870 870 867 867 867 870 870 870 873 873 873 870 870 870 870 873 876 876 876 876 873 870 870 870 873 873 876 876 879 879 879 882 885 885 891 894 894 897 900 903 903 903 900 900 897 897 900 903 906 912 918 921 921 918 918 915 915 915 915 918 924 930 957 984 1011 1038 1065 1092 1113 1137 1146 1155 1164 1167 1170 1170 1164 1164 1161 1161 1164 1164 1167 1176 1185 1194 1209 1224 1233 1239 1245 1248 1251 1257 1260 1263 1254 1245 1233 1221 1206 1191 1179 1167 1164 1158 1152 1143 1137 1122 1104 1089 1074 1062 1056 1050 1047 1041 1038 1029 1020 1008 999 990 984 981 981 981 984 984 981 981 978 978 978 972 966 957 948 939 933 945 954 966 981 996 1020 1044 1071 1098 1125 1152 1179 1203 1230 1254 1272 1290 1305 1302 1299 1293 1281 1272 1260 1248 1236 1227 1215 1203 1191 1182 1167 1155 1140 1125 1107 1095 1083 1071 1059 1047 1035 1026 1017 1008 999 990 990 993 996 1005 1014 1029 1041 1053 1062 1068 1071 1071 1071 1062 1053 1044 1038 1029 1041 1053 1065 1077 1089 1098 1101 1107 1119 1128 1140 1146 1155 1161 1167 1170 1176 1179 1185 1194 1200 1200 1200 1194 1179 1167 1155 1143 1131 1119 1104 1089 1074 1059 1047 1038 1029 1026 1023 1020 1017 1014 1011 1005 999 996 993 990 984 978 957 936 918 900 885 876 873 867 864 861 858 858 858 858 858 861 861 864 870 879 885 894 900 903 903 903 888 876 864 861 855 855 855 855 855 855 858 855 855 855 855 855 858 858 861 864 870 876 879 885 891 897 909 924 942 957 975 990 1005 1017 1029 1035 1044 1047 1050
1035 1035 864 864 864 864 864 864 867 867 867 867 867 867 867 867 864 864 864 864 864 864 867 867 864 864 864 864 864 861 861 861 861 861 861 861 861 861 861 861 861 861 861 861 861 861 861 861 861 861 861 861 861 861 861 861 864 864 864 864 864 864 864 861 861 864 864 864 864 867 867 867 870 870 873 873 873 873 870 870 867 867 867 867 867 867 870 870 873 870 870 870 870 870 870 873 873 873 870 870 870 870 870 873 873 876 876 879 879 882 882 885 888 891 894 894 894 894 897 897 897 897 897 897 897 897 900 903 909 912 915 912 912 912 912 909 912 912 918 927 936 963 990 1017 1041 1065 1092 1113 1137 1143 1149 1152 1152 1152 1149 1146 1143 1143 1143 1146 1152 1155 1167 1176 1188 1203 1215 1221 1224 1230 1233 1239 1245 1254 1263 1257 1248 1239 1227 1212 1203 1194 1185 1182 1182 1176 1167 1155 1137 1119 1101 1095 1089 1086 1089 1089 1083 1074 1065 1056 1044 1032 1017 1005 996 990 984 981 978 972 966 957 957 954 951 948 945 942 939 936 951 960 975 990 1008 1038 1068 1095 1122 1149 1173 1200 1224 1242 1263 1281 1293 1308 1302 1296 1287 1272 1260 1248 1236 1221 1212 1203 1191 1182 1170 1158 1146 1131 1113 1098 1083 1071 1059 1050 1038 1026 1017 1008 1002 996 993 996 999 1008 1020 1032 1041 1053 1062 1071 1080 1083 1083 1083 1074 1065 1056 1047 1041 1047 1059 1071 1083 1095 1104 1110 1116 1128 1137 1146 1155 1167 1173 1179 1185 1188 1191 1194 1200 1203 1200 1194 1188 1173 1161 1149 1137 1128 1113 1101 1086 1071 1053 1041 1032 1020 1020 1017 1014 1011 1008 1002 996 990 990 987 984 981 978 960 942 921 906 888 879 873 867 864 861 861 858 858 858 858 861 864 867 876 885 894 903 909 912 912 909 897 882 870 864 858 855 855 855 855 858 858 858 855 855 855 855 858 858 861 864 867 870 876 879 885 891 903 918 930 942 957 969 984 999 1011 1023 1032 1035 1035
1026 1026 864 864 864 864 864 864 864 864 864 864 867 867 867 867 864 864 864 864 864 864 867 867 867 867 867 867 864 864 861 861 861 861 861 861 861 861 861 861 861 861 861 861 861 861 861 861 861 861 861 861 861 861 861 861 861 861 864 864 864 864 864 864 864 864 867 867 867 867 867 870 873 873 873 873 873 873 870 867 864 864 864 867 867 867 870 870 870 870 870 870 870 870 870 870 870 867 867 867 867 870 870 873 873 876 876 876 879 879 882 882 888 891 894 894 891 891 894 894 894 894 894 894 897 897 900 903 906 909 909 909 909 909 909 909 912 912 918 927 936 960 987 1014 1038 1065 1086 1110 1128 1131 1137 1137 1134 1131 1128 1125 1125 1122 1122 1128 1134 1143 1155 1167 1176 1188 1197 1203 1206 1209 1215 1224 1233 1245 1257 1254 1251 1248 1236 1227 1218 1212 1203 1200 1194 1188 1173 1161 1146 1128 1113 1113 1113 1113 1116 1116 1110 1101 1092 1077 1065 1053 1038 1023 1014 1005 996 993 990 978 969 957 951 942 939 939 939 942 945 948 960 966 984 1002 1023 1053 1083 1110 1137 1164 1188 1209 1233 1254 1275 1290 1299 1311 1302 1290 1281 1266 1251 1236 1224 1212 1203 1191 1182 1170 1158 1146 1134 1119 1107 1092 1080 1071 1059 1047 1035 1026 1014 1002 996 993 990 996 1005 1014 1032 1047 1056 1068 1077 1083 1092 1095 1095 1095 1086 1080 1071 1062 1053 1059 1071 1080 1092 1101 1110 1119 1125 1134 1146 1155 1164 1173 1182 1188 1194 1197 1200 1200 1203 1203 1197 1188 1176 1164 1149 1137 1125 1113 1104 1092 1080 1065 1050 1038 1026 1014 1011 1008 1005 1002 999 996 990 984 981 975 975 975 975 957 942 924 909 891 882 876 867 864 861 861 858 858 858 861 861 867 870 882 894 906 912 921 924 924 921 906 888 876 867 858 855 855 855 855 858 858 858 855 855 855 855 858 858 861 861 864 867 870 876 882 888 897 906 918 927 936 945 960 975 993 1008 1023 1023 1026
1020 1020 861 864 864 864 864 864 864 864 864 864 864 864 864 864 864 864 864 864 864 864 867 867 867 867 870 870 867 867 864 864 861 861 861 861 861 861 864 861 861 861 861 861 861 861 861 861 861 861 861 861 861 861 861 861 861 861 864 864 864 864 864 864 864 864 864 864 867 867 867 870 870 873 873 873 870 867 867 864 861 864 864 864 867 867 867 867 867 867 870 870 870 870 867 867 867 867 867 867 870 870 870 873 873 873 873 876 876 879 879 882 882 885 888 888 888 891 891 891 894 894 894 897 897 900 900 900 903 903 903 906 906 906 906 909 915 921 930 945 960 984 1005 1029 1053 1074 1092 1110 1128 1128 1128 1128 1119 1113 1110 1110 1107 1107 1107 1113 1122 1131 1143 1158 1167 1176 1182 1185 1188 1191 1200 1209 1221 1233 1248 1254 1257 1257 1248 1239 1233 1227 1221 1212 1206 1197 1182 1167 1152 1140 1128 1128 1131 1134 1134 1134 1125 1116 1104 1092 1077 1062 1050 1035 1029 1023 1017 1014 1008 996 984 972 960 948 942 939 939 945 951 957 966 975 993 1014 1035 1065 1095 1125 1149 1176 1197 1215 1236 1257 1281 1296 1302 1311 1299 1287 1275 1257 1242 1230 1218 1206 1197 1185 1173 1158 1146 1134 1122 1110 1101 1089 1080 1071 1059 1050 1038 1026 1014 999 993 990 987 996 1008 1023 1041 1062 1074 1083 1092 1098 1104 1107 1107 1107 1101 1095 1086 1077 1068 1074 1083 1092 1101 1110 1119 1125 1134 1143 1155 1164 1173 1182 1188 1194 1200 1203 1206 1206 1203 1200 1188 1176 1161 1143 1125 1110 1098 1086 1080 1074 1068 1056 1044 1035 1023 1011 1005 999 993 990 990 984 981 978 972 966 966 966 963 948 933 921 906 891 882 873 867 864 861 861 861 861 861 861 864 870 879 891 909 927 936 948 954 954 951 933 912 894 879 864 858 858 855 858 858 858 858 858 858 858 858 858 858 858 861 864 867 870 873 879 885 894 903 909 918 927 939 951 963 978 999 1014 1017 1020
1011 1011 864 864 864 867 867 867 867 867 864 864 864 864 864 864 861 861 861 861 861 864 864 864 867 867 867 864 864 864 864 864 864 864 861 861 861 864 864 864 861 861 861 861 861 861 861 861 861 861 861 861 861 861 861 861 861 861 861 861 864 864 864 864 864 864 864 864 864 867 867 867 870 870 870 870 867 864 864 861 861 864 864 864 864 867 867 867 867 867 867 867 867 867 867 867 867 867 867 867 870 870 870 873 873 873 873 876 876 879 879 879 882 882 885 885 885 888 888 891 891 894 894 897 897 900 900 900 900 900 900 903 903 906 906 909 921 930 948 969 990 1011 1032 1050 1068 1089 1101 1113 1125 1125 1122 1116 1107 1098 1095 1095 1092 1092 1092 1098 1110 1119 1134 1149 1161 1164 1167 1170 1173 1176 1185 1194 1209 1224 1242 1251 1260 1266 1260 1251 1245 1239 1233 1224 1215 1203 1188 1170 1158 1149 1140 1143 1146 1146 1146 1143 1134 1122 1107 1092 1074 1062 1053 1044 1047 1047 1047 1044 1038 1029 1017 1005 987 972 960 954 945 951 954 960 972 984 1002 1026 1050 1080 1110 1137 1161 1182 1197 1212 1230 1251 1275 1290 1299 1308 1296 1287 1272 1257 1239 1227 1215 1203 1191 1179 1164 1152 1137 1125 1113 1104 1092 1080 1068 1056 1044 1035 1023 1014 1008 999 999 996 996 1005 1014 1029 1050 1071 1086 1098 1110 1113 1119 1119 1122 1122 1116 1110 1107 1098 1092 1095 1098 1104 1113 1119 1128 1137 1146 1155 1167 1176 1185 1191 1197 1200 1200 1203 1203 1200 1197 1197 1185 1170 1155 1131 1110 1092 1074 1059 1056 1053 1050 1044 1038 1029 1020 1011 999 990 984 981 978 975 975 972 963 957 951 948 942 930 921 909 897 888 879 873 867 864 861 861 861 861 861 864 867 879 888 909 933 957 975 990 996 996 993 972 948 924 900 876 864 861 858 858 858 861 858 858 858 858 858 858 858 858 861 864 864 867 873 876 882 888 897 903 912 921 930 939 948 966 984 999 1005 1011
999 999 864 864 864 867 867 867 867 867 867 864 864 864 864 864 861 861 861 861 861 864 864 864 864 864 864 864 864 864 864 864 864 864 864 861 861 864 864 864 861 861 861 861 861 861 861 861 861 861 861 861 861 861 864 861 861 861 861 861 864 864 864 864 864 864 864 864 864 867 867 867 867 867 867 867 864 864 861 861 861 864 864 867 867 867 867 867 867 867 867 867 867 867 867 867 867 867 867 867 870 870 870 873 873 873 873 876 879 879 879 879 882 882 885 885 885 885 888 891 891 891 891 894 897 897 900 903 903 903 903 903 903 903 906 912 927 942 963 990 1017 1035 1053 1071 1086 1101 1107 1113 1119 1113 1110 1101 1092 1083 1080 1077 1077 1077 1080 1089 1104 1119 1131 1146 1152 1152 1152 1155 1161 1164 1176 1188 1200 1218 1236 1251 1263 1272 1269 1266 1260 1254 1248 1236 1224 1212 1194 1179 1167 1158 1149 1152 1152 1152 1149 1143 1131 1119 1104 1092 1077 1071 1068 1065 1071 1074 1074 1068 1065 1053 1044 1032 1017 1002 987 972 954 954 957 957 978 990 1014 1038 1062 1092 1122 1146 1164 1185 1200 1212 1230 1251 1272 1284 1293 1302 1293 1284 1272 1254 1239 1224 1212 1200 1185 1173 1161 1146 1128 1116 1104 1092 1080 1068 1056 1044 1032 1026 1020 1014 1014 1011 1011 1011 1011 1014 1020 1035 1056 1077 1095 1110 1122 1128 1134 1134 1137 1137 1131 1128 1125 1119 1116 1116 1116 1119 1125 1131 1140 1149 1158 1167 1176 1185 1191 1197 1197 1197 1197 1197 1194 1194 1191 1188 1176 1164 1149 1122 1098 1074 1056 1038 1035 1032 1032 1032 1032 1026 1020 1011 999 987 978 975 969 969 966 963 957 948 939 927 918 912 906 897 891 882 876 873 867 864 864 861 861 861 864 864 873 888 903 930 966 996 1017 1035 1044 1044 1041 1017 990 963 927 891 873 867 858 861 861 861 861 858 858 858 858 858 858 858 861 861 864 867 870 876 879 885 891 900 906 915 921 930 936 948 963 975 987 999
987 987 861 864 864 864 864 867 867 867 864 864 864 864 864 864 861 861 861 861 861 864 864 864 864 864 864 864 864 864 864 864 864 864 864 861 861 861 864 861 861 861 861 861 861 861 861 861 861 861 861 861 861 861 864 864 864 864 864 864 864 864 864 867 867 867 864 864 864 864 867 867 867 867 867 867 864 864 864 864 864 864 864 867 864 864 864 864 867 867 867 867 867 867 867 867 867 867 870 870 870 873 873 873 873 876 876 879 879 882 882 882 882 882 885 888 891 891 891 891 891 891 891 894 897 900 900 903 903 900 900 900 903 906 909 915 936 954 978 1005 1032 1047 1065 1077 1089 1101 1104 1107 1107 1101 1095 1089 1077 1068 1065 1062 1062 1068 1074 1086 1101 1116 1125 1134 1140 1140 1137 1143 1149 1155 1167 1182 1197 1215 1233 1248 1263 1275 1275 1275 1272 1266 1260 1248 1236 1221 1203 1188 1176 1170 1161 1161 1161 1158 1152 1143 1131 1116 1104 1095 1086 1086 1089 1089 1095 1101 1101 1092 1086 1077 1065 1056 1041 1026 1005 984 960 960 957 957 981 999 1023 1047 1074 1101 1128 1149 1167 1182 1197 1212 1230 1248 1269 1281 1290 1296 1287 1278 1269 1254 1239 1224 1209 1194 1182 1170 1155 1137 1122 1107 1092 1080 1068 1056 1044 1032 1023 1023 1023 1023 1029 1032 1029 1029 1026 1026 1026 1038 1062 1083 1101 1122 1134 1143 1149 1152 1152 1152 1149 1146 1143 1140 1137 1137 1137 1137 1140 1146 1152 1164 1173 1182 1188 1194 1194 1197 1194 1188 1185 1182 1179 1176 1173 1170 1161 1149 1134 1110 1086 1065 1047 1026 1023 1020 1020 1026 1032 1026 1020 1014 1002 993 984 975 969 963 960 954 945 939 927 915 903 897 894 891 885 882 876 873 867 867 864 861 861 861 867 870 879 906 930 960 990 1020 1041 1062 1071 1068 1065 1044 1017 990 957 921 897 879 864 864 864 864 861 858 858 858 858 858 858 861 861 861 864 867 873 876 882 885 891 897 903 909 915 921 927 936 945 957 972 987
984 984 864 864 867 867 867 867 867 867 867 867 864 864 864 864 864 864 864 861 861 861 864 864 864 864 867 867 867 864 864 864 864 864 864 864 861 861 861 861 861 861 861 861 861 861 861 861 861 861 861 861 861 861 864 864 864 867 867 870 867 867 867 867 867 867 867 864 864 864 864 867 867 867 867 864 864 864 864 864 864 864 867 867 864 864 864 867 867 867 867 867 867 867 867 867 867 870 870 870 873 873 873 873 873 876 876 879 882 885 885 882 882 882 885 888 894 894 894 894 894 891 891 894 897 900 900 900 900 900 900 900 900 906 912 921 942 966 990 1014 1041 1056 1068 1080 1089 1095 1098 1098 1095 1089 1083 1074 1065 1053 1050 1047 1047 1059 1071 1083 1098 1113 1119 1122 1125 1125 1122 1128 1137 1146 1161 1176 1194 1212 1230 1245 1257 1269 1275 1281 1281 1275 1269 1257 1245 1230 1215 1200 1191 1182 1173 1170 1170 1164 1155 1146 1134 1119 1110 1107 1104 1107 1113 1119 1122 1125 1122 1116 1107 1095 1083 1068 1050 1032 1008 984 960 960 960 957 984 1002 1026 1050 1074 1098 1122 1143 1161 1176 1191 1206 1224 1242 1263 1275 1284 1293 1284 1275 1263 1251 1236 1221 1203 1188 1173 1158 1140 1119 1098 1086 1074 1065 1062 1059 1053 1044 1038 1041 1044 1044 1047 1047 1044 1041 1038 1038 1038 1047 1065 1080 1101 1122 1137 1149 1161 1164 1164 1167 1164 1161 1158 1158 1155 1155 1152 1152 1158 1161 1167 1176 1182 1185 1191 1191 1182 1176 1173 1173 1173 1170 1170 1170 1164 1161 1152 1140 1125 1104 1083 1068 1050 1038 1029 1020 1017 1023 1026 1026 1023 1017 1008 999 987 981 972 966 960 954 948 939 927 915 900 894 891 885 882 879 876 870 867 867 864 864 864 864 873 882 900 930 960 990 1017 1047 1065 1086 1095 1092 1089 1068 1044 1017 987 954 927 900 876 873 867 864 861 858 858 858 858 858 861 861 861 861 864 867 873 876 882 885 891 897 900 906 909 915 921 927 939 948 966 984
993 993 864 867 867 867 867 867 867 867 867 867 864 864 864 864 864 864 864 864 864 864 864 864 867 867 867 867 867 864 864 864 864 864 864 864 861 861 861 861 861 861 861 861 861 861 861 861 861 861 861 861 861 861 861 864 864 867 870 870 870 870 867 867 867 867 867 864 864 864 864 864 867 867 867 864 864 864 864 867 867 867 867 867 867 864 867 867 870 870 870 870 870 870 867 867 867 867 870 870 870 873 873 873 873 876 876 882 885 888 888 888 885 885 882 888 894 897 897 897 894 894 894 894 897 897 897 897 897 897 900 900 900 909 915 927 951 975 999 1020 1041 1053 1068 1077 1083 1092 1089 1086 1083 1074 1068 1059 1053 1044 1044 1044 1047 1059 1074 1086 1098 1107 1110 1110 1113 1113 1113 1119 1131 1140 1158 1176 1194 1209 1224 1236 1248 1260 1269 1278 1278 1275 1272 1260 1248 1233 1218 1200 1191 1185 1176 1176 1176 1170 1164 1158 1146 1134 1125 1128 1128 1131 1137 1143 1143 1143 1140 1128 1119 1101 1083 1062 1041 1017 999 978 960 957 957 957 978 996 1017 1041 1065 1089 1113 1134 1152 1167 1185 1200 1215 1236 1257 1272 1281 1287 1278 1272 1260 1248 1236 1218 1200 1185 1167 1149 1131 1110 1092 1083 1074 1068 1065 1062 1059 1059 1059 1059 1062 1062 1062 1062 1056 1050 1047 1047 1050 1056 1068 1080 1098 1119 1137 1152 1167 1176 1176 1179 1179 1176 1176 1176 1173 1173 1170 1170 1173 1173 1179 1185 1191 1191 1191 1185 1170 1158 1155 1158 1161 1161 1164 1161 1158 1155 1143 1134 1119 1104 1086 1071 1059 1047 1038 1026 1020 1020 1023 1023 1023 1020 1011 1002 990 981 972 969 963 957 951 945 933 918 903 897 888 882 879 876 873 870 867 867 864 864 864 864 885 903 927 960 993 1020 1047 1071 1092 1113 1119 1116 1113 1092 1068 1044 1017 990 960 930 897 885 873 867 864 861 861 861 861 861 861 861 861 861 864 867 870 876 882 885 891 897 900 903 909 912 918 930 945 960 978 993
993 993 867 867 870 867 864 864 867 867 867 867 864 864 864 864 864 864 864 864 864 864 864 867 867 867 867 867 864 864 861 861 861 864 861 861 861 861 861 861 861 861 861 861 861 861 861 861 861 861 861 861 861 861 861 861 864 864 867 867 870 870 870 867 867 867 867 864 864 864 864 864 867 867 864 864 864 864 864 864 864 864 864 864 864 864 864 864 867 867 867 867 867 867 867 867 867 867 870 870 870 870 870 873 873 876 879 882 885 885 888 888 888 885 885 888 891 894 897 897 897 894 894 894 897 897 897 897 897 897 897 900 903 912 924 936 963 987 1008 1026 1044 1056 1068 1074 1080 1086 1083 1077 1071 1062 1053 1044 1038 1032 1035 1038 1044 1059 1074 1083 1092 1098 1098 1098 1098 1101 1101 1113 1125 1140 1158 1176 1191 1203 1215 1227 1242 1254 1266 1278 1281 1281 1278 1266 1254 1239 1224 1209 1200 1194 1188 1185 1185 1182 1176 1170 1161 1152 1146 1149 1155 1158 1161 1164 1161 1161 1152 1140 1128 1104 1080 1056 1032 1005 987 975 960 957 954 954 972 984 1005 1029 1053 1077 1101 1122 1140 1158 1176 1191 1209 1230 1254 1266 1275 1287 1275 1266 1257 1245 1233 1218 1200 1182 1161 1143 1125 1113 1098 1092 1086 1080 1074 1071 1071 1074 1077 1080 1080 1080 1074 1071 1065 1059 1053 1056 1059 1062 1068 1074 1092 1113 1131 1152 1173 1185 1191 1194 1194 1194 1194 1194 1194 1191 1188 1185 1185 1185 1188 1194 1197 1191 1188 1179 1161 1143 1143 1146 1149 1155 1158 1158 1152 1149 1140 1131 1122 1107 1092 1080 1065 1053 1041 1029 1023 1020 1017 1017 1020 1020 1005 993 984 975 969 966 963 957 948 939 927 915 906 897 891 885 882 876 873 870 867 867 864 867 870 873 900 927 957 990 1023 1053 1080 1104 1122 1140 1143 1137 1134 1110 1086 1062 1035 1008 978 945 915 897 879 867 864 861 861 861 858 861 861 861 861 861 864 867 870 873 879 885 891 897 900 903 909 915 921 936 951 966 978 993
984 984 867 870 870 870 867 867 867 867 867 867 867 864 864 864 864 864 864 864 864 864 864 864 864 864 864 864 864 864 861 861 861 861 861 861 861 861 861 861 861 861 861 861 861 861 861 861 861 861 861 861 861 861 861 861 861 864 864 867 867 867 867 867 867 867 864 864 864 864 864 864 864 864 864 864 864 864 864 864 864 864 864 864 864 864 864 864 864 864 864 867 867 867 867 867 867 867 867 870 870 870 870 870 873 876 876 879 882 885 885 888 885 885 882 885 888 891 894 897 897 897 894 894 894 894 894 897 897 897 897 903 906 918 930 948 972 996 1014 1029 1044 1053 1065 1071 1074 1077 1074 1068 1059 1047 1038 1029 1023 1017 1023 1032 1041 1056 1068 1077 1083 1086 1086 1083 1083 1089 1092 1107 1125 1143 1158 1173 1185 1191 1200 1215 1233 1248 1266 1281 1287 1287 1287 1272 1260 1248 1236 1227 1218 1212 1206 1203 1200 1194 1191 1185 1179 1173 1170 1176 1185 1185 1188 1188 1179 1173 1164 1146 1131 1107 1080 1056 1029 1002 987 978 969 963 954 948 963 972 993 1014 1038 1059 1080 1101 1122 1143 1161 1179 1200 1224 1248 1263 1275 1287 1275 1263 1254 1242 1230 1215 1203 1188 1173 1161 1146 1134 1122 1113 1107 1101 1095 1089 1089 1092 1095 1095 1092 1086 1080 1071 1071 1071 1071 1071 1071 1074 1074 1077 1095 1113 1137 1158 1182 1194 1203 1209 1209 1209 1209 1209 1212 1209 1206 1203 1203 1203 1203 1203 1203 1194 1185 1173 1158 1143 1140 1137 1140 1143 1146 1146 1143 1140 1134 1128 1119 1107 1095 1080 1062 1047 1035 1020 1011 1005 999 999 999 996 990 981 975 969 963 960 957 951 945 936 927 915 906 900 894 888 882 879 873 870 867 867 864 870 879 888 918 951 984 1020 1056 1083 1110 1137 1152 1167 1170 1161 1155 1131 1107 1080 1053 1029 999 969 939 912 888 870 867 864 861 861 858 861 861 861 861 861 861 864 867 873 876 882 888 897 900 906 909 918 924 936 948 963 972 984
957 957 867 870 873 870 870 870 870 870 867 867 867 864 864 864 864 864 864 867 864 864 864 864 864 864 864 864 864 864 861 861 861 861 861 861 861 861 861 861 861 861 861 861 861 861 861 861 861 861 861 861 861 861 861 861 861 864 867 867 867 867 867 864 864 864 864 864 864 864 864 864 864 864 864 864 864 864 864 864 864 864 864 864 864 864 864 861 861 864 864 864 864 867 864 864 864 867 867 867 867 867 867 870 870 873 876 876 879 882 882 882 882 879 879 882 885 885 891 894 891 891 891 891 894 894 894 894 897 897 900 903 909 921 936 948 966 981 996 1008 1017 1032 1050 1059 1062 1065 1059 1053 1044 1032 1020 1014 1011 1005 1017 1029 1041 1050 1056 1062 1065 1065 1065 1062 1065 1074 1083 1101 1122 1140 1152 1164 1176 1185 1197 1212 1230 1245 1263 1281 1287 1290 1290 1278 1266 1257 1248 1242 1236 1233 1227 1224 1218 1212 1206 1200 1197 1194 1191 1197 1200 1200 1197 1194 1188 1179 1170 1155 1140 1116 1089 1065 1038 1014 996 984 972 963 954 948 972 987 1008 1029 1050 1068 1086 1104 1122 1140 1158 1176 1197 1224 1251 1266 1278 1287 1275 1263 1251 1239 1227 1215 1206 1194 1182 1170 1161 1149 1137 1131 1122 1116 1110 1104 1104 1107 1107 1101 1098 1089 1083 1074 1077 1080 1086 1086 1086 1086 1083 1083 1101 1119 1140 1167 1191 1203 1215 1221 1221 1224 1224 1224 1224 1221 1218 1215 1215 1215 1212 1212 1209 1197 1185 1173 1158 1143 1137 1131 1125 1128 1131 1131 1128 1128 1122 1119 1113 1104 1095 1077 1059 1041 1026 1011 999 987 978 975 972 969 966 966 963 960 960 954 951 945 939 933 927 918 909 903 897 891 885 879 876 870 867 867 867 876 891 906 942 978 1011 1047 1083 1113 1143 1167 1182 1194 1194 1185 1176 1152 1128 1104 1077 1053 1026 996 966 933 897 876 870 864 861 861 861 861 861 861 861 861 861 864 867 870 876 882 888 894 900 906 912 915 918 924 933 939 948 957
942 942 864 867 870 870 873 873 873 873 870 867 864 864 864 864 867 867 867 867 867 864 864 864 864 864 864 864 864 864 864 864 861 861 864 864 864 864 864 861 861 861 861 861 861 861 861 861 861 861 861 861 861 861 861 861 861 864 864 867 864 864 864 864 864 864 864 864 864 864 864 864 864 864 864 864 864 864 864 864 864 864 864 864 864 864 864 861 861 861 861 864 864 864 864 864 864 864 864 864 867 867 867 870 870 873 873 876 876 876 879 879 879 876 876 879 882 882 885 888 888 888 891 891 891 894 894 894 897 897 900 906 909 921 933 945 957 966 972 981 987 1005 1026 1038 1044 1047 1041 1035 1026 1017 1008 1002 1002 1002 1014 1026 1038 1041 1047 1047 1050 1050 1050 1047 1053 1065 1077 1095 1113 1128 1140 1149 1164 1176 1191 1209 1227 1245 1263 1278 1287 1293 1296 1287 1275 1269 1263 1260 1254 1251 1248 1239 1233 1227 1224 1218 1215 1212 1209 1209 1206 1203 1197 1194 1185 1179 1170 1155 1140 1119 1095 1071 1047 1023 1002 987 972 963 957 951 987 1011 1035 1053 1074 1089 1101 1116 1128 1143 1161 1182 1203 1230 1257 1272 1281 1290 1278 1266 1254 1242 1230 1218 1209 1197 1188 1176 1167 1158 1149 1143 1134 1128 1125 1119 1116 1116 1113 1107 1098 1092 1083 1077 1083 1092 1098 1098 1098 1098 1098 1098 1113 1131 1149 1173 1194 1209 1224 1236 1233 1233 1230 1230 1227 1224 1221 1218 1218 1218 1215 1212 1209 1194 1182 1167 1152 1137 1128 1119 1113 1110 1110 1110 1113 1113 1113 1110 1107 1098 1089 1077 1062 1050 1035 1020 1005 987 972 963 957 951 951 954 954 954 954 951 945 939 936 930 924 918 909 906 900 894 888 885 879 873 867 867 867 882 903 924 957 990 1026 1062 1098 1131 1161 1191 1206 1221 1221 1209 1200 1176 1152 1125 1098 1071 1044 1017 990 951 915 888 876 867 864 861 861 861 861 861 861 861 861 864 867 870 876 879 885 891 897 903 906 912 915 918 924 927 936 942
933 933 864 867 870 870 873 873 873 873 870 870 867 867 864 867 867 867 867 867 867 864 864 864 864 864 864 864 864 864 864 864 864 864 864 864 864 864 864 864 861 861 861 861 861 861 861 861 861 861 861 861 861 861 861 861 861 861 864 864 864 864 864 867 867 864 864 864 864 864 864 864 861 864 864 864 861 861 864 864 864 864 864 864 864 864 864 861 861 861 861 861 864 864 864 864 864 864 861 864 864 867 867 870 873 873 876 876 879 879 876 876 876 876 873 876 879 879 882 882 885 885 888 891 891 894 894 894 897 897 900 906 909 918 930 939 945 951 951 954 954 975 999 1014 1023 1029 1023 1014 1008 1002 996 993 996 999 1011 1023 1029 1032 1035 1035 1035 1035 1038 1038 1044 1059 1071 1086 1101 1113 1122 1134 1146 1164 1182 1203 1224 1245 1263 1281 1290 1296 1302 1296 1290 1287 1281 1278 1272 1269 1263 1254 1245 1239 1236 1233 1227 1224 1215 1209 1200 1194 1185 1176 1173 1167 1155 1143 1128 1104 1080 1056 1032 1011 996 984 972 969 966 963 1005 1032 1059 1086 1110 1122 1134 1146 1158 1167 1185 1203 1224 1248 1272 1284 1293 1302 1287 1275 1260 1248 1236 1224 1215 1206 1194 1182 1173 1167 1161 1158 1152 1149 1143 1140 1134 1131 1125 1113 1104 1095 1092 1089 1098 1107 1116 1119 1119 1119 1119 1119 1131 1146 1161 1179 1197 1212 1224 1233 1233 1233 1230 1224 1218 1215 1212 1209 1209 1212 1209 1206 1203 1188 1176 1161 1146 1131 1119 1110 1098 1092 1089 1086 1089 1092 1092 1092 1092 1086 1083 1074 1065 1053 1041 1029 1014 993 975 960 948 939 942 945 945 945 945 942 936 933 927 924 918 915 909 903 900 894 888 885 879 873 870 870 873 891 915 939 975 1008 1044 1077 1113 1146 1179 1212 1227 1242 1245 1233 1221 1194 1170 1143 1113 1086 1059 1032 1005 966 927 897 882 867 864 861 861 861 861 861 861 861 864 864 867 870 873 879 882 888 894 900 903 906 912 915 918 924 927 933
933 933 861 864 867 870 870 873 873 873 873 870 870 867 867 867 867 867 867 867 864 864 864 864 864 864 864 864 864 864 864 864 864 864 864 864 864 864 864 864 864 861 861 861 861 861 861 861 861 861 861 861 861 861 861 861 861 861 861 861 864 864 867 867 867 867 864 864 864 864 864 864 861 861 861 861 861 861 861 864 864 864 864 864 864 861 861 861 861 861 861 861 864 864 864 864 864 861 861 864 864 864 870 873 876 882 888 888 888 888 882 876 876 873 870 873 876 879 879 882 885 885 888 891 891 894 894 894 897 897 900 903 906 915 924 930 933 936 939 939 939 960 981 996 1002 1011 1005 999 993 990 987 987 990 993 1002 1008 1014 1014 1011 1011 1011 1011 1020 1029 1038 1050 1062 1074 1089 1101 1116 1131 1149 1167 1188 1206 1227 1245 1266 1284 1296 1305 1311 1311 1308 1302 1299 1296 1290 1284 1278 1269 1260 1254 1248 1242 1233 1224 1212 1200 1188 1176 1167 1158 1152 1146 1137 1122 1107 1086 1062 1041 1023 1005 993 984 975 972 972 972 1008 1032 1062 1089 1116 1134 1152 1164 1176 1188 1206 1221 1242 1263 1284 1296 1305 1311 1296 1281 1269 1254 1242 1230 1221 1209 1200 1191 1182 1179 1176 1173 1173 1170 1164 1161 1152 1143 1134 1122 1113 1107 1107 1110 1119 1128 1137 1137 1140 1140 1140 1140 1152 1161 1173 1188 1203 1212 1221 1227 1227 1227 1224 1215 1209 1203 1197 1194 1197 1197 1197 1194 1191 1179 1167 1155 1140 1125 1113 1098 1086 1077 1068 1065 1068 1071 1071 1071 1074 1071 1071 1065 1062 1056 1047 1038 1023 1002 981 963 948 936 933 933 933 933 933 930 927 924 921 918 912 909 906 900 897 894 888 882 876 873 870 876 882 900 930 957 993 1026 1062 1095 1128 1164 1200 1230 1245 1263 1263 1251 1239 1212 1182 1152 1122 1092 1065 1038 1011 972 930 900 885 867 864 861 861 861 861 861 861 861 864 864 867 870 873 879 882 885 891 894 900 903 909 915 918 924 930 933
936 936 861 864 864 864 867 867 870 870 870 867 867 867 870 867 867 867 867 867 867 867 867 867 864 864 864 864 864 864 864 864 861 864 864 867 867 867 867 867 867 864 864 861 861 861 861 861 861 861 861 861 861 861 861 861 861 861 864 864 864 864 867 864 864 864 867 867 864 864 864 864 861 861 861 861 861 861 861 861 864 864 864 861 861 861 861 861 861 861 861 861 861 864 864 864 864 864 864 864 864 867 870 873 879 888 894 897 897 894 888 879 876 873 870 873 873 876 879 882 885 885 888 888 891 891 894 894 894 897 897 900 903 909 915 921 921 924 924 924 927 945 963 975 984 990 987 981 975 969 966 966 969 972 978 981 984 984 981 984 990 993 1008 1020 1032 1044 1053 1068 1080 1098 1116 1134 1155 1176 1200 1218 1236 1254 1272 1290 1302 1314 1323 1323 1323 1320 1317 1314 1308 1302 1293 1284 1275 1266 1260 1251 1236 1221 1206 1191 1173 1161 1149 1140 1131 1125 1116 1101 1086 1065 1047 1029 1014 999 990 984 978 978 978 978 1008 1029 1056 1083 1113 1134 1158 1176 1191 1206 1221 1239 1254 1275 1296 1308 1311 1317 1302 1287 1275 1260 1248 1236 1227 1215 1206 1197 1194 1194 1194 1194 1194 1191 1185 1176 1167 1155 1143 1134 1125 1122 1128 1134 1143 1152 1158 1158 1161 1161 1161 1164 1170 1179 1188 1200 1209 1215 1221 1224 1221 1221 1215 1206 1194 1188 1182 1176 1176 1176 1176 1179 1179 1170 1161 1149 1134 1119 1104 1092 1080 1071 1062 1056 1056 1056 1056 1053 1053 1053 1050 1050 1050 1047 1044 1038 1026 1008 990 972 951 936 933 927 924 924 924 921 918 915 912 912 909 903 900 897 894 891 885 882 879 873 873 879 885 909 942 978 1011 1047 1083 1116 1152 1185 1215 1242 1254 1266 1266 1251 1239 1212 1185 1155 1125 1095 1065 1038 1011 969 927 900 882 867 864 864 861 861 861 861 861 861 864 864 867 870 873 876 879 882 888 894 897 903 909 915 924 930 933 936
939 939 864 861 861 864 867 867 870 870 870 867 867 870 870 870 870 870 870 870 867 867 867 864 864 864 864 864 861 861 861 861 861 861 864 864 864 864 864 864 867 864 864 864 861 861 861 861 861 861 861 861 861 864 864 864 864 864 864 864 867 867 867 864 864 864 864 864 864 864 864 864 861 861 861 861 861 861 861 861 861 861 861 861 861 861 861 861 861 861 861 861 861 864 864 867 867 867 864 867 867 867 873 876 882 891 897 900 903 900 891 882 879 876 873 873 873 876 879 882 885 885 888 888 891 891 894 894 894 894 897 900 900 903 909 909 909 909 912 912 915 930 945 957 963 969 963 957 951 945 936 933 936 939 942 942 945 948 948 960 972 987 1002 1014 1026 1035 1044 1062 1080 1101 1122 1143 1167 1191 1218 1236 1251 1269 1284 1302 1314 1326 1338 1338 1338 1338 1338 1338 1329 1323 1314 1302 1293 1281 1269 1257 1239 1221 1200 1182 1164 1149 1137 1125 1113 1104 1092 1077 1065 1047 1029 1014 1005 996 987 981 975 978 984 984 1020 1044 1068 1089 1113 1140 1164 1188 1206 1224 1239 1251 1266 1284 1305 1314 1317 1320 1308 1296 1281 1269 1257 1242 1230 1218 1212 1206 1200 1200 1200 1203 1206 1206 1197 1191 1179 1167 1158 1149 1143 1143 1146 1149 1158 1170 1179 1179 1182 1182 1182 1182 1188 1197 1203 1209 1218 1218 1221 1218 1215 1209 1203 1191 1182 1173 1167 1161 1161 1158 1161 1164 1167 1158 1149 1140 1122 1107 1095 1083 1071 1062 1053 1047 1044 1041 1041 1038 1035 1035 1035 1035 1035 1038 1035 1032 1023 1011 996 978 960 942 933 924 918 915 912 912 909 906 906 903 900 897 894 891 888 885 882 879 876 873 873 882 891 918 957 993 1032 1068 1104 1140 1176 1203 1230 1251 1260 1266 1263 1248 1236 1209 1182 1155 1125 1098 1068 1038 1005 966 924 894 882 867 864 864 864 864 864 864 864 861 864 864 867 870 873 876 876 879 885 891 897 903 912 918 927 933 936 939
939 939 864 861 861 864 864 867 867 870 870 870 870 870 873 873 873 873 873 870 870 867 867 864 864 864 864 861 861 861 861 861 861 861 861 861 864 864 864 864 864 864 867 867 864 861 861 861 861 861 861 861 864 867 867 867 867 867 867 867 867 867 867 864 864 864 864 864 864 864 864 864 861 861 861 861 861 861 861 861 861 861 861 861 861 861 861 861 861 861 861 861 864 864 864 867 867 867 867 867 867 870 873 879 885 891 900 900 903 903 897 891 885 879 873 873 873 873 876 879 882 885 888 891 891 894 894 894 894 894 897 897 900 900 903 903 903 903 906 909 912 924 933 942 945 951 945 936 930 927 924 924 927 930 933 936 942 951 960 972 990 1005 1017 1029 1041 1053 1062 1080 1098 1116 1137 1158 1182 1206 1233 1254 1275 1293 1308 1323 1335 1344 1350 1353 1356 1356 1356 1353 1347 1341 1335 1323 1311 1299 1284 1269 1245 1224 1203 1182 1161 1143 1125 1107 1092 1077 1065 1053 1041 1029 1017 1005 999 993 987 978 972 981 990 993 1029 1056 1080 1101 1125 1152 1182 1203 1221 1239 1248 1257 1269 1287 1305 1314 1320 1326 1314 1302 1290 1278 1263 1251 1239 1227 1218 1212 1209 1209 1206 1212 1215 1218 1209 1203 1194 1182 1173 1167 1164 1161 1164 1167 1176 1188 1197 1197 1200 1200 1200 1200 1206 1212 1215 1218 1218 1218 1215 1212 1206 1197 1188 1176 1164 1158 1152 1149 1146 1143 1146 1149 1155 1146 1140 1131 1116 1101 1086 1077 1065 1056 1047 1038 1032 1029 1026 1023 1020 1020 1020 1020 1023 1026 1023 1023 1017 1011 1002 984 966 948 936 924 915 909 903 903 900 900 897 894 894 891 888 885 882 879 876 876 873 873 873 885 897 927 969 1008 1050 1092 1131 1164 1197 1221 1242 1257 1257 1260 1251 1239 1224 1200 1173 1146 1122 1095 1065 1032 999 960 918 891 879 867 864 864 864 864 864 864 864 864 864 864 867 870 873 873 876 879 885 888 894 903 909 918 927 936 936 939
933 933 864 861 861 861 864 867 867 867 870 870 870 873 873 873 870 867 870 870 870 870 870 870 867 867 864 864 861 861 861 861 861 861 861 861 864 864 867 864 864 864 867 867 867 864 864 864 861 861 861 861 864 864 867 867 867 867 867 867 867 867 867 867 864 864 867 867 867 864 864 864 861 861 861 861 861 861 864 864 864 864 861 861 861 861 861 861 861 861 861 861 864 864 864 867 867 870 870 870 870 873 876 882 888 894 900 900 900 897 894 888 882 876 873 873 870 873 876 876 882 885 888 891 894 894 894 894 894 894 894 897 900 900 900 900 903 903 903 906 909 915 924 930 930 933 930 921 918 918 918 921 927 933 942 948 957 972 984 999 1014 1029 1038 1050 1062 1071 1083 1101 1119 1137 1158 1176 1200 1224 1248 1272 1296 1317 1332 1344 1353 1359 1362 1365 1365 1368 1365 1365 1362 1359 1350 1341 1332 1317 1299 1278 1254 1230 1206 1182 1161 1137 1113 1092 1074 1053 1041 1032 1023 1014 1005 999 996 993 987 981 972 984 996 1002 1041 1065 1092 1116 1140 1170 1200 1221 1233 1245 1254 1260 1269 1287 1302 1314 1320 1326 1317 1308 1299 1287 1275 1260 1248 1236 1227 1221 1218 1218 1218 1224 1227 1227 1221 1215 1209 1197 1191 1185 1179 1176 1179 1182 1191 1203 1212 1215 1218 1218 1218 1218 1221 1221 1221 1218 1212 1206 1200 1194 1188 1179 1170 1158 1146 1143 1137 1134 1134 1134 1134 1140 1143 1137 1134 1128 1116 1104 1092 1080 1065 1053 1041 1032 1023 1017 1014 1011 1008 1008 1005 1008 1011 1014 1014 1014 1011 1005 1002 987 972 957 942 927 915 909 900 897 897 894 891 891 888 885 882 879 876 876 876 876 873 873 876 891 906 939 984 1026 1068 1110 1146 1176 1206 1224 1239 1251 1248 1248 1239 1224 1209 1188 1164 1143 1119 1095 1065 1032 999 957 915 888 879 867 867 864 864 864 864 867 867 864 864 864 867 867 870 873 876 879 882 888 894 900 906 915 921 927 930 933
924 924 867 864 861 864 864 864 867 870 870 870 870 870 870 867 867 867 867 867 870 870 870 870 867 867 864 864 864 861 861 861 861 861 861 861 864 864 867 867 864 864 864 864 864 867 867 864 864 864 864 864 864 864 867 867 867 867 867 867 867 867 867 867 864 867 867 867 867 867 864 864 864 864 861 861 861 861 864 864 864 864 861 861 861 861 861 861 861 861 861 864 864 864 864 867 867 867 870 870 870 873 879 885 891 894 897 897 894 891 885 882 879 873 870 870 870 873 873 876 879 885 888 891 897 897 894 891 891 891 894 894 897 900 900 903 903 903 903 906 906 909 912 915 918 918 915 915 912 915 918 927 939 951 966 981 996 1008 1023 1035 1044 1056 1065 1074 1083 1092 1101 1119 1140 1158 1179 1200 1221 1245 1266 1290 1314 1335 1347 1362 1365 1368 1371 1368 1368 1365 1368 1368 1368 1365 1362 1353 1341 1326 1308 1287 1263 1239 1218 1194 1170 1143 1116 1092 1074 1056 1044 1035 1026 1017 1008 999 999 999 996 990 984 990 999 1002 1035 1062 1089 1119 1149 1176 1203 1221 1230 1239 1245 1251 1260 1278 1296 1308 1317 1326 1320 1314 1305 1296 1284 1272 1260 1251 1245 1239 1239 1242 1242 1242 1242 1242 1236 1230 1221 1212 1203 1197 1191 1191 1197 1200 1209 1221 1230 1233 1236 1236 1233 1230 1224 1221 1215 1206 1200 1194 1185 1179 1170 1161 1152 1143 1131 1128 1122 1119 1119 1122 1122 1125 1125 1125 1125 1122 1113 1101 1089 1077 1062 1050 1035 1026 1020 1011 1011 1008 1005 1002 996 999 999 1002 1002 1005 1002 996 990 978 963 951 936 924 915 906 900 894 894 891 888 885 885 882 879 876 876 873 873 873 873 873 879 900 921 957 999 1041 1083 1122 1155 1179 1206 1218 1230 1236 1233 1230 1221 1209 1194 1176 1158 1137 1116 1092 1062 1029 996 954 912 885 876 870 867 864 864 864 864 867 867 867 867 867 867 867 870 873 876 879 882 885 891 897 903 909 915 918 921 924
915 915 867 864 861 861 861 864 867 870 870 867 867 867 864 864 864 864 867 867 867 867 867 867 867 867 867 864 864 864 861 861 861 861 861 861 864 864 864 864 867 864 864 861 864 864 867 864 864 864 864 867 867 867 867 867 867 867 867 867 867 867 867 864 864 864 864 864 864 867 867 867 867 864 864 861 861 864 864 861 861 861 861 861 861 861 861 861 861 864 864 864 864 864 867 867 867 867 867 867 870 873 879 885 885 885 885 882 879 876 876 876 873 873 870 870 870 873 873 876 879 882 885 888 891 894 891 891 891 891 891 894 894 897 897 897 897 897 897 897 897 900 903 906 909 912 912 912 915 927 936 954 972 993 1008 1023 1035 1050 1062 1071 1080 1089 1095 1101 1107 1113 1122 1137 1155 1176 1200 1224 1248 1269 1293 1314 1332 1350 1359 1368 1371 1368 1365 1362 1359 1359 1362 1362 1362 1362 1359 1350 1341 1329 1311 1293 1272 1251 1230 1206 1185 1158 1134 1110 1092 1074 1059 1050 1038 1029 1017 1011 1011 1011 1008 1002 999 1002 1005 1005 1041 1065 1095 1122 1152 1173 1197 1209 1218 1224 1230 1236 1245 1263 1284 1296 1308 1317 1317 1314 1311 1302 1293 1284 1272 1263 1260 1257 1257 1260 1266 1260 1257 1254 1248 1239 1233 1224 1218 1212 1209 1209 1212 1218 1227 1236 1242 1245 1245 1242 1239 1236 1227 1215 1206 1197 1185 1179 1170 1161 1152 1143 1134 1125 1119 1113 1107 1107 1107 1107 1107 1110 1110 1113 1116 1113 1104 1095 1083 1071 1056 1044 1032 1023 1017 1011 1008 1008 1005 999 993 993 993 993 993 993 990 981 972 960 948 936 927 918 909 903 897 894 891 888 885 882 879 876 876 876 873 873 873 873 876 876 888 915 942 978 1020 1062 1095 1125 1152 1170 1188 1197 1206 1212 1209 1206 1200 1188 1176 1161 1149 1131 1107 1083 1053 1020 990 951 909 885 876 867 867 867 864 864 864 864 867 867 867 867 867 867 867 870 873 876 879 885 888 891 897 900 906 912 912 915
906 906 864 864 861 861 861 861 867 870 870 867 867 867 870 867 867 867 864 864 864 864 864 864 864 867 867 867 867 864 861 861 861 861 864 864 864 864 864 867 867 867 867 864 864 864 864 864 864 867 867 870 870 867 867 867 867 867 867 867 867 867 864 864 864 864 864 864 864 867 867 867 870 867 864 861 864 864 864 861 861 861 861 861 861 861 864 864 864 864 864 864 864 864 867 867 870 870 867 870 870 870 876 879 879 879 876 876 873 873 873 873 873 873 873 876 876 879 882 885 885 882 882 885 888 891 891 891 891 891 891 891 891 894 894 894 894 894 894 894 894 897 900 900 906 909 915 921 927 945 963 984 1008 1032 1044 1059 1071 1083 1095 1104 1110 1119 1125 1128 1134 1137 1143 1158 1176 1194 1221 1245 1269 1293 1317 1332 1350 1362 1368 1371 1368 1362 1356 1353 1350 1350 1350 1353 1353 1350 1350 1344 1338 1329 1314 1299 1281 1263 1245 1224 1203 1179 1155 1134 1116 1101 1083 1071 1056 1047 1035 1026 1026 1023 1020 1017 1011 1011 1014 1014 1050 1077 1101 1125 1149 1164 1182 1194 1200 1206 1212 1218 1230 1248 1266 1281 1293 1302 1305 1311 1311 1308 1305 1296 1287 1278 1275 1272 1275 1278 1281 1275 1269 1263 1257 1248 1245 1239 1233 1230 1227 1227 1233 1236 1239 1245 1248 1245 1242 1239 1233 1230 1221 1212 1203 1191 1176 1167 1155 1146 1137 1128 1119 1110 1101 1098 1092 1089 1089 1092 1092 1095 1098 1101 1104 1101 1095 1086 1080 1071 1059 1047 1032 1023 1017 1008 1005 1005 1002 999 996 996 993 990 987 981 975 963 951 942 933 924 915 909 903 897 894 891 888 885 882 879 879 876 876 876 873 873 876 876 885 894 909 939 969 1002 1041 1077 1098 1116 1134 1149 1164 1173 1179 1185 1185 1182 1179 1170 1161 1146 1131 1113 1089 1068 1038 1005 975 939 906 882 876 870 867 867 867 867 864 864 864 867 867 867 867 867 867 870 870 873 879 885 888 891 897 900 903 903 906 906
900 900 864 864 864 861 861 861 864 867 867 867 867 867 867 864 864 864 861 861 861 861 861 864 864 864 867 867 867 864 864 864 861 864 864 867 867 867 870 870 870 867 867 864 864 864 864 864 864 867 870 873 870 870 867 867 867 867 867 867 867 867 864 864 861 861 861 864 864 867 867 870 870 867 864 864 864 864 864 861 861 861 861 861 861 861 864 864 864 864 864 864 864 864 867 870 870 870 870 870 870 870 873 873 873 873 873 870 870 870 870 870 870 873 873 879 885 888 891 897 891 885 882 885 885 888 891 894 894 894 894 891 891 891 891 891 891 891 894 894 897 897 900 903 906 909 921 936 951 975 999 1020 1041 1062 1077 1089 1101 1110 1119 1128 1137 1146 1152 1158 1161 1164 1167 1182 1200 1218 1242 1263 1287 1308 1332 1344 1359 1365 1365 1368 1359 1353 1344 1341 1338 1335 1338 1338 1338 1338 1338 1338 1335 1329 1317 1302 1287 1272 1257 1236 1218 1197 1179 1158 1146 1131 1116 1098 1083 1065 1050 1038 1029 1023 1017 1014 1011 1014 1014 1017 1053 1080 1101 1122 1143 1155 1164 1173 1179 1185 1194 1203 1215 1233 1251 1266 1278 1290 1296 1302 1308 1308 1308 1302 1296 1290 1290 1287 1290 1293 1293 1287 1281 1275 1269 1263 1257 1254 1251 1248 1245 1245 1245 1245 1245 1245 1245 1239 1236 1230 1224 1218 1212 1206 1197 1188 1176 1164 1152 1143 1131 1119 1107 1095 1086 1080 1077 1077 1077 1077 1080 1083 1083 1086 1089 1089 1086 1080 1074 1065 1059 1044 1032 1020 1014 1005 1002 996 993 993 993 990 987 984 978 972 963 948 933 927 918 912 906 900 897 891 888 885 885 882 879 879 876 876 876 876 876 876 879 882 900 915 936 966 996 1026 1056 1083 1095 1107 1119 1131 1140 1149 1155 1158 1158 1158 1155 1149 1143 1128 1113 1095 1074 1050 1023 990 957 927 897 879 873 870 867 867 867 867 867 864 864 864 867 867 867 867 867 870 870 873 879 885 888 894 897 897 897 897 900 900
897 897 864 864 864 864 861 861 864 864 867 867 867 864 861 861 861 858 858 858 858 861 861 861 864 864 864 867 867 867 864 864 864 864 867 870 873 876 876 873 870 867 867 864 864 864 864 864 864 867 870 873 870 867 867 864 864 864 864 864 864 864 864 861 861 861 861 864 864 867 867 867 870 867 864 861 864 864 864 861 861 861 861 861 864 864 864 867 867 864 864 864 867 867 867 870 870 870 870 870 870 870 870 873 873 870 870 870 870 870 870 870 873 873 876 879 885 888 891 897 891 885 882 885 885 885 888 891 894 894 894 891 891 891 891 891 891 891 894 894 897 900 906 915 927 939 957 972 990 1005 1023 1038 1053 1071 1077 1086 1095 1101 1110 1122 1134 1146 1158 1167 1176 1179 1185 1197 1215 1233 1254 1275 1293 1314 1332 1344 1353 1359 1359 1356 1350 1341 1335 1329 1326 1323 1323 1323 1326 1326 1329 1329 1332 1326 1317 1308 1293 1281 1266 1248 1233 1215 1197 1179 1164 1149 1131 1113 1092 1074 1059 1044 1035 1026 1020 1017 1014 1017 1017 1020 1053 1077 1098 1116 1131 1140 1149 1155 1161 1164 1176 1188 1203 1221 1239 1251 1263 1275 1284 1293 1302 1305 1308 1302 1296 1293 1296 1296 1296 1299 1302 1299 1293 1290 1281 1275 1269 1266 1260 1257 1257 1254 1254 1251 1248 1242 1236 1230 1224 1218 1212 1206 1203 1197 1191 1182 1173 1161 1152 1140 1128 1113 1098 1086 1071 1068 1065 1065 1065 1065 1068 1068 1071 1074 1077 1080 1077 1074 1065 1059 1050 1041 1029 1017 1011 1002 996 990 984 984 984 981 981 978 972 963 954 939 921 915 909 903 897 894 888 885 882 882 882 879 879 876 876 876 876 876 876 882 888 894 915 939 966 996 1023 1044 1062 1080 1089 1098 1107 1113 1122 1128 1131 1134 1134 1134 1131 1125 1119 1107 1092 1077 1056 1035 1005 972 939 915 891 876 873 870 867 867 867 867 867 867 864 864 867 867 867 867 867 870 870 873 879 882 888 891 894 894 894 897 897 897
894 894 867 867 867 864 864 864 864 864 867 867 867 864 861 861 861 861 861 858 858 861 861 861 864 864 864 864 867 867 867 867 870 870 876 879 879 879 876 870 867 864 864 864 864 864 864 864 864 864 867 870 867 867 867 864 864 864 864 864 864 864 861 861 861 861 861 861 864 864 864 864 864 864 864 864 864 864 864 864 864 864 864 864 864 864 864 867 867 867 867 867 867 864 867 867 867 870 870 870 870 870 870 870 870 870 870 870 870 870 873 876 879 879 882 882 885 888 894 897 891 888 885 885 882 885 888 891 891 894 894 891 891 891 891 891 891 891 894 897 900 912 924 936 951 969 984 996 1008 1020 1029 1038 1050 1059 1065 1068 1074 1080 1086 1101 1116 1134 1152 1167 1182 1188 1197 1212 1227 1245 1260 1278 1296 1311 1329 1335 1344 1350 1347 1344 1338 1332 1326 1320 1317 1314 1311 1311 1314 1317 1320 1323 1326 1323 1317 1311 1299 1287 1275 1260 1245 1230 1212 1197 1179 1158 1137 1116 1092 1077 1062 1050 1041 1032 1026 1026 1023 1023 1020 1020 1050 1068 1086 1104 1119 1128 1134 1140 1143 1149 1161 1176 1194 1209 1227 1239 1248 1257 1269 1281 1290 1293 1296 1293 1287 1284 1287 1293 1296 1302 1305 1305 1302 1299 1296 1290 1281 1272 1263 1260 1254 1251 1248 1248 1239 1233 1224 1218 1209 1203 1200 1197 1191 1185 1179 1170 1161 1155 1146 1137 1125 1113 1101 1089 1077 1068 1059 1053 1053 1053 1053 1056 1062 1065 1071 1074 1068 1062 1056 1047 1038 1029 1020 1011 1005 999 993 987 984 981 978 978 975 975 963 954 939 924 909 903 897 894 891 888 885 885 882 882 879 879 879 876 876 876 876 879 882 891 903 915 942 972 999 1020 1038 1050 1056 1062 1071 1077 1083 1089 1092 1092 1092 1092 1092 1092 1092 1092 1089 1080 1068 1053 1032 1014 984 948 918 900 882 873 870 867 867 867 867 867 867 867 867 864 867 867 867 867 870 870 870 870 876 879 885 888 891 891 894 894 894 894
888 888 867 870 870 867 867 864 864 861 864 867 867 864 864 861 861 861 861 861 861 861 861 861 864 864 864 867 867 867 867 870 870 873 879 882 879 876 873 867 864 861 861 861 861 864 864 864 864 864 864 867 867 867 867 867 864 864 864 864 864 864 861 861 861 861 861 861 861 861 861 864 864 864 864 864 864 864 864 864 864 864 867 867 864 864 867 867 870 870 870 870 867 864 864 864 864 867 870 870 870 870 870 870 870 870 870 870 870 876 879 885 888 888 888 888 885 888 894 897 894 888 885 885 882 882 885 885 888 891 894 894 894 894 891 891 891 894 897 903 912 933 951 969 984 996 999 999 1002 1005 1011 1014 1020 1026 1029 1032 1035 1041 1044 1059 1077 1098 1125 1152 1173 1191 1209 1221 1236 1248 1263 1275 1290 1302 1317 1326 1332 1335 1332 1332 1326 1320 1317 1311 1308 1305 1308 1308 1308 1308 1308 1311 1317 1317 1314 1314 1305 1296 1284 1269 1251 1236 1221 1203 1182 1161 1140 1113 1089 1080 1071 1065 1062 1062 1056 1050 1044 1035 1026 1020 1044 1059 1077 1095 1107 1116 1122 1128 1134 1137 1155 1173 1188 1203 1218 1227 1236 1245 1257 1269 1275 1278 1278 1278 1272 1272 1275 1278 1287 1296 1305 1311 1314 1314 1311 1305 1299 1287 1278 1266 1254 1245 1236 1230 1221 1215 1206 1197 1188 1185 1182 1179 1176 1170 1164 1158 1152 1146 1137 1131 1119 1110 1098 1089 1080 1071 1059 1050 1047 1044 1044 1047 1053 1059 1065 1065 1059 1053 1044 1038 1029 1023 1014 1011 1005 999 993 987 981 975 972 969 969 969 957 945 933 918 900 897 891 888 888 885 885 882 882 882 879 879 879 879 879 879 882 885 891 903 924 942 972 1005 1029 1038 1047 1047 1044 1041 1047 1053 1056 1053 1053 1050 1047 1047 1047 1050 1050 1056 1059 1050 1038 1026 1005 984 957 927 897 888 876 870 870 867 867 867 867 867 867 867 867 867 867 867 867 867 870 870 870 870 873 876 879 885 888 891 891 891 891 888
885 885 870 870 870 870 870 867 864 861 864 867 867 864 864 864 864 861 861 861 861 861 861 861 864 864 864 867 867 867 864 867 870 873 876 882 876 873 867 864 861 861 861 861 861 861 861 861 864 864 864 867 867 867 867 867 867 867 867 867 864 864 861 861 861 861 861 861 861 861 864 864 864 867 867 867 864 864 864 864 864 864 867 867 870 870 870 867 867 870 870 867 867 864 864 864 864 867 867 867 867 867 867 867 870 870 870 873 876 879 885 891 891 891 891 888 882 885 888 888 885 882 879 882 882 882 885 888 891 894 897 897 897 897 897 897 900 903 912 924 936 951 966 975 981 984 984 984 987 990 993 996 999 1005 1008 1011 1017 1023 1029 1044 1068 1092 1122 1155 1182 1200 1221 1233 1242 1251 1260 1269 1278 1290 1302 1311 1320 1326 1326 1326 1320 1314 1308 1302 1299 1296 1299 1299 1299 1299 1299 1302 1302 1305 1308 1308 1302 1296 1287 1272 1257 1239 1224 1209 1188 1170 1149 1128 1107 1101 1095 1089 1086 1086 1077 1068 1056 1041 1029 1020 1038 1050 1065 1080 1092 1098 1104 1110 1119 1125 1146 1164 1182 1194 1206 1215 1227 1236 1245 1257 1263 1263 1263 1263 1260 1257 1260 1263 1272 1287 1302 1311 1320 1326 1320 1317 1308 1299 1287 1269 1251 1236 1224 1212 1203 1194 1182 1173 1164 1161 1158 1158 1155 1152 1149 1143 1140 1134 1128 1122 1113 1104 1095 1092 1086 1074 1062 1053 1044 1038 1038 1041 1044 1050 1056 1056 1047 1041 1035 1029 1023 1020 1014 1011 1005 1002 993 984 978 972 966 963 960 960 951 942 930 915 900 894 891 888 888 888 888 885 885 882 882 879 879 882 882 885 888 897 906 924 948 972 1002 1032 1050 1047 1047 1038 1026 1017 1014 1014 1014 1011 1008 1005 1002 999 1002 1005 1011 1017 1020 1011 1002 990 969 948 927 906 885 879 873 870 870 867 867 867 867 867 870 867 867 867 867 867 867 867 870 870 870 870 873 873 879 882 888 888 891 891 888 885
885 885 870 870 870 867 867 864 861 858 861 861 864 864 864 864 861 861 861 861 861 861 861 861 861 864 864 864 864 864 864 867 867 870 873 876 873 870 867 864 861 861 861 861 861 861 861 861 864 864 864 864 864 867 867 867 870 867 867 867 867 864 864 861 861 861 861 861 861 861 861 864 864 864 864 864 864 864 864 864 864 867 867 870 870 870 870 867 867 867 867 867 867 864 867 867 867 870 870 870 870 867 867 867 870 870 873 876 879 882 888 894 891 891 891 888 882 882 882 882 879 879 879 882 882 885 885 888 891 894 894 897 900 900 900 903 909 915 924 939 954 960 969 972 972 969 969 972 972 972 975 978 981 984 990 996 1002 1011 1017 1038 1065 1092 1128 1164 1191 1209 1230 1239 1245 1251 1254 1257 1266 1275 1287 1299 1311 1320 1320 1320 1317 1311 1305 1296 1290 1287 1287 1287 1290 1290 1290 1290 1290 1293 1299 1302 1299 1296 1287 1275 1260 1245 1227 1212 1197 1182 1170 1155 1143 1137 1131 1122 1113 1104 1092 1077 1062 1044 1029 1020 1032 1041 1053 1065 1074 1080 1083 1089 1101 1110 1131 1155 1170 1182 1194 1206 1218 1227 1236 1245 1251 1254 1254 1251 1248 1248 1245 1245 1257 1275 1293 1305 1317 1326 1320 1317 1308 1296 1281 1263 1245 1230 1215 1200 1185 1170 1155 1146 1134 1134 1134 1134 1131 1131 1128 1125 1119 1116 1113 1110 1104 1098 1089 1083 1074 1065 1056 1047 1038 1029 1029 1032 1038 1044 1050 1050 1041 1035 1029 1023 1017 1014 1014 1008 1002 993 990 984 978 972 966 960 957 951 939 927 915 906 897 891 888 888 885 885 885 885 885 885 885 885 885 885 888 891 894 903 912 933 963 990 1014 1038 1050 1041 1032 1023 1011 1002 999 996 990 987 981 978 975 972 972 972 972 972 972 963 951 939 927 912 900 888 879 876 873 870 870 867 867 867 867 867 870 870 870 870 870 867 867 870 870 870 870 870 873 873 876 882 885 888 888 888 888 885
885 885 867 867 867 867 867 864 861 858 861 861 861 864 864 864 864 861 864 864 864 861 861 861 861 861 864 864 864 864 864 864 864 867 870 870 870 870 870 867 864 861 861 861 861 861 861 864 864 864 864 864 864 864 867 867 870 870 867 867 867 867 864 864 861 861 861 861 861 861 861 861 861 864 864 864 864 861 864 864 864 867 870 870 870 870 867 867 867 867 867 867 867 867 870 870 873 876 876 873 870 870 870 870 870 873 873 879 882 885 888 891 891 891 891 888 882 879 876 876 876 879 882 882 885 885 885 885 888 891 891 894 897 900 906 912 921 927 936 945 954 957 957 960 960 960 960 960 960 960 960 963 966 969 978 984 993 1002 1011 1038 1068 1101 1134 1170 1194 1212 1230 1233 1236 1239 1239 1239 1248 1263 1275 1287 1302 1311 1311 1314 1311 1305 1299 1290 1281 1275 1272 1272 1272 1275 1275 1278 1281 1287 1290 1296 1296 1296 1290 1278 1266 1251 1239 1224 1212 1200 1188 1176 1164 1158 1149 1140 1128 1113 1098 1080 1062 1044 1026 1014 1014 1011 1020 1032 1041 1050 1056 1065 1080 1095 1116 1140 1158 1170 1179 1191 1203 1215 1224 1233 1239 1242 1242 1242 1239 1236 1236 1233 1245 1263 1284 1299 1314 1323 1320 1314 1305 1293 1278 1263 1245 1230 1212 1194 1176 1158 1143 1128 1116 1113 1110 1110 1107 1107 1107 1104 1101 1098 1098 1095 1092 1086 1080 1074 1065 1056 1050 1041 1032 1023 1023 1026 1029 1035 1041 1044 1038 1032 1026 1017 1014 1011 1008 1002 996 990 984 978 975 969 966 957 951 942 927 915 906 900 894 891 888 888 888 885 888 888 888 888 891 891 894 897 900 903 906 912 918 939 969 1002 1017 1035 1041 1029 1017 1005 996 987 984 978 975 969 963 960 954 951 948 942 939 933 927 915 903 894 888 882 879 876 873 873 873 870 870 870 867 867 867 867 870 870 870 870 870 870 870 870 870 870 870 870 873 873 876 879 882 885 888 888 888 885
882 882 864 867 867 864 864 864 861 861 861 861 861 864 864 864 864 864 864 864 864 864 864 864 861 861 861 864 864 864 864 864 864 864 864 867 867 870 870 867 864 864 864 861 864 864 864 864 864 864 864 864 864 861 864 864 864 867 867 867 867 867 867 864 864 864 861 861 861 861 861 861 864 864 864 864 864 861 861 864 864 864 867 867 867 867 867 867 867 867 867 867 867 870 873 876 882 885 885 882 876 870 870 870 870 873 876 879 885 888 891 891 891 888 885 882 876 876 876 876 879 882 885 885 885 885 885 885 885 888 894 900 906 915 924 933 936 939 942 945 951 951 951 951 948 948 948 948 948 948 948 951 957 960 969 978 987 1002 1017 1047 1083 1116 1146 1173 1194 1206 1218 1224 1224 1227 1227 1227 1236 1248 1263 1275 1290 1299 1302 1305 1302 1299 1293 1281 1269 1263 1257 1254 1257 1257 1260 1263 1269 1275 1284 1290 1293 1293 1290 1281 1272 1260 1248 1236 1224 1212 1203 1191 1179 1170 1158 1146 1131 1116 1098 1077 1059 1041 1023 1014 1002 996 999 1005 1011 1020 1026 1041 1062 1080 1104 1128 1146 1155 1164 1176 1185 1197 1209 1221 1227 1230 1233 1230 1227 1227 1227 1227 1239 1257 1275 1293 1311 1320 1317 1314 1302 1290 1275 1260 1248 1230 1212 1194 1173 1155 1137 1122 1107 1098 1095 1089 1086 1086 1086 1083 1083 1080 1080 1080 1074 1071 1068 1062 1056 1047 1041 1032 1023 1014 1014 1017 1023 1029 1035 1035 1032 1029 1020 1014 1008 1005 1002 996 990 984 978 972 969 966 963 954 942 930 918 903 897 894 891 891 888 888 888 888 891 894 897 897 900 903 909 912 918 924 927 927 927 942 969 996 1008 1017 1020 1008 996 987 978 972 969 963 957 951 948 942 936 930 924 915 909 903 897 891 885 882 879 876 876 876 876 876 873 873 873 870 870 870 867 870 870 870 870 870 870 870 870 870 870 870 873 873 873 873 873 876 879 882 885 885 885 882
879 879 864 864 864 864 864 864 861 861 861 861 861 861 864 864 864 867 864 864 864 864 861 861 861 864 864 864 864 864 864 864 864 864 864 864 864 867 867 867 867 867 864 864 864 864 864 864 867 867 867 867 867 864 861 864 864 864 867 867 867 867 867 867 864 864 864 861 861 861 861 861 864 864 864 864 864 861 861 861 864 864 864 864 867 867 867 864 864 867 867 867 867 870 876 882 885 888 891 882 876 873 870 870 873 876 879 882 885 888 888 888 885 879 879 876 876 876 879 879 882 885 888 888 888 885 885 885 885 888 894 900 909 924 936 945 945 945 945 945 942 942 942 939 939 936 936 933 933 936 936 942 948 954 963 975 987 1008 1026 1059 1095 1131 1152 1173 1188 1197 1206 1206 1209 1209 1212 1212 1221 1236 1251 1263 1275 1284 1290 1296 1293 1290 1284 1272 1257 1248 1242 1239 1239 1242 1242 1248 1254 1263 1275 1287 1287 1290 1290 1281 1275 1266 1257 1248 1236 1224 1212 1200 1188 1173 1158 1143 1125 1107 1089 1071 1053 1038 1026 1020 1005 996 990 987 987 993 999 1020 1047 1074 1095 1119 1137 1143 1149 1158 1164 1173 1188 1203 1212 1218 1221 1221 1218 1218 1221 1221 1236 1254 1275 1293 1314 1323 1317 1314 1302 1287 1275 1260 1245 1230 1212 1197 1179 1161 1143 1128 1113 1104 1095 1089 1083 1074 1071 1068 1062 1062 1059 1056 1056 1053 1050 1047 1044 1035 1029 1020 1014 1005 1005 1005 1008 1011 1017 1017 1014 1011 1008 1002 996 993 993 987 981 975 966 960 954 948 945 933 924 912 906 897 894 891 891 891 891 894 903 912 918 918 921 918 915 918 927 936 942 945 948 945 939 948 963 978 984 993 993 984 975 969 963 957 951 945 942 936 930 924 918 912 906 900 894 888 885 882 879 879 879 879 879 879 879 879 876 876 873 870 870 870 870 870 870 870 870 870 870 870 870 870 870 870 873 873 873 873 873 873 876 876 879 879 879 879
873 873 864 864 867 867 864 864 864 864 861 861 861 861 864 864 867 867 864 864 861 861 861 861 861 864 864 864 864 864 864 864 861 861 861 861 864 864 864 867 867 867 864 864 864 864 864 867 867 870 870 870 867 864 861 861 861 864 864 867 867 867 867 867 867 864 864 864 861 861 861 861 864 864 864 864 864 864 861 861 861 864 864 864 864 864 864 864 864 864 867 867 867 870 879 885 888 888 888 882 876 873 873 870 873 879 882 885 888 885 882 876 876 873 873 876 876 879 882 885 885 888 888 888 888 885 885 885 885 885 891 900 906 921 936 945 942 942 939 939 936 933 927 924 921 921 921 921 921 924 927 933 942 951 963 975 990 1014 1038 1065 1098 1125 1143 1161 1173 1179 1185 1188 1188 1191 1194 1200 1209 1224 1236 1248 1260 1269 1275 1281 1281 1281 1278 1263 1251 1239 1230 1224 1224 1227 1230 1236 1242 1251 1263 1272 1278 1284 1287 1284 1284 1278 1272 1263 1248 1236 1221 1203 1188 1170 1152 1137 1119 1104 1089 1074 1059 1050 1044 1038 1035 1035 1029 1023 1017 1014 1008 1020 1041 1059 1083 1104 1122 1128 1134 1143 1149 1158 1173 1188 1197 1200 1203 1203 1203 1206 1212 1218 1233 1257 1278 1296 1314 1323 1320 1314 1302 1290 1278 1263 1248 1233 1215 1200 1182 1167 1152 1140 1128 1119 1110 1101 1092 1080 1071 1062 1056 1050 1044 1041 1041 1038 1035 1035 1032 1023 1017 1011 1005 999 996 993 990 993 993 993 993 990 987 984 981 981 981 978 972 963 954 945 936 930 924 915 909 900 897 894 894 894 894 897 900 909 924 942 945 945 942 939 933 936 945 954 960 963 963 957 948 948 954 960 966 969 969 963 957 951 945 939 936 930 924 921 918 912 906 900 897 891 888 885 882 882 879 879 882 882 882 882 882 882 879 879 876 873 870 870 870 870 870 870 870 870 870 870 870 870 870 870 870 873 873 873 873 873 873 873 873 873 873 873
873 873 864 867 867 867 867 867 867 864 861 861 861 861 864 867 867 867 864 861 861 861 861 861 861 861 861 864 861 861 861 861 861 861 861 861 861 861 864 864 864 867 867 867 864 864 864 867 870 870 867 867 864 861 861 861 861 861 864 864 864 867 867 867 867 867 864 864 864 864 861 861 864 861 861 861 861 861 861 861 861 864 864 864 864 864 864 864 864 867 867 867 867 870 873 876 879 879 879 876 873 870 870 873 873 876 876 879 879 876 876 873 873 873 876 876 879 882 885 888 888 888 888 888 888 888 885 882 885 885 888 897 903 915 927 933 933 933 930 927 924 921 918 915 912 909 909 912 912 918 924 936 945 957 972 984 999 1023 1044 1068 1095 1119 1131 1146 1155 1164 1170 1173 1173 1176 1179 1182 1191 1203 1215 1227 1239 1251 1260 1269 1272 1272 1269 1257 1245 1233 1224 1215 1215 1215 1218 1221 1227 1239 1248 1260 1272 1281 1287 1290 1290 1287 1281 1275 1260 1245 1227 1209 1188 1170 1149 1134 1116 1101 1089 1077 1065 1062 1056 1053 1062 1068 1065 1062 1056 1041 1029 1032 1041 1050 1071 1089 1104 1113 1119 1128 1137 1146 1158 1170 1176 1179 1182 1182 1185 1191 1203 1215 1236 1260 1284 1299 1317 1323 1320 1314 1305 1293 1278 1263 1251 1233 1218 1200 1185 1173 1161 1152 1146 1137 1128 1119 1107 1092 1080 1068 1056 1047 1038 1029 1029 1026 1026 1023 1017 1014 1008 1002 999 996 987 981 972 972 969 966 966 963 963 963 966 969 972 969 960 951 936 921 912 909 903 900 897 894 894 894 897 897 900 912 924 939 957 975 975 966 957 954 948 951 960 966 966 966 963 957 951 951 954 957 957 957 957 951 945 939 933 927 924 918 912 909 906 903 900 897 894 888 888 885 885 885 882 885 885 888 888 888 891 888 885 882 876 873 873 870 870 870 870 870 873 873 873 873 873 873 873 873 873 873 873 873 873 873 873 873 873 873 873 873
873 861 864 867 867 867 867 867 864 864 861 861 858 861 861 861 864 864 864 861 861 861 861 861 861 864 861 861 861 861 861 861 861 861 861 861 861 861 861 861 864 864 864 864 864 867 867 867 867 867 864 864 861 861 861 861 861 861 861 864 864 864 867 867 867 867 867 864 864 864 864 864 861 861 861 861 861 861 861 861 861 864 864 864 864 867 867 867 867 867 867 867 867 867 870 870 870 873 873 873 873 873 873 876 876 876 876 873 873 873 873 873 873 876 876 879 882 885 888 888 888 891 891 891 891 888 885 882 882 885 888 894 900 909 915 921 921 924 921 915 912 912 912 909 906 906 906 909 912 924 933 945 960 972 987 999 1014 1032 1050 1068 1089 1107 1119 1134 1143 1149 1158 1158 1161 1161 1164 1167 1173 1182 1191 1206 1224 1239 1251 1263 1266 1266 1263 1251 1242 1230 1218 1206 1203 1200 1200 1206 1212 1224 1239 1251 1266 1278 1287 1293 1296 1296 1293 1287 1272 1254 1236 1212 1191 1170 1149 1131 1116 1101 1089 1077 1068 1065 1065 1065 1083 1095 1098 1098 1095 1080 1065 1056 1050 1047 1059 1074 1086 1095 1104 1116 1128 1137 1146 1152 1155 1155 1155 1161 1167 1179 1197 1215 1236 1263 1290 1305 1320 1323 1317 1311 1299 1287 1275 1260 1248 1230 1215 1197 1185 1173 1161 1152 1143 1134 1125 1116 1107 1095 1086 1074 1062 1050 1035 1026 1020 1014 1008 1005 1002 999 993 990 990 987 981 972 966 963 960 954 948 942 939 936 936 939 945 942 933 927 918 909 903 903 900 900 900 900 906 912 918 930 939 951 963 972 984 996 993 984 978 975 975 975 978 984 978 972 966 960 951 951 951 951 951 948 945 939 933 927 924 918 915 909 906 903 900 900 897 894 894 891 891 888 888 888 888 888 891 891 894 894 894 891 888 885 879 876 873 870 870 870 870 873 876 876 876 873 873 873 873 873 873 873 873 873 873 873 873 873 873 873 873 873
873 861 864 864 867 867 867 864 864 864 864 861 861 861 858 861 861 861 861 861 861 861 861 864 864 864 864 861 861 861 861 861 861 861 861 861 861 861 861 861 861 861 864 864 867 867 870 870 870 867 864 861 861 861 861 861 861 861 861 861 864 864 864 867 867 867 867 867 864 864 864 864 861 861 861 861 861 861 861 861 861 864 864 867 867 867 867 867 867 867 870 867 867 864 867 867 867 867 867 870 876 876 879 882 879 876 876 873 873 873 873 873 876 879 882 882 885 888 888 888 891 891 891 891 891 888 885 882 882 882 885 891 897 900 903 909 909 912 912 909 906 909 909 909 909 909 915 921 930 945 960 975 990 1005 1014 1023 1032 1044 1053 1068 1083 1098 1110 1122 1131 1137 1143 1143 1143 1143 1146 1149 1158 1167 1176 1197 1215 1233 1245 1257 1260 1260 1257 1245 1233 1221 1209 1197 1191 1188 1185 1191 1194 1206 1221 1239 1254 1269 1281 1290 1299 1299 1296 1293 1278 1263 1242 1221 1197 1179 1161 1143 1128 1116 1101 1086 1074 1074 1071 1077 1092 1110 1113 1116 1116 1104 1089 1077 1062 1050 1056 1059 1068 1077 1089 1098 1110 1122 1128 1134 1137 1140 1143 1152 1164 1176 1197 1221 1245 1269 1293 1308 1320 1326 1317 1311 1299 1287 1275 1257 1242 1227 1209 1191 1176 1161 1149 1140 1128 1119 1110 1101 1095 1086 1077 1065 1056 1041 1026 1014 1008 1005 999 999 996 993 993 990 987 987 981 975 966 963 960 951 942 930 924 921 918 921 924 921 915 912 906 903 900 903 903 906 912 915 927 936 948 963 975 987 996 1002 1005 1011 1008 1005 999 999 999 996 996 996 990 978 969 963 954 948 948 948 945 939 936 930 924 918 915 912 909 906 903 903 900 900 897 897 894 894 894 894 891 894 894 894 897 897 897 897 897 894 891 888 882 879 876 873 870 873 873 876 882 885 882 879 876 876 873 873 873 876 873 873 873 873 873 873 873 873 873 873
873 861 864 864 864 867 867 867 867 867 864 864 864 861 858 858 861 861 861 864 864 864 864 864 864 864 864 864 861 861 861 861 861 861 861 861 861 861 861 861 861 861 861 864 867 870 873 873 873 870 867 867 864 861 861 861 861 861 861 861 861 864 864 864 867 867 867 867 867 867 864 864 864 864 864 864 864 864 864 864 864 867 867 870 873 873 873 870 867 867 867 867 864 867 867 867 867 870 870 873 876 879 879 882 879 876 873 870 870 873 873 876 879 882 885 885 888 888 888 891 891 891 891 891 891 888 885 882 882 882 885 888 894 894 897 900 900 903 903 903 903 903 903 903 906 906 915 927 939 954 972 987 1002 1014 1023 1032 1038 1047 1053 1062 1071 1083 1092 1101 1110 1119 1125 1128 1128 1128 1134 1137 1146 1158 1170 1188 1209 1227 1236 1248 1248 1248 1245 1233 1224 1212 1197 1185 1179 1173 1170 1173 1179 1191 1209 1224 1242 1257 1272 1281 1293 1296 1299 1296 1284 1269 1251 1230 1209 1191 1173 1155 1140 1125 1113 1098 1089 1086 1083 1089 1104 1119 1128 1134 1134 1119 1107 1092 1074 1059 1053 1050 1053 1062 1071 1083 1092 1104 1107 1113 1119 1125 1131 1146 1161 1179 1203 1227 1251 1272 1293 1308 1323 1326 1320 1314 1299 1287 1272 1254 1239 1221 1203 1185 1167 1149 1134 1122 1110 1101 1092 1083 1074 1068 1059 1050 1041 1026 1014 1002 1002 999 999 999 1002 999 996 996 993 990 987 984 978 972 966 957 945 930 924 918 912 909 909 909 906 903 903 903 906 912 918 927 939 948 960 972 984 996 1008 1011 1017 1017 1017 1017 1020 1023 1023 1020 1017 1014 1008 1002 993 981 969 960 951 945 942 939 933 930 927 921 918 915 912 909 909 906 906 906 906 903 903 900 900 897 897 897 897 900 900 900 903 903 906 906 903 900 897 891 885 882 879 876 876 876 876 882 888 897 897 900 897 888 882 879 876 876 876 873 873 873 873 873 873 873 873 873
876 861 864 864 867 867 870 870 870 870 870 870 867 864 864 861 861 858 861 864 864 864 864 864 861 861 861 861 861 861 861 861 861 861 861 861 861 861 861 861 861 861 864 864 867 870 870 870 870 870 870 870 867 864 864 861 861 861 861 861 861 861 864 864 864 864 864 864 867 867 867 867 864 864 864 864 864 864 867 867 870 873 873 876 876 873 870 867 867 864 864 864 867 867 867 867 870 870 873 876 879 879 879 879 876 873 870 870 870 870 873 876 879 882 885 885 888 888 888 888 888 891 891 888 888 888 885 885 882 882 882 888 891 891 894 894 894 894 894 897 897 897 897 900 903 906 915 927 939 957 975 990 1002 1017 1023 1032 1038 1041 1047 1053 1056 1062 1071 1077 1086 1095 1104 1107 1110 1116 1122 1128 1140 1152 1167 1185 1203 1218 1227 1236 1233 1233 1227 1218 1209 1200 1185 1173 1164 1155 1152 1161 1167 1179 1194 1209 1227 1245 1260 1269 1278 1287 1293 1296 1287 1281 1263 1242 1221 1200 1182 1164 1149 1137 1125 1116 1107 1104 1101 1107 1119 1131 1140 1146 1146 1131 1119 1104 1086 1068 1062 1053 1050 1053 1059 1065 1071 1077 1086 1098 1107 1116 1125 1143 1161 1182 1206 1230 1251 1272 1293 1308 1323 1329 1323 1317 1302 1284 1269 1254 1236 1218 1200 1182 1164 1149 1137 1128 1119 1110 1098 1089 1074 1062 1050 1041 1032 1026 1020 1017 1017 1014 1014 1014 1014 1011 1011 1011 1008 1005 999 996 990 984 975 966 951 939 930 918 912 909 909 909 909 909 912 915 918 930 939 951 963 972 984 993 1002 1014 1023 1029 1038 1041 1041 1041 1041 1041 1038 1032 1026 1017 1011 1002 990 978 966 957 951 945 939 933 930 924 921 918 915 915 912 912 912 912 912 915 915 912 909 906 903 900 900 900 903 906 906 909 912 912 912 912 912 909 903 897 894 888 885 882 879 879 879 885 894 903 909 918 915 903 891 885 879 876 876 876 876 876 873 873 873 876 876 876
876 861 864 864 867 867 870 870 870 870 870 870 870 867 864 861 858 858 861 864 864 864 864 864 861 861 861 861 861 861 861 861 861 861 861 861 861 861 861 861 861 861 864 867 867 870 870 867 867 867 870 870 870 867 867 864 864 861 861 861 861 861 864 864 864 864 864 864 867 867 870 870 870 867 864 864 864 864 870 873 876 879 882 879 876 873 870 867 864 864 864 867 867 870 870 870 873 876 876 879 882 882 879 873 873 870 870 870 870 870 873 876 879 882 885 885 888 888 888 888 888 888 888 885 885 885 885 882 882 882 882 888 891 891 891 891 891 888 891 891 894 897 897 900 903 906 918 930 942 954 966 981 996 1008 1017 1026 1029 1029 1029 1032 1038 1041 1047 1053 1062 1071 1083 1089 1095 1101 1110 1116 1131 1146 1164 1179 1197 1212 1218 1227 1227 1224 1221 1209 1197 1185 1170 1158 1143 1128 1122 1128 1134 1149 1164 1179 1200 1221 1239 1251 1263 1275 1290 1299 1293 1290 1278 1260 1242 1221 1200 1182 1167 1152 1143 1137 1131 1128 1122 1125 1134 1146 1152 1158 1158 1143 1131 1113 1098 1080 1071 1059 1056 1059 1065 1071 1074 1080 1089 1101 1110 1122 1134 1152 1167 1185 1209 1230 1248 1269 1287 1305 1320 1329 1323 1320 1305 1290 1275 1257 1239 1221 1203 1182 1170 1158 1146 1137 1131 1119 1107 1092 1077 1065 1053 1047 1041 1041 1038 1035 1032 1029 1029 1026 1023 1026 1026 1023 1020 1014 1011 1005 999 990 984 972 960 948 936 921 912 912 909 912 912 915 921 924 930 945 960 969 981 993 999 1008 1017 1026 1035 1044 1056 1062 1062 1062 1056 1053 1047 1038 1029 1017 1005 996 984 972 960 954 948 942 936 930 927 924 921 918 918 915 915 915 918 921 924 924 924 921 918 912 909 903 903 906 909 912 915 918 921 921 921 921 921 918 912 909 903 900 894 891 888 885 885 888 897 906 918 927 930 915 903 894 885 879 879 879 876 876 876 876 876 876 876 876
876 861 864 864 864 867 867 867 867 867 867 867 867 864 864 861 858 858 861 861 861 861 861 861 861 861 861 861 861 861 861 861 861 861 861 861 861 861 861 861 864 864 867 870 870 870 867 867 867 867 867 867 870 870 873 870 870 867 864 861 861 861 864 864 867 867 867 867 870 873 873 873 870 870 867 867 867 867 876 885 888 888 891 885 876 870 867 864 864 867 867 870 873 876 876 876 876 876 876 876 879 879 876 873 870 870 870 870 870 870 873 876 879 882 885 885 888 888 885 885 885 882 882 882 882 885 885 885 882 879 882 885 888 888 891 888 888 885 888 888 891 894 897 900 903 909 918 927 939 951 960 972 987 999 1008 1017 1023 1017 1014 1017 1020 1023 1035 1044 1053 1062 1068 1074 1080 1086 1101 1113 1128 1146 1164 1179 1194 1206 1212 1218 1218 1215 1209 1197 1185 1170 1155 1140 1122 1107 1098 1104 1107 1119 1134 1149 1173 1197 1218 1236 1254 1272 1287 1302 1299 1299 1290 1275 1260 1239 1218 1197 1182 1167 1161 1158 1155 1149 1146 1146 1152 1161 1164 1170 1170 1155 1143 1125 1110 1092 1080 1068 1065 1071 1080 1086 1089 1092 1101 1107 1119 1134 1146 1161 1176 1191 1209 1227 1245 1263 1281 1299 1317 1326 1326 1323 1311 1296 1281 1263 1242 1224 1206 1191 1182 1173 1164 1155 1143 1128 1113 1098 1086 1074 1068 1068 1065 1065 1062 1059 1050 1044 1038 1035 1035 1035 1038 1035 1029 1023 1017 1008 1002 996 990 981 969 957 942 927 915 915 915 918 921 924 927 927 939 954 972 984 993 1002 1011 1020 1029 1038 1047 1059 1071 1077 1074 1071 1062 1053 1041 1032 1023 1011 999 987 975 966 957 954 951 945 939 933 930 930 927 924 924 924 924 927 927 930 930 930 933 927 921 915 912 906 909 915 921 924 927 930 933 933 933 930 924 918 909 903 900 897 897 897 894 894 891 894 900 903 915 927 927 918 909 900 888 882 882 879 879 879 876 876 876 876 876 876
879 864 864 864 864 867 867 867 870 870 870 870 870 867 864 864 861 861 861 861 861 861 861 861 861 861 861 861 861 861 861 861 861 861 861 861 861 861 861 864 867 870 870 870 870 867 867 867 864 864 864 867 867 870 870 873 873 870 870 867 867 864 864 864 864 867 867 867 870 870 870 870 870 867 867 867 870 870 879 891 897 894 894 888 879 870 867 867 867 870 873 876 879 882 879 879 876 873 873 873 873 873 873 873 870 870 870 870 870 870 873 876 879 882 885 885 885 885 885 882 882 879 879 879 882 882 882 885 882 879 882 882 885 888 888 888 888 885 885 885 885 891 894 897 903 909 918 927 936 945 954 963 978 990 999 1008 1014 1008 1002 1002 1005 1008 1026 1044 1053 1056 1056 1062 1068 1077 1092 1110 1128 1146 1164 1179 1191 1200 1203 1209 1206 1203 1197 1185 1176 1158 1140 1119 1104 1089 1080 1083 1086 1095 1107 1119 1149 1176 1203 1227 1251 1269 1287 1302 1302 1305 1296 1284 1272 1251 1233 1215 1200 1188 1182 1182 1179 1173 1167 1167 1170 1176 1179 1182 1182 1167 1155 1140 1122 1104 1092 1083 1080 1092 1101 1104 1107 1110 1110 1113 1122 1134 1146 1164 1179 1194 1209 1224 1239 1257 1272 1290 1305 1317 1317 1320 1311 1299 1287 1269 1251 1236 1221 1206 1194 1185 1173 1161 1152 1137 1119 1101 1095 1086 1083 1089 1092 1089 1083 1077 1065 1053 1050 1047 1047 1047 1047 1044 1038 1029 1023 1017 1008 1002 996 990 978 966 954 942 933 930 930 930 927 924 930 939 951 972 993 1005 1014 1023 1029 1035 1041 1047 1053 1059 1068 1071 1068 1062 1053 1044 1035 1026 1014 1002 990 981 969 960 951 951 948 945 942 939 939 936 936 936 936 936 936 936 936 939 939 939 936 930 924 918 918 918 924 933 939 942 942 942 942 942 936 930 924 915 906 900 900 897 900 903 903 900 900 900 900 903 912 921 924 918 909 900 891 882 882 882 882 882 882 882 882 882 879 879
882 864 864 864 864 864 867 867 867 867 870 870 870 867 864 864 861 861 861 861 861 861 861 861 861 861 861 861 861 861 861 861 861 861 861 861 861 864 864 867 870 870 870 870 867 867 867 864 864 864 864 864 864 864 867 870 873 873 873 873 870 867 864 864 864 864 867 867 867 867 867 867 867 867 864 867 870 873 882 894 897 897 894 888 879 870 870 867 870 873 876 879 885 885 882 879 876 873 867 870 870 870 870 873 873 873 873 873 870 870 873 873 876 879 882 885 885 882 882 879 876 876 876 876 879 879 882 882 882 882 882 882 885 885 888 888 888 885 885 885 885 888 891 897 900 906 915 921 927 936 942 954 969 984 993 999 1005 999 996 993 993 993 1008 1023 1032 1035 1041 1053 1065 1080 1098 1119 1134 1149 1164 1176 1185 1191 1191 1194 1191 1188 1182 1170 1158 1140 1119 1101 1089 1077 1071 1071 1074 1080 1089 1101 1131 1161 1188 1218 1248 1266 1284 1296 1296 1299 1293 1281 1272 1254 1239 1224 1212 1200 1200 1200 1200 1197 1194 1191 1191 1188 1191 1194 1194 1182 1170 1152 1134 1116 1104 1092 1092 1104 1116 1119 1122 1125 1125 1122 1128 1137 1149 1164 1182 1197 1212 1224 1239 1254 1266 1281 1296 1308 1311 1317 1311 1305 1293 1278 1263 1248 1233 1221 1209 1197 1182 1170 1158 1143 1125 1113 1107 1104 1104 1107 1113 1107 1101 1092 1080 1068 1065 1062 1062 1059 1059 1053 1044 1038 1029 1023 1014 1008 1002 993 981 972 960 951 945 945 945 942 936 933 942 954 966 987 1008 1020 1032 1041 1044 1047 1050 1053 1056 1059 1062 1062 1056 1050 1044 1035 1029 1017 1005 993 984 972 963 954 948 948 945 945 945 945 945 945 948 948 948 948 948 948 948 948 945 945 942 936 927 924 927 930 939 954 966 960 954 948 948 945 936 927 918 909 903 900 900 900 903 909 909 909 909 909 903 903 909 915 915 912 906 897 891 882 882 882 885 888 891 891 891 888 885 882
912 864 864 864 864 864 864 864 864 864 867 867 867 867 864 864 864 861 861 858 858 861 861 861 861 861 861 861 861 861 861 861 861 861 861 864 864 867 867 870 870 870 870 867 867 867 867 867 867 864 864 864 864 864 864 867 867 867 867 867 867 864 864 867 867 867 864 864 867 867 867 867 867 867 864 867 867 870 876 885 888 888 885 879 873 870 873 873 876 876 879 879 879 879 876 873 870 870 867 867 870 870 873 876 879 879 882 879 876 873 873 873 876 879 882 882 882 879 879 879 882 882 882 882 879 879 882 882 882 882 882 882 882 885 885 885 885 882 882 882 882 885 888 891 897 903 906 912 918 927 936 948 960 975 981 990 993 987 984 981 975 972 981 993 1002 1014 1023 1044 1065 1086 1107 1128 1143 1155 1164 1170 1179 1182 1182 1182 1176 1173 1167 1155 1143 1125 1104 1083 1074 1062 1056 1059 1059 1065 1074 1083 1113 1140 1170 1206 1239 1257 1275 1287 1290 1290 1287 1278 1269 1257 1242 1230 1224 1215 1215 1215 1218 1215 1215 1212 1209 1206 1209 1209 1209 1197 1185 1167 1146 1128 1113 1101 1101 1113 1125 1131 1137 1140 1137 1131 1134 1143 1152 1170 1185 1200 1215 1227 1239 1251 1260 1272 1284 1296 1305 1317 1314 1308 1302 1287 1275 1260 1248 1233 1221 1209 1194 1179 1164 1149 1137 1125 1122 1122 1122 1125 1131 1122 1110 1101 1092 1086 1083 1080 1080 1074 1068 1062 1053 1044 1035 1026 1017 1011 1005 993 981 969 960 951 948 948 951 954 954 954 966 975 987 1002 1014 1026 1038 1047 1050 1050 1053 1056 1059 1059 1062 1062 1056 1050 1041 1029 1020 1008 999 987 978 966 960 951 948 948 951 951 948 948 951 954 957 960 963 966 963 963 960 957 951 948 945 939 933 930 936 942 951 960 966 960 951 945 939 936 927 915 909 906 903 906 909 912 918 924 930 930 933 927 918 912 912 915 912 906 900 894 888 885 885 888 891 900 909 915 918 921 915 912
942 864 864 864 864 864 864 864 864 864 867 867 867 867 867 867 864 864 861 858 858 858 858 858 861 861 861 861 861 861 858 858 861 861 864 864 867 870 870 870 870 870 867 867 870 870 870 870 867 867 867 864 864 864 864 864 864 864 867 867 864 864 864 867 867 867 867 867 867 867 867 867 867 864 864 864 867 867 873 876 879 879 879 876 873 870 876 879 879 879 879 876 876 873 870 867 867 867 867 870 873 876 879 882 885 885 888 882 879 876 876 873 876 876 879 879 879 879 882 885 885 888 888 885 882 879 879 879 882 882 882 882 882 882 885 885 882 879 879 879 882 882 885 888 891 894 900 906 912 918 927 939 951 966 972 975 978 975 972 963 957 948 951 954 969 990 1011 1041 1071 1098 1119 1140 1152 1158 1164 1167 1170 1173 1170 1170 1164 1158 1152 1140 1131 1113 1095 1074 1059 1047 1038 1038 1041 1047 1056 1065 1092 1116 1149 1185 1221 1242 1260 1275 1278 1284 1281 1275 1266 1257 1248 1239 1233 1227 1224 1227 1227 1230 1233 1233 1230 1227 1227 1230 1224 1212 1197 1179 1158 1137 1125 1113 1110 1116 1125 1134 1146 1152 1149 1149 1149 1155 1158 1176 1191 1206 1218 1233 1239 1245 1251 1257 1266 1278 1293 1311 1314 1317 1317 1305 1293 1281 1266 1254 1242 1230 1218 1200 1185 1173 1158 1146 1143 1143 1140 1143 1143 1134 1119 1110 1104 1098 1095 1092 1089 1080 1074 1065 1053 1044 1035 1026 1017 1011 1005 993 978 963 957 954 954 963 969 978 984 990 999 1008 1017 1026 1032 1038 1041 1044 1047 1050 1053 1059 1065 1065 1065 1062 1053 1047 1035 1026 1014 1005 993 984 972 960 957 954 951 954 957 957 957 957 957 960 966 978 987 990 993 993 981 969 963 954 948 942 936 933 942 948 954 957 963 954 948 939 930 921 915 909 906 909 912 918 924 927 936 945 951 951 951 942 930 921 918 915 909 903 897 894 888 885 888 891 900 912 924 936 948 951 945 942
969 864 864 864 864 864 864 864 867 867 867 867 867 867 870 867 864 864 861 858 858 858 858 858 858 861 861 861 861 858 858 861 861 861 864 864 867 870 870 870 867 867 867 867 870 870 873 870 870 870 867 867 867 864 864 864 864 864 864 864 864 864 867 867 867 867 870 867 867 864 864 864 864 864 864 864 867 867 867 870 870 870 873 873 873 876 879 882 882 879 876 873 870 867 867 867 867 870 870 873 876 879 882 888 888 888 888 885 879 876 876 873 873 876 876 876 879 882 885 891 891 891 891 885 882 879 879 879 882 882 882 882 882 882 885 885 882 879 879 879 879 882 882 885 888 891 897 900 906 915 921 933 942 951 957 960 960 957 954 948 942 936 939 939 957 984 1014 1047 1083 1110 1128 1146 1152 1155 1158 1161 1161 1161 1161 1161 1155 1152 1143 1134 1122 1104 1086 1065 1047 1029 1017 1017 1017 1026 1038 1050 1077 1104 1134 1170 1206 1230 1251 1266 1275 1281 1281 1281 1278 1269 1263 1254 1248 1245 1242 1245 1245 1248 1251 1251 1248 1248 1245 1242 1236 1221 1206 1188 1170 1152 1140 1131 1125 1128 1134 1143 1155 1164 1167 1170 1173 1176 1179 1194 1206 1221 1230 1242 1248 1248 1251 1257 1266 1275 1293 1308 1314 1320 1323 1314 1308 1296 1284 1272 1260 1248 1236 1221 1209 1194 1182 1170 1167 1164 1161 1161 1158 1146 1134 1125 1116 1110 1104 1098 1092 1083 1074 1065 1053 1044 1035 1026 1017 1011 1002 990 975 960 957 957 963 975 987 999 1011 1023 1032 1041 1047 1047 1047 1047 1044 1041 1047 1050 1056 1065 1071 1068 1065 1062 1050 1041 1032 1020 1011 999 990 978 969 957 957 957 957 963 966 969 966 966 969 972 981 999 1017 1026 1029 1029 1008 990 975 963 951 945 939 936 942 948 951 951 954 948 942 933 921 906 906 906 912 921 930 939 942 948 960 972 978 972 966 954 939 927 921 915 909 906 900 894 891 891 891 894 906 921 936 951 969 975 972 969
999 864 864 864 864 864 864 867 870 870 870 867 867 867 867 867 864 864 861 861 858 858 858 858 858 858 858 861 861 861 861 861 861 864 864 864 864 864 864 864 864 864 864 864 867 867 867 867 870 870 867 867 864 864 861 861 861 861 861 861 864 864 864 864 867 867 870 870 870 867 867 867 864 864 864 864 864 867 867 867 867 867 870 870 870 873 876 876 876 876 873 870 867 867 867 867 870 873 876 879 882 885 888 888 888 885 882 879 873 873 873 873 873 873 876 879 882 885 891 894 891 891 888 885 882 879 879 879 879 882 882 882 882 882 885 885 882 879 879 879 879 879 879 882 885 888 891 897 900 909 915 924 933 939 942 942 942 942 939 936 930 927 933 936 957 990 1023 1056 1089 1116 1131 1146 1149 1149 1149 1149 1149 1149 1149 1149 1146 1143 1137 1125 1113 1095 1074 1056 1035 1014 1002 1002 1002 1014 1026 1044 1068 1095 1125 1161 1194 1218 1239 1257 1269 1281 1284 1287 1287 1281 1275 1272 1266 1263 1263 1266 1266 1269 1272 1269 1266 1263 1260 1254 1245 1230 1215 1200 1185 1170 1161 1152 1146 1146 1146 1155 1167 1176 1182 1191 1197 1200 1206 1215 1227 1239 1248 1257 1260 1263 1263 1272 1278 1287 1296 1308 1311 1317 1320 1317 1317 1308 1299 1287 1275 1266 1254 1242 1233 1218 1206 1194 1191 1185 1182 1179 1176 1164 1155 1146 1137 1128 1116 1104 1095 1083 1074 1062 1053 1041 1032 1026 1017 1011 1002 990 978 963 966 969 975 987 999 1011 1026 1038 1047 1059 1062 1059 1056 1053 1050 1047 1053 1056 1062 1068 1074 1068 1062 1056 1047 1035 1026 1014 1005 993 984 975 966 960 960 963 966 972 978 978 975 975 981 990 1005 1029 1053 1062 1065 1062 1041 1017 996 975 957 948 939 936 942 948 951 951 948 939 927 918 906 897 903 912 921 930 939 948 957 966 981 993 999 990 978 966 951 936 927 918 912 906 900 900 903 903 903 903 915 933 951 972 993 1005 1002 1002
1032 864 864 864 864 864 864 867 867 870 870 870 870 870 870 867 864 864 864 861 861 861 858 858 858 858 858 861 861 861 861 864 864 864 864 867 864 864 864 864 864 864 864 864 864 864 864 867 867 867 867 864 864 861 861 861 861 861 861 861 861 864 864 864 864 867 867 867 867 867 867 867 867 867 867 867 867 867 867 867 867 867 867 867 870 870 870 873 873 870 870 867 867 867 870 873 876 879 882 885 885 888 888 888 885 882 879 876 873 870 870 870 873 873 876 882 885 888 891 894 891 885 882 882 879 879 879 879 879 879 879 882 882 882 885 885 882 879 879 879 879 879 879 879 882 885 888 891 897 903 909 915 921 927 927 927 927 927 927 924 921 921 930 942 966 999 1035 1065 1095 1119 1131 1143 1143 1143 1140 1137 1134 1134 1134 1134 1134 1131 1128 1116 1101 1083 1059 1038 1023 1005 996 999 1002 1014 1029 1047 1074 1098 1125 1155 1185 1203 1224 1242 1260 1281 1287 1290 1293 1287 1278 1278 1281 1284 1287 1290 1293 1293 1293 1293 1287 1281 1272 1266 1254 1239 1224 1209 1197 1185 1179 1173 1170 1170 1170 1173 1182 1188 1200 1209 1218 1224 1230 1239 1248 1257 1269 1278 1284 1287 1290 1299 1305 1308 1308 1308 1305 1305 1305 1305 1302 1302 1299 1296 1290 1281 1272 1260 1248 1236 1221 1212 1206 1200 1197 1191 1188 1179 1167 1158 1146 1131 1119 1107 1098 1086 1074 1062 1050 1038 1029 1020 1011 1002 993 984 969 957 960 966 975 990 1002 1017 1032 1044 1053 1062 1071 1074 1077 1077 1077 1074 1074 1074 1074 1074 1074 1068 1059 1050 1041 1029 1020 1008 996 987 978 969 966 963 966 972 978 981 987 987 987 987 1002 1014 1035 1059 1086 1095 1098 1095 1071 1044 1017 990 963 954 942 936 939 945 945 942 942 927 915 903 900 897 906 918 930 942 951 963 978 993 1008 1023 1026 1008 993 975 957 942 930 921 912 906 900 909 918 924 921 918 930 948 966 990 1014 1032 1032 1032
1053 864 864 864 864 864 864 867 867 870 870 870 870 870 870 867 867 864 864 864 861 861 861 861 858 858 858 861 861 861 864 864 867 867 867 867 867 867 867 864 861 861 861 861 864 864 864 864 867 864 864 861 861 861 861 861 861 861 861 861 861 864 864 864 864 864 867 867 867 867 867 867 867 867 867 867 867 867 867 867 867 867 867 867 867 867 867 867 867 867 867 867 867 870 873 879 882 885 888 888 888 885 885 882 882 879 879 876 876 873 873 873 873 870 873 876 882 885 888 888 885 879 879 879 876 876 876 876 879 879 879 882 882 882 885 885 882 879 879 879 879 879 879 879 882 882 885 888 891 897 903 909 912 915 918 918 918 915 915 915 915 921 939 957 981 1014 1044 1068 1092 1110 1122 1131 1134 1131 1131 1128 1125 1122 1122 1122 1122 1122 1119 1107 1095 1074 1050 1026 1011 999 993 999 1005 1020 1035 1056 1080 1104 1128 1149 1173 1191 1209 1230 1254 1278 1287 1290 1290 1287 1281 1278 1281 1284 1290 1293 1296 1299 1302 1302 1299 1293 1284 1275 1263 1248 1233 1221 1212 1203 1197 1194 1194 1194 1194 1197 1200 1203 1215 1227 1236 1242 1251 1260 1269 1278 1287 1299 1302 1308 1311 1314 1317 1314 1308 1299 1296 1293 1293 1290 1290 1293 1293 1296 1290 1287 1278 1269 1257 1248 1236 1224 1218 1215 1209 1203 1200 1188 1179 1167 1152 1137 1125 1113 1101 1089 1077 1065 1053 1038 1029 1017 1005 996 984 975 963 951 954 960 972 990 1008 1023 1038 1050 1059 1068 1077 1086 1095 1098 1104 1104 1095 1089 1083 1080 1074 1062 1053 1044 1035 1023 1014 1002 990 981 972 969 969 969 978 984 990 996 999 1002 1005 1005 1026 1044 1065 1089 1116 1122 1128 1125 1101 1074 1041 1008 972 957 945 936 936 939 936 933 927 915 900 897 897 900 912 927 939 951 963 984 1008 1032 1044 1056 1056 1035 1011 987 963 942 930 918 912 909 906 921 939 951 948 945 954 969 984 1008 1032 1050 1053 1056
1071 861 861 864 864 864 864 864 867 867 867 867 867 867 867 867 867 867 864 864 864 861 861 858 858 858 858 861 864 864 867 870 870 873 870 870 867 867 864 864 861 861 861 861 864 864 864 864 864 864 861 861 861 861 861 861 861 861 861 861 864 864 864 864 864 867 867 867 867 864 864 867 867 867 867 867 867 867 867 867 867 867 867 867 867 870 867 867 867 867 864 867 867 870 876 882 885 888 888 885 882 879 879 879 876 876 876 873 873 873 873 873 873 873 873 876 876 879 882 882 879 879 876 876 876 876 876 876 879 879 882 882 882 882 885 885 882 882 879 879 879 879 879 879 879 882 882 885 888 894 897 900 903 906 909 909 909 909 909 912 912 921 942 966 993 1020 1047 1065 1083 1098 1107 1119 1122 1122 1122 1119 1116 1113 1113 1110 1113 1113 1110 1098 1086 1065 1038 1011 1002 993 990 999 1008 1023 1044 1062 1086 1110 1128 1146 1161 1179 1197 1218 1245 1272 1284 1287 1293 1290 1287 1284 1284 1287 1287 1290 1293 1296 1302 1302 1302 1305 1296 1284 1275 1260 1245 1236 1227 1218 1218 1215 1218 1218 1221 1221 1221 1224 1233 1245 1254 1263 1272 1281 1290 1299 1308 1317 1320 1323 1323 1317 1314 1305 1296 1284 1284 1284 1284 1281 1278 1278 1281 1284 1281 1281 1278 1272 1263 1254 1245 1236 1230 1227 1221 1215 1209 1197 1185 1173 1155 1140 1128 1119 1110 1098 1086 1074 1059 1044 1032 1017 1005 990 978 966 954 945 951 957 972 999 1023 1041 1056 1068 1074 1080 1086 1095 1104 1107 1107 1107 1101 1092 1086 1080 1074 1062 1050 1038 1029 1017 1005 993 984 978 972 972 978 987 999 1011 1023 1029 1038 1038 1035 1035 1050 1068 1089 1110 1131 1140 1143 1143 1116 1092 1059 1020 984 963 945 930 924 918 915 909 906 900 894 894 900 906 921 939 957 978 1002 1023 1047 1071 1077 1083 1080 1056 1032 1002 972 942 930 918 912 915 918 936 960 978 981 987 999 1011 1026 1041 1056 1068 1071 1074
1089 861 861 861 864 864 864 864 867 867 867 867 867 867 867 867 867 864 864 864 861 861 861 858 858 858 861 861 864 867 870 870 873 873 870 870 867 864 864 861 861 861 861 864 864 867 867 864 864 861 861 861 861 861 861 861 861 861 861 861 861 864 864 864 864 864 864 864 864 864 864 864 864 864 867 867 867 867 867 867 867 867 867 870 870 870 870 867 867 867 864 867 867 870 876 882 885 885 885 882 876 876 876 873 873 873 873 870 870 870 870 870 873 873 873 873 873 873 876 876 876 876 879 876 876 879 879 879 879 879 882 882 882 882 885 885 882 882 882 882 882 879 879 879 879 879 882 882 885 888 891 894 897 900 900 903 903 906 906 909 912 921 948 972 999 1023 1047 1059 1071 1083 1092 1104 1107 1107 1110 1110 1107 1107 1104 1101 1101 1104 1101 1086 1071 1050 1023 999 996 990 993 1002 1011 1029 1050 1071 1089 1110 1125 1137 1149 1167 1185 1206 1236 1263 1278 1290 1302 1305 1308 1305 1302 1299 1293 1290 1287 1287 1290 1293 1296 1302 1299 1293 1287 1275 1263 1254 1245 1236 1236 1236 1236 1239 1239 1242 1242 1245 1257 1269 1278 1287 1293 1302 1308 1314 1320 1323 1320 1317 1311 1302 1293 1284 1278 1272 1275 1278 1278 1272 1263 1260 1257 1257 1260 1263 1263 1260 1254 1248 1242 1236 1233 1227 1221 1215 1209 1197 1182 1170 1152 1137 1125 1116 1107 1095 1083 1071 1059 1047 1032 1017 1002 981 963 951 948 942 957 969 987 1011 1035 1053 1068 1080 1086 1089 1095 1098 1104 1104 1107 1104 1098 1092 1083 1077 1068 1056 1044 1032 1023 1011 999 990 981 981 981 990 1005 1020 1035 1050 1062 1071 1083 1080 1074 1068 1080 1095 1110 1128 1149 1155 1155 1152 1125 1098 1065 1026 987 966 945 927 915 906 900 897 894 897 903 912 924 939 954 972 990 1017 1044 1068 1089 1110 1113 1113 1104 1077 1053 1020 981 948 933 921 918 927 936 957 981 1002 1014 1029 1041 1053 1068 1074 1083 1089 1089 1092
1110 861 861 861 864 864 864 864 867 867 867 867 867 867 867 867 864 864 861 861 861 861 861 861 858 861 861 864 867 870 873 873 873 870 867 867 864 861 861 861 861 861 864 864 867 867 867 864 861 861 861 861 861 861 861 861 861 861 861 861 861 861 861 861 861 861 861 861 861 864 864 864 864 864 864 864 867 867 867 867 867 867 867 867 867 870 867 867 867 864 864 864 867 867 870 873 876 876 879 876 873 873 873 873 873 870 870 870 870 870 870 870 870 873 873 873 873 873 873 873 876 876 876 876 879 879 879 879 879 879 879 879 882 882 885 888 885 885 885 885 885 885 882 879 879 879 882 882 885 885 888 891 894 894 897 897 900 903 906 909 915 924 951 978 999 1017 1038 1047 1059 1068 1077 1086 1092 1095 1098 1098 1095 1095 1092 1086 1089 1092 1089 1071 1056 1035 1011 990 987 987 990 1002 1011 1032 1053 1071 1086 1098 1110 1122 1134 1155 1176 1200 1227 1251 1272 1287 1299 1305 1308 1311 1305 1299 1296 1293 1290 1290 1293 1296 1296 1299 1293 1290 1287 1284 1278 1272 1266 1260 1257 1254 1254 1257 1260 1260 1263 1266 1278 1287 1296 1299 1305 1311 1317 1323 1323 1323 1317 1308 1299 1284 1272 1266 1263 1260 1266 1272 1272 1266 1260 1254 1248 1242 1245 1248 1251 1248 1245 1242 1236 1233 1230 1224 1218 1212 1206 1194 1179 1164 1149 1134 1122 1113 1104 1092 1080 1068 1056 1044 1029 1011 993 972 951 942 942 945 963 981 1002 1023 1044 1062 1074 1089 1092 1095 1098 1101 1101 1104 1104 1101 1095 1089 1080 1071 1065 1053 1038 1026 1017 1005 996 987 981 990 996 1014 1038 1065 1080 1095 1110 1119 1128 1125 1116 1110 1113 1116 1128 1146 1164 1167 1167 1158 1128 1098 1062 1026 987 966 942 924 912 900 894 894 894 909 927 948 975 1005 1020 1032 1047 1068 1092 1110 1128 1149 1146 1140 1128 1101 1071 1038 999 966 948 933 930 945 960 981 1002 1023 1041 1056 1071 1083 1095 1101 1107 1113 1110 1110
1128 861 861 861 861 864 864 864 864 867 867 867 867 867 867 867 864 864 861 861 861 861 861 861 864 864 864 867 867 870 870 870 870 867 864 864 861 861 861 861 861 861 861 861 861 861 861 861 861 861 861 861 861 861 861 861 861 861 861 861 861 861 861 864 864 864 861 861 861 861 861 861 864 864 864 864 864 864 864 867 867 867 867 867 867 867 864 864 864 864 864 864 864 864 867 867 870 870 870 870 870 870 870 873 870 870 870 870 870 870 870 873 873 873 873 873 873 873 873 873 876 876 876 876 876 879 879 879 879 879 879 879 882 882 885 888 888 888 888 888 888 888 885 885 882 879 882 882 882 885 888 888 891 891 894 894 897 900 903 909 915 927 948 972 990 1008 1026 1035 1044 1056 1062 1071 1077 1083 1086 1086 1086 1083 1080 1077 1077 1077 1074 1056 1038 1020 999 978 981 984 990 1002 1014 1032 1050 1068 1077 1086 1095 1110 1122 1146 1167 1191 1218 1242 1260 1275 1290 1296 1302 1305 1299 1296 1293 1293 1293 1296 1302 1302 1296 1293 1290 1284 1281 1287 1293 1290 1287 1287 1281 1278 1275 1278 1278 1281 1284 1287 1293 1302 1305 1308 1308 1317 1323 1326 1323 1317 1308 1296 1284 1269 1254 1248 1248 1248 1254 1263 1269 1266 1263 1260 1254 1248 1245 1245 1242 1236 1233 1227 1224 1224 1221 1218 1215 1206 1200 1188 1173 1161 1149 1134 1125 1116 1107 1092 1080 1065 1053 1041 1020 999 981 963 945 939 942 945 966 984 1005 1026 1047 1059 1071 1080 1083 1086 1092 1101 1110 1110 1107 1104 1092 1083 1074 1065 1056 1044 1032 1020 1011 1002 996 990 990 1005 1023 1044 1068 1095 1107 1122 1134 1146 1158 1155 1146 1137 1137 1137 1143 1158 1173 1173 1167 1155 1116 1080 1047 1014 984 963 945 927 915 903 906 912 921 951 984 1014 1044 1074 1086 1095 1107 1122 1140 1155 1170 1185 1176 1167 1149 1119 1089 1059 1029 1002 981 963 960 972 984 1002 1020 1038 1056 1071 1089 1101 1116 1119 1125 1128 1128 1128
1140 861 861 861 861 861 861 864 864 867 867 870 870 870 870 867 867 864 861 861 861 861 861 864 867 867 867 867 867 870 870 870 867 864 864 861 861 861 861 861 861 861 861 861 861 861 861 861 861 861 861 861 861 861 861 861 861 861 861 861 861 861 861 864 864 864 864 861 861 861 861 861 861 861 864 864 864 864 864 864 864 864 867 864 864 864 864 864 864 864 864 864 864 864 864 864 864 864 864 864 867 867 870 870 870 870 870 870 870 873 873 873 873 873 873 873 873 873 873 873 876 876 876 876 876 879 879 879 879 879 879 882 882 882 885 885 888 888 888 888 891 891 891 891 885 882 882 882 882 882 885 885 888 888 891 891 894 897 900 909 918 927 942 954 972 990 1008 1020 1032 1044 1050 1056 1065 1074 1080 1080 1080 1077 1074 1068 1068 1068 1062 1041 1023 1005 987 972 975 978 987 999 1014 1029 1044 1059 1068 1074 1086 1101 1116 1140 1167 1191 1212 1233 1248 1260 1275 1281 1287 1287 1284 1281 1281 1281 1281 1284 1287 1290 1290 1293 1293 1296 1299 1305 1311 1311 1311 1311 1305 1299 1296 1296 1296 1299 1302 1305 1308 1311 1314 1320 1323 1329 1335 1335 1326 1317 1305 1290 1275 1260 1245 1236 1236 1233 1239 1242 1245 1242 1239 1236 1230 1227 1224 1224 1221 1218 1215 1215 1212 1212 1209 1206 1200 1191 1185 1173 1164 1152 1140 1131 1119 1110 1101 1089 1074 1059 1044 1029 1008 987 966 954 942 939 942 948 966 987 1008 1026 1047 1056 1065 1071 1080 1086 1095 1107 1116 1116 1113 1110 1098 1089 1077 1062 1047 1038 1026 1014 1005 996 996 993 996 1017 1038 1062 1089 1116 1131 1149 1164 1176 1188 1185 1173 1164 1161 1158 1164 1176 1188 1179 1164 1146 1110 1071 1038 1011 984 972 960 948 942 933 939 954 969 1011 1050 1086 1116 1146 1152 1155 1161 1173 1185 1197 1209 1221 1203 1188 1167 1137 1107 1080 1056 1032 1011 993 987 993 1002 1017 1032 1050 1068 1086 1104 1119 1134 1134 1137 1140 1140 1140
1143 861 861 861 861 861 861 864 864 867 867 870 870 870 870 867 867 864 861 861 861 861 864 864 867 867 867 867 867 870 870 867 864 864 864 861 861 861 861 861 861 861 861 861 861 861 861 861 861 861 861 861 861 861 861 861 861 861 861 861 861 861 861 864 864 864 864 864 861 861 861 861 861 861 861 861 864 864 864 864 864 864 864 864 864 867 867 867 864 864 864 864 864 864 864 864 864 864 864 864 864 867 867 867 867 867 867 870 870 873 873 873 876 876 876 873 873 873 873 873 876 876 876 876 879 879 879 879 879 879 879 882 882 882 885 885 888 888 888 888 888 891 894 894 891 891 888 885 882 885 885 885 888 888 891 891 894 897 897 906 915 921 930 936 951 972 993 1005 1020 1032 1038 1044 1053 1062 1071 1071 1074 1071 1068 1062 1056 1053 1044 1026 1005 993 981 972 975 978 984 993 1002 1014 1029 1044 1059 1071 1089 1107 1125 1143 1164 1185 1200 1218 1230 1242 1254 1263 1269 1272 1269 1266 1266 1266 1269 1272 1275 1278 1281 1287 1293 1302 1308 1320 1329 1332 1332 1332 1326 1320 1317 1314 1311 1314 1317 1320 1320 1320 1326 1329 1335 1338 1341 1338 1326 1314 1299 1284 1269 1254 1242 1233 1230 1227 1227 1224 1224 1221 1218 1215 1209 1206 1203 1203 1200 1200 1197 1197 1197 1200 1194 1191 1185 1176 1167 1161 1152 1143 1131 1122 1113 1104 1092 1080 1065 1050 1035 1017 996 972 954 948 939 942 945 951 972 993 1011 1029 1044 1053 1059 1065 1074 1086 1098 1110 1122 1125 1125 1122 1113 1101 1086 1065 1044 1032 1020 1008 1002 993 996 999 1005 1026 1050 1074 1101 1131 1152 1173 1191 1203 1212 1209 1200 1191 1185 1182 1185 1194 1203 1185 1161 1137 1104 1071 1041 1017 990 990 990 990 990 990 1005 1023 1044 1086 1131 1164 1188 1212 1209 1203 1203 1215 1224 1233 1239 1245 1224 1203 1179 1152 1125 1098 1074 1047 1026 1002 996 1002 1008 1026 1044 1062 1086 1107 1125 1140 1152 1149 1146 1146 1143 1143
1143 861 861 861 861 861 861 864 864 867 867 867 870 867 867 867 864 864 861 861 864 864 867 867 867 867 867 867 867 867 864 864 864 864 864 864 864 864 864 864 864 864 861 861 861 861 861 861 861 861 861 861 861 861 861 861 861 861 861 861 861 861 861 861 864 864 864 864 861 861 861 861 861 861 861 861 861 861 864 864 864 864 867 867 864 864 864 864 864 864 864 864 864 864 864 864 864 864 864 867 867 867 867 867 867 867 870 870 870 870 873 873 873 873 876 873 873 873 873 876 876 876 879 879 882 882 882 882 882 879 882 882 882 882 885 885 888 888 888 885 885 888 894 894 894 894 891 888 885 885 885 885 885 888 888 891 891 894 897 903 909 915 918 924 936 954 972 990 1008 1020 1026 1029 1041 1050 1059 1062 1065 1065 1059 1053 1044 1038 1026 1008 990 981 975 969 972 978 981 984 990 1002 1017 1032 1053 1074 1092 1113 1134 1149 1164 1176 1188 1203 1215 1224 1236 1242 1251 1254 1251 1251 1251 1251 1251 1257 1260 1263 1269 1275 1290 1302 1317 1329 1341 1347 1347 1347 1344 1341 1338 1332 1329 1329 1329 1332 1329 1329 1332 1338 1344 1347 1347 1341 1326 1311 1296 1281 1266 1254 1245 1236 1230 1227 1218 1212 1206 1203 1200 1197 1194 1191 1188 1185 1182 1179 1176 1176 1179 1179 1176 1173 1167 1161 1155 1146 1140 1131 1119 1110 1098 1089 1077 1065 1056 1038 1020 999 978 960 945 945 945 948 957 966 984 1005 1023 1038 1050 1056 1059 1062 1074 1086 1098 1113 1125 1134 1143 1146 1137 1131 1110 1083 1056 1038 1017 1005 1002 996 999 1002 1008 1029 1050 1074 1101 1131 1161 1191 1215 1227 1239 1236 1224 1215 1209 1203 1200 1200 1203 1182 1158 1134 1107 1083 1059 1035 1011 1017 1023 1029 1038 1050 1068 1089 1113 1149 1185 1209 1227 1245 1242 1236 1236 1242 1251 1257 1260 1263 1239 1215 1191 1167 1143 1116 1086 1059 1032 1005 996 1002 1011 1032 1053 1077 1101 1122 1137 1149 1158 1152 1146 1143 1143 1143
1140 861 861 861 861 861 861 864 864 864 867 867 867 867 867 867 864 864 864 864 864 867 867 867 867 867 864 864 864 864 864 864 864 864 864 864 864 864 864 864 864 864 864 861 861 861 861 861 861 861 861 861 861 861 861 861 861 861 861 861 861 861 861 861 861 861 861 861 861 861 861 861 861 861 861 861 861 861 861 864 864 864 867 864 864 864 864 864 864 864 864 864 864 864 864 864 867 867 867 867 870 870 867 867 867 870 870 870 870 870 870 870 870 873 873 873 876 876 876 876 879 879 882 882 885 885 882 882 882 882 882 882 882 885 885 885 888 888 885 885 885 885 888 891 894 897 894 888 888 885 885 885 885 888 888 888 888 891 894 897 903 906 909 915 924 939 954 972 987 1002 1008 1017 1026 1035 1044 1047 1050 1050 1044 1038 1026 1017 1005 990 975 969 966 963 969 975 978 981 981 996 1014 1032 1053 1077 1098 1119 1140 1152 1161 1170 1179 1188 1200 1209 1221 1227 1236 1236 1233 1227 1224 1221 1221 1227 1233 1242 1248 1257 1272 1290 1308 1323 1338 1344 1347 1350 1350 1350 1347 1341 1338 1335 1335 1332 1329 1326 1329 1338 1344 1344 1347 1341 1323 1308 1293 1278 1266 1254 1245 1239 1233 1227 1215 1203 1194 1188 1182 1179 1176 1176 1170 1167 1164 1161 1155 1158 1158 1161 1158 1158 1155 1149 1143 1137 1128 1119 1110 1098 1089 1077 1065 1053 1041 1026 1002 981 969 954 945 951 960 966 975 984 996 1011 1023 1035 1047 1053 1059 1062 1071 1080 1092 1104 1119 1137 1152 1161 1155 1149 1128 1101 1074 1050 1026 1011 1014 1014 1014 1017 1020 1035 1053 1077 1110 1143 1176 1206 1233 1248 1263 1260 1248 1239 1230 1221 1215 1206 1200 1179 1158 1134 1113 1095 1074 1050 1029 1038 1047 1059 1074 1092 1113 1140 1164 1194 1221 1242 1254 1269 1269 1269 1269 1275 1281 1281 1278 1275 1251 1227 1206 1182 1158 1131 1101 1071 1038 1005 996 1005 1014 1038 1065 1089 1113 1137 1149 1155 1158 1152 1143 1140 1140 1140
1143 861 861 861 861 861 861 864 864 864 867 867 867 867 867 867 867 867 867 867 867 867 867 867 864 864 861 861 861 861 864 864 864 864 864 864 864 864 864 864 864 864 864 864 861 861 861 861 861 861 861 861 861 861 861 861 861 861 861 861 861 861 861 861 861 861 861 861 861 861 861 861 861 861 861 861 861 861 864 864 864 864 864 864 861 861 861 861 864 864 864 864 864 864 864 867 867 867 867 867 867 867 870 870 873 873 876 876 873 873 873 870 870 870 870 873 879 879 879 879 882 882 882 882 882 879 879 876 879 879 879 879 882 885 885 888 888 888 888 885 885 888 891 891 894 897 894 894 894 891 891 888 888 888 888 888 888 888 891 894 897 900 903 909 918 930 942 957 972 984 996 1005 1014 1026 1032 1035 1035 1032 1023 1017 1005 996 987 975 966 960 960 960 966 975 978 978 981 996 1014 1032 1059 1083 1104 1122 1140 1146 1152 1158 1164 1170 1179 1191 1200 1209 1215 1218 1209 1203 1197 1194 1191 1200 1209 1221 1233 1242 1263 1281 1299 1317 1332 1338 1344 1350 1350 1350 1350 1347 1344 1341 1341 1338 1335 1332 1335 1341 1347 1347 1347 1338 1320 1302 1287 1272 1257 1248 1236 1230 1224 1221 1209 1194 1182 1173 1161 1158 1158 1155 1152 1152 1146 1143 1137 1137 1140 1143 1143 1146 1143 1137 1131 1125 1116 1110 1098 1089 1077 1065 1050 1038 1026 1008 987 966 960 957 954 969 981 990 996 1002 1008 1011 1020 1032 1044 1050 1059 1065 1068 1071 1080 1095 1110 1134 1155 1170 1167 1161 1143 1119 1095 1068 1041 1029 1035 1041 1038 1035 1032 1047 1062 1089 1125 1164 1194 1227 1251 1269 1284 1281 1272 1260 1251 1239 1227 1212 1197 1179 1161 1140 1122 1101 1083 1065 1044 1053 1062 1074 1092 1107 1131 1155 1182 1209 1236 1257 1272 1284 1296 1308 1314 1317 1317 1311 1296 1284 1263 1239 1218 1194 1170 1140 1110 1080 1050 1020 1008 1017 1026 1050 1077 1101 1122 1146 1158 1164 1167 1158 1146 1140 1140 1143
1152 864 864 861 861 861 861 861 864 864 864 867 867 867 867 867 867 867 867 867 867 867 867 867 864 864 864 861 861 861 861 861 861 861 864 864 864 861 861 861 861 861 861 861 864 864 864 861 861 861 861 861 861 861 861 861 861 861 861 861 861 861 861 861 861 861 861 861 861 861 861 861 861 861 861 861 861 861 861 864 864 864 861 861 861 861 861 861 861 861 864 864 864 864 864 864 864 867 867 867 867 867 867 870 870 873 876 876 876 876 873 873 873 876 876 882 885 885 882 882 882 879 879 876 876 876 876 876 876 876 879 879 882 885 888 891 891 891 891 888 885 888 891 894 894 897 897 897 897 897 894 894 891 888 888 888 888 888 888 891 894 897 900 903 912 924 933 945 957 969 984 996 1005 1014 1023 1020 1020 1014 1005 993 984 975 969 963 957 957 957 960 966 975 978 981 984 999 1017 1038 1062 1089 1107 1119 1134 1137 1143 1146 1149 1149 1158 1170 1179 1188 1194 1194 1188 1179 1173 1167 1167 1179 1191 1203 1218 1233 1254 1275 1293 1308 1323 1332 1341 1347 1347 1350 1347 1347 1347 1347 1350 1350 1350 1347 1350 1353 1353 1353 1350 1341 1320 1299 1278 1260 1242 1227 1212 1206 1206 1203 1194 1185 1173 1161 1146 1140 1137 1134 1134 1134 1131 1128 1122 1122 1122 1122 1125 1128 1125 1122 1116 1113 1107 1098 1086 1074 1062 1050 1038 1023 1008 993 975 960 966 972 981 996 1008 1017 1023 1029 1026 1023 1026 1035 1044 1053 1065 1074 1077 1077 1083 1095 1107 1134 1161 1179 1173 1167 1152 1134 1113 1089 1065 1050 1050 1050 1047 1044 1041 1053 1065 1092 1131 1170 1200 1227 1254 1275 1296 1299 1296 1290 1275 1260 1242 1221 1200 1182 1167 1146 1119 1092 1074 1059 1044 1059 1077 1092 1107 1122 1143 1164 1185 1212 1239 1263 1278 1296 1311 1323 1332 1329 1329 1320 1302 1287 1266 1242 1221 1197 1173 1146 1116 1086 1056 1026 1017 1026 1038 1062 1086 1110 1134 1158 1173 1182 1188 1176 1164 1158 1155 1155
1170 864 861 861 861 861 861 861 861 864 864 864 867 867 867 867 867 867 867 867 867 867 867 867 864 864 864 861 861 861 861 861 861 861 861 861 861 861 861 861 861 861 861 861 861 864 864 864 864 864 861 861 861 861 861 861 861 861 861 861 861 861 861 861 861 861 861 861 861 861 861 861 861 861 861 861 861 861 861 861 861 861 861 861 861 861 861 861 861 861 861 861 861 861 861 864 864 864 864 864 867 867 867 867 870 870 873 873 876 876 876 876 879 882 885 888 894 891 888 885 879 876 873 870 870 870 873 873 876 879 879 879 879 885 891 894 897 900 897 891 888 891 894 897 897 897 897 900 900 900 897 897 894 891 891 888 888 888 888 891 891 894 897 900 906 915 924 936 945 960 975 990 999 1005 1008 1005 1002 996 984 975 969 960 954 954 951 954 957 960 966 975 981 981 984 1002 1026 1047 1068 1089 1104 1113 1122 1125 1128 1131 1131 1134 1143 1152 1161 1167 1173 1176 1167 1161 1155 1149 1149 1164 1179 1194 1212 1230 1248 1266 1284 1299 1317 1326 1332 1338 1338 1338 1338 1341 1341 1347 1353 1356 1359 1362 1359 1359 1359 1356 1353 1344 1320 1299 1278 1257 1239 1221 1203 1194 1188 1185 1185 1182 1176 1164 1149 1140 1131 1125 1122 1122 1119 1113 1110 1107 1107 1104 1107 1107 1104 1101 1095 1089 1080 1071 1059 1047 1035 1020 1008 996 984 975 972 966 978 993 1005 1014 1026 1032 1035 1038 1032 1026 1029 1035 1044 1056 1068 1077 1080 1083 1092 1101 1113 1137 1161 1179 1173 1170 1155 1137 1119 1101 1080 1068 1068 1065 1065 1059 1059 1068 1077 1101 1137 1173 1197 1224 1248 1275 1299 1308 1308 1308 1290 1272 1251 1230 1209 1188 1170 1146 1113 1077 1059 1053 1044 1068 1089 1110 1125 1143 1158 1173 1191 1218 1245 1266 1287 1308 1320 1332 1341 1338 1335 1323 1305 1290 1266 1245 1221 1197 1173 1146 1116 1089 1059 1032 1026 1038 1050 1074 1098 1122 1146 1173 1188 1203 1215 1203 1191 1182 1176 1173
1194 861 861 861 861 861 861 861 861 861 864 864 864 867 867 867 867 867 867 867 867 867 867 864 864 864 864 861 864 864 864 864 861 861 861 861 861 861 864 861 861 861 861 861 861 864 864 864 864 864 864 861 861 861 861 861 861 861 861 861 861 861 861 861 861 861 861 861 861 861 861 864 864 864 861 861 861 861 861 861 861 861 861 861 861 861 861 861 861 861 861 861 861 861 861 861 864 864 864 864 864 864 864 867 867 867 867 870 870 870 873 873 876 876 879 882 885 885 885 882 882 879 879 879 879 879 876 876 879 879 879 882 882 888 894 900 909 915 912 906 903 903 900 900 900 897 897 897 897 894 891 891 888 888 888 888 888 888 888 891 891 891 894 897 903 909 915 924 930 942 957 969 978 984 987 981 975 969 963 954 951 948 948 948 951 954 957 960 966 975 978 981 984 1002 1026 1050 1068 1083 1095 1101 1110 1110 1110 1113 1116 1122 1128 1137 1146 1152 1155 1155 1149 1146 1140 1137 1137 1152 1167 1185 1203 1221 1239 1260 1278 1293 1308 1317 1323 1329 1329 1329 1332 1335 1338 1344 1353 1359 1365 1368 1365 1362 1359 1353 1350 1341 1320 1299 1278 1260 1242 1221 1200 1185 1176 1164 1167 1170 1170 1158 1146 1137 1125 1113 1110 1107 1104 1101 1095 1092 1089 1086 1083 1080 1077 1074 1068 1059 1050 1038 1026 1014 1002 990 978 969 963 963 972 981 996 1011 1023 1029 1035 1038 1035 1035 1032 1026 1026 1035 1041 1050 1062 1074 1083 1092 1101 1113 1122 1140 1161 1173 1170 1164 1152 1137 1119 1104 1089 1083 1086 1092 1089 1086 1083 1089 1092 1110 1140 1167 1191 1215 1239 1263 1287 1299 1308 1311 1293 1272 1257 1242 1227 1200 1170 1137 1098 1062 1047 1050 1050 1074 1101 1125 1146 1167 1185 1197 1215 1233 1254 1275 1296 1320 1332 1341 1347 1344 1341 1329 1311 1296 1272 1248 1224 1194 1164 1134 1107 1080 1059 1041 1041 1053 1065 1089 1113 1137 1161 1185 1203 1221 1233 1230 1224 1218 1203 1197
1224 861 861 861 861 861 861 861 861 861 864 867 867 867 867 867 867 867 867 867 867 864 864 864 861 861 861 861 864 864 867 867 867 867 864 864 864 864 864 867 870 867 867 864 864 864 864 864 864 864 864 864 861 861 861 861 861 861 861 861 861 861 861 861 861 861 861 861 861 861 861 861 864 864 864 861 861 861 861 861 861 861 861 861 861 861 861 861 861 861 861 861 861 864 861 861 861 861 861 864 864 864 864 864 867 867 867 867 870 870 870 870 873 873 876 876 879 879 882 882 882 882 885 885 885 885 885 885 882 882 882 882 885 891 897 906 918 930 927 921 918 912 906 903 900 900 900 900 897 891 888 888 888 888 888 891 891 891 891 891 891 891 894 897 900 906 909 915 918 927 936 948 954 960 963 957 951 945 939 933 936 939 942 945 948 951 954 957 963 969 975 978 981 999 1023 1044 1059 1074 1083 1089 1095 1095 1095 1098 1104 1107 1116 1125 1131 1134 1137 1137 1134 1131 1128 1125 1128 1140 1155 1173 1191 1209 1230 1251 1269 1287 1305 1311 1317 1320 1323 1326 1326 1329 1332 1341 1350 1356 1362 1368 1365 1359 1353 1344 1338 1326 1311 1296 1281 1269 1254 1230 1206 1182 1164 1146 1143 1140 1137 1131 1125 1116 1104 1095 1089 1083 1080 1080 1077 1071 1065 1056 1053 1050 1044 1035 1029 1017 1008 996 990 981 978 972 969 966 963 972 987 1002 1017 1032 1041 1044 1044 1041 1032 1023 1020 1017 1017 1017 1017 1026 1038 1047 1062 1074 1089 1101 1113 1122 1134 1140 1134 1131 1122 1110 1098 1089 1080 1077 1083 1092 1089 1086 1083 1086 1086 1101 1125 1149 1173 1197 1221 1245 1269 1281 1287 1293 1281 1272 1260 1251 1242 1212 1176 1140 1107 1074 1062 1065 1065 1092 1116 1143 1164 1188 1203 1221 1236 1254 1269 1287 1308 1326 1338 1347 1353 1347 1341 1326 1308 1290 1266 1242 1215 1182 1152 1125 1098 1074 1062 1053 1053 1062 1071 1095 1119 1143 1167 1194 1215 1233 1248 1251 1254 1248 1233 1224
1254 861 861 861 861 861 861 861 861 861 864 867 870 870 870 870 867 867 867 867 867 864 864 861 861 861 861 861 861 864 864 864 864 864 864 864 864 864 867 867 870 870 867 864 864 864 864 864 864 864 864 864 861 861 861 861 861 861 861 861 861 861 861 861 861 861 861 861 861 861 861 861 861 861 864 861 861 861 861 861 861 861 861 861 861 861 861 861 861 861 861 861 864 864 864 861 861 861 861 861 864 864 864 867 867 867 870 870 870 870 870 870 873 873 873 876 876 879 879 882 882 885 888 888 891 891 894 894 891 888 888 888 888 894 903 912 924 939 939 939 933 924 912 906 903 900 900 900 900 894 891 888 888 888 891 897 897 900 903 897 894 894 894 897 900 906 909 912 915 918 921 927 930 933 936 933 930 927 927 927 933 939 942 945 945 945 945 945 951 957 963 969 975 990 1008 1023 1041 1056 1068 1074 1080 1080 1083 1083 1086 1089 1098 1107 1116 1116 1119 1116 1110 1107 1107 1107 1113 1128 1146 1164 1188 1212 1233 1254 1272 1284 1299 1305 1308 1314 1314 1317 1317 1323 1326 1332 1341 1347 1356 1365 1362 1353 1344 1332 1320 1308 1296 1284 1275 1269 1257 1236 1212 1188 1164 1137 1128 1119 1113 1107 1104 1098 1089 1080 1071 1065 1059 1056 1050 1044 1035 1029 1029 1026 1023 1014 1008 999 993 987 987 987 987 987 987 984 981 987 1005 1026 1038 1050 1059 1056 1053 1047 1035 1023 1023 1020 1017 1008 1002 1008 1017 1029 1044 1059 1074 1089 1104 1113 1119 1122 1119 1116 1113 1104 1095 1083 1071 1068 1077 1086 1086 1086 1083 1083 1080 1089 1110 1128 1152 1176 1200 1224 1245 1257 1266 1272 1272 1269 1266 1257 1251 1218 1182 1146 1116 1089 1077 1080 1080 1107 1131 1155 1176 1200 1221 1239 1257 1272 1287 1305 1320 1335 1344 1353 1356 1350 1341 1326 1302 1281 1257 1230 1203 1173 1143 1119 1095 1074 1071 1065 1068 1071 1077 1098 1119 1143 1170 1197 1221 1242 1260 1269 1275 1275 1260 1254
1266 861 861 861 861 861 861 861 861 864 867 870 870 870 870 870 870 870 867 867 867 864 861 861 861 861 861 861 861 861 861 861 861 861 861 861 864 864 867 867 867 867 867 867 864 864 864 864 864 864 864 864 864 864 864 861 861 861 861 861 861 861 861 861 861 861 861 861 861 861 861 861 861 861 861 861 864 864 864 861 861 861 861 861 861 861 861 861 861 861 861 861 861 861 861 861 861 861 861 864 864 867 867 870 873 873 873 873 873 873 873 873 873 873 873 876 876 876 876 879 879 882 885 885 888 891 891 894 891 891 894 894 897 900 903 909 918 924 924 924 921 918 912 906 903 900 903 906 906 903 900 897 894 894 900 903 909 912 915 912 906 903 900 900 903 906 909 912 912 915 915 918 918 921 921 921 921 921 921 921 924 930 936 936 939 939 936 936 942 948 954 960 969 978 990 1002 1020 1038 1050 1059 1068 1071 1071 1074 1074 1074 1083 1092 1101 1101 1101 1098 1092 1086 1089 1095 1104 1125 1143 1167 1194 1218 1236 1257 1272 1281 1290 1293 1299 1302 1302 1302 1305 1308 1314 1323 1329 1338 1347 1356 1356 1347 1341 1326 1314 1299 1287 1275 1269 1263 1254 1233 1215 1194 1167 1140 1125 1113 1104 1101 1098 1092 1083 1077 1065 1053 1044 1038 1032 1023 1014 1011 1011 1014 1011 1008 1002 996 993 993 999 1008 1011 1011 1014 1008 1002 1008 1026 1044 1056 1065 1071 1068 1062 1053 1044 1032 1032 1029 1023 1008 993 996 1002 1011 1029 1044 1062 1080 1098 1107 1113 1119 1119 1122 1119 1116 1110 1089 1068 1062 1068 1074 1077 1083 1086 1080 1074 1077 1086 1098 1125 1155 1179 1200 1221 1233 1242 1254 1260 1269 1266 1257 1248 1218 1182 1152 1125 1095 1086 1086 1086 1110 1134 1158 1182 1203 1224 1248 1266 1284 1302 1317 1332 1347 1356 1362 1368 1356 1347 1329 1302 1278 1251 1224 1197 1170 1143 1125 1104 1089 1089 1092 1092 1092 1092 1107 1125 1143 1170 1200 1221 1242 1263 1272 1284 1284 1275 1269
1275 864 864 864 861 861 861 861 864 864 867 867 870 870 870 867 867 867 864 864 864 861 861 861 861 861 861 861 861 861 861 861 861 861 864 864 864 864 864 864 864 864 864 864 864 864 864 864 864 864 864 864 864 864 861 861 861 861 861 861 861 861 861 861 861 861 861 861 861 861 861 861 861 861 861 861 864 864 864 864 864 864 861 861 861 861 861 861 861 861 861 861 861 861 861 861 861 861 861 864 867 867 870 873 873 873 873 873 873 873 873 873 873 873 873 873 873 873 873 873 876 876 879 879 882 885 885 888 888 888 891 894 897 900 906 909 912 915 915 915 915 915 912 912 909 906 909 909 909 909 909 906 903 903 909 912 918 921 927 921 918 915 909 903 903 906 909 909 912 912 912 912 912 912 915 915 915 915 915 915 918 921 924 927 930 930 930 930 936 939 945 954 960 966 972 981 999 1017 1032 1044 1056 1059 1065 1065 1065 1062 1068 1077 1086 1086 1086 1080 1074 1068 1074 1086 1098 1125 1149 1176 1203 1230 1245 1260 1269 1275 1278 1281 1281 1281 1281 1278 1281 1290 1299 1308 1317 1326 1338 1347 1347 1344 1338 1329 1317 1305 1287 1269 1260 1251 1239 1224 1209 1191 1173 1155 1146 1137 1131 1131 1131 1119 1107 1092 1077 1059 1047 1041 1035 1029 1026 1020 1023 1026 1026 1026 1026 1017 1011 1011 1020 1032 1038 1041 1044 1032 1023 1023 1035 1044 1053 1062 1068 1065 1065 1059 1050 1041 1038 1035 1026 1017 1005 1002 1002 1002 1017 1029 1047 1068 1089 1101 1113 1122 1125 1131 1125 1119 1110 1089 1068 1056 1059 1059 1071 1080 1089 1089 1086 1086 1089 1092 1122 1152 1176 1197 1215 1230 1245 1257 1263 1269 1263 1251 1239 1212 1182 1152 1128 1104 1092 1089 1086 1104 1122 1143 1170 1194 1218 1239 1263 1284 1305 1326 1341 1359 1368 1380 1383 1374 1362 1341 1314 1287 1260 1230 1206 1179 1155 1137 1122 1110 1113 1119 1119 1119 1119 1125 1134 1149 1176 1203 1227 1248 1269 1281 1293 1293 1281 1275
1281 867 867 864 864 861 861 861 864 864 867 870 870 867 867 867 867 864 864 864 864 864 864 861 861 861 861 861 861 861 861 861 861 861 864 864 864 864 861 861 861 861 861 864 864 864 864 864 861 861 861 861 861 861 861 861 861 861 861 861 861 861 861 861 861 861 861 861 861 861 861 861 861 861 861 861 861 864 864 867 864 864 861 861 861 861 861 861 861 861 861 861 861 861 861 861 861 861 864 867 867 870 873 876 876 876 873 873 870 870 873 873 873 873 873 870 870 870 870 867 870 870 870 870 873 873 873 876 876 879 882 885 891 897 903 909 909 912 915 915 915 918 918 918 918 915 918 918 918 918 918 918 918 918 921 921 921 924 924 924 924 921 915 912 909 909 909 909 912 912 912 912 912 912 912 912 912 912 912 912 915 915 918 921 921 924 924 927 927 930 933 942 951 957 960 969 981 996 1011 1026 1041 1047 1053 1056 1053 1053 1059 1065 1071 1074 1074 1071 1065 1062 1077 1095 1113 1140 1170 1194 1218 1242 1251 1260 1263 1263 1260 1260 1260 1260 1260 1260 1263 1275 1284 1299 1311 1326 1335 1344 1344 1341 1335 1326 1314 1299 1281 1260 1248 1236 1224 1209 1197 1185 1176 1167 1164 1161 1155 1152 1149 1134 1116 1098 1080 1065 1056 1056 1059 1056 1050 1050 1050 1050 1047 1047 1047 1044 1038 1041 1050 1062 1065 1065 1065 1053 1038 1035 1041 1047 1053 1059 1065 1068 1071 1065 1059 1050 1044 1035 1029 1020 1014 1008 1002 996 1005 1017 1035 1059 1083 1098 1113 1125 1134 1140 1137 1131 1122 1104 1086 1074 1068 1062 1074 1089 1101 1101 1104 1101 1095 1092 1119 1149 1176 1197 1215 1236 1254 1272 1272 1272 1263 1248 1230 1203 1176 1152 1131 1110 1101 1095 1092 1104 1113 1131 1158 1182 1206 1230 1254 1281 1305 1329 1350 1371 1383 1395 1401 1392 1380 1359 1329 1302 1275 1245 1218 1194 1170 1155 1140 1131 1137 1146 1149 1146 1146 1149 1149 1158 1182 1206 1230 1254 1278 1287 1299 1299 1287 1281
1281 870 867 867 864 864 861 864 864 864 867 870 870 867 867 867 864 864 867 867 867 864 864 864 861 861 861 861 861 861 861 861 861 861 861 861 861 861 861 861 861 861 861 861 861 861 861 861 864 861 861 861 861 861 861 861 861 861 861 861 861 861 861 861 861 861 861 861 861 861 861 861 861 861 861 861 861 861 861 864 864 864 861 861 861 861 861 861 861 861 861 861 861 861 861 861 861 864 864 867 870 873 873 876 873 870 870 870 870 870 870 873 870 870 870 870 867 867 867 867 867 867 867 867 867 870 870 870 873 873 879 888 897 906 918 921 918 915 915 915 915 918 918 918 921 921 921 924 924 924 924 924 924 924 924 924 924 924 924 924 921 921 918 915 915 912 912 912 912 912 912 912 909 909 909 909 909 912 912 912 912 912 912 915 918 921 924 924 924 927 930 933 939 945 951 957 966 975 990 1005 1017 1029 1038 1044 1044 1044 1050 1056 1062 1062 1062 1059 1059 1059 1080 1104 1128 1155 1185 1209 1230 1251 1257 1260 1260 1251 1245 1242 1239 1239 1239 1239 1248 1260 1272 1290 1308 1326 1332 1341 1341 1338 1332 1323 1311 1296 1275 1254 1242 1230 1215 1203 1191 1185 1182 1179 1179 1179 1176 1167 1161 1143 1119 1098 1086 1074 1071 1077 1083 1083 1080 1080 1077 1074 1071 1071 1071 1071 1071 1074 1083 1092 1092 1086 1083 1068 1050 1047 1047 1050 1053 1056 1062 1071 1077 1074 1068 1062 1050 1038 1029 1023 1020 1011 1002 996 999 1005 1026 1053 1083 1098 1113 1128 1140 1152 1158 1158 1155 1140 1125 1110 1101 1089 1098 1113 1122 1125 1125 1119 1107 1095 1122 1146 1173 1200 1227 1251 1278 1296 1290 1284 1269 1248 1224 1197 1170 1143 1128 1113 1110 1113 1119 1119 1122 1131 1152 1173 1200 1227 1254 1278 1302 1329 1353 1377 1395 1410 1419 1407 1395 1371 1341 1311 1284 1257 1233 1212 1191 1176 1164 1155 1164 1170 1173 1176 1176 1173 1170 1173 1191 1212 1236 1260 1281 1287 1293 1293 1284 1281
1275 870 867 864 864 861 861 861 861 861 864 864 864 864 867 867 867 867 867 867 867 867 867 864 864 864 864 864 864 864 864 861 861 861 861 861 861 861 861 861 861 861 861 861 861 861 861 861 861 861 861 861 861 861 861 861 864 861 861 861 861 861 861 861 861 861 861 861 861 861 861 861 861 861 861 861 861 861 861 861 864 864 864 861 861 861 861 861 861 861 861 861 861 861 861 861 864 864 867 867 870 870 873 873 870 867 867 867 867 867 870 870 870 867 867 867 864 864 864 864 864 867 867 867 867 867 867 870 870 873 882 894 906 921 933 936 927 921 918 915 915 915 915 918 924 927 930 936 936 936 933 930 930 927 927 927 924 924 924 921 921 918 918 918 918 918 918 915 912 912 909 909 909 909 909 909 909 912 912 912 912 912 912 915 918 921 924 924 924 927 927 930 933 936 942 948 954 960 969 981 993 1008 1020 1032 1035 1038 1044 1050 1056 1053 1050 1050 1053 1059 1083 1113 1140 1167 1194 1215 1233 1251 1254 1260 1257 1245 1236 1227 1221 1218 1221 1224 1233 1251 1266 1287 1308 1326 1335 1341 1341 1335 1332 1320 1308 1296 1275 1257 1245 1233 1224 1215 1209 1203 1197 1194 1191 1185 1179 1170 1161 1143 1125 1107 1101 1098 1095 1101 1104 1101 1095 1089 1089 1086 1086 1083 1083 1083 1083 1086 1095 1104 1104 1098 1092 1077 1062 1056 1056 1056 1056 1059 1062 1068 1077 1077 1074 1071 1059 1047 1038 1029 1023 1011 999 990 996 1002 1020 1047 1077 1098 1119 1140 1152 1164 1167 1167 1167 1158 1146 1137 1125 1116 1125 1137 1146 1146 1143 1134 1122 1110 1131 1155 1179 1212 1242 1266 1290 1311 1302 1296 1281 1257 1230 1203 1176 1152 1140 1128 1128 1137 1146 1143 1143 1149 1167 1188 1212 1239 1263 1284 1305 1329 1356 1380 1401 1419 1428 1416 1407 1383 1353 1323 1299 1275 1251 1233 1212 1200 1191 1185 1188 1194 1197 1200 1203 1197 1191 1191 1206 1218 1239 1263 1281 1284 1284 1284 1278 1275
1269 870 867 867 864 864 861 861 861 861 861 861 861 864 864 867 867 867 867 867 867 867 867 867 864 864 864 864 864 864 864 861 861 861 861 861 861 861 861 861 861 861 861 861 861 861 861 861 861 861 861 861 861 864 864 864 864 864 864 861 861 861 861 861 861 861 861 861 861 861 861 861 861 861 861 861 861 861 861 861 861 861 864 864 864 861 861 861 861 861 861 861 861 861 861 864 864 867 870 870 867 867 867 867 864 864 864 864 867 867 870 870 867 867 864 864 864 864 864 864 864 864 867 867 867 867 867 870 870 873 885 900 918 936 954 954 942 930 921 915 912 912 912 918 930 939 948 957 960 957 951 945 939 933 930 930 927 924 924 921 921 918 918 915 915 915 915 912 912 912 912 912 912 909 912 912 915 918 921 921 924 924 924 924 927 930 930 933 936 939 939 939 939 939 939 939 945 948 957 963 972 984 996 1008 1017 1023 1029 1035 1038 1041 1041 1050 1062 1074 1095 1119 1143 1164 1188 1206 1221 1239 1242 1248 1248 1236 1227 1218 1209 1200 1203 1203 1215 1230 1248 1269 1293 1311 1326 1338 1338 1335 1329 1317 1305 1293 1278 1266 1257 1248 1239 1230 1224 1215 1212 1206 1197 1188 1179 1167 1155 1143 1131 1119 1122 1125 1125 1125 1125 1116 1107 1101 1101 1098 1098 1098 1095 1095 1092 1095 1104 1113 1110 1104 1098 1086 1071 1065 1062 1059 1059 1056 1059 1068 1074 1077 1080 1080 1068 1056 1047 1035 1026 1014 999 990 996 999 1017 1044 1071 1098 1125 1146 1161 1173 1176 1179 1179 1170 1164 1155 1146 1140 1146 1158 1164 1164 1161 1152 1140 1125 1146 1164 1191 1224 1257 1281 1302 1320 1314 1308 1293 1266 1239 1212 1185 1164 1155 1146 1149 1161 1173 1170 1170 1173 1191 1206 1230 1254 1278 1296 1314 1335 1359 1383 1404 1422 1434 1425 1413 1392 1365 1338 1314 1290 1272 1254 1236 1227 1218 1212 1215 1215 1218 1224 1227 1218 1212 1209 1218 1230 1245 1263 1278 1278 1278 1275 1272 1269
1260 870 867 867 864 864 861 861 861 861 861 861 861 861 864 864 867 867 867 867 867 867 867 867 864 864 864 864 864 864 861 861 861 861 861 861 861 861 861 861 861 861 861 861 861 861 861 861 861 861 861 861 864 864 864 867 867 867 864 861 861 861 861 861 861 861 861 861 861 861 861 861 861 861 861 861 861 861 861 861 861 861 861 861 861 861 861 861 861 861 861 861 861 861 864 864 867 870 870 867 867 864 864 864 861 861 861 864 864 864 864 867 864 864 864 864 864 864 864 864 864 867 867 867 867 867 867 870 870 873 888 906 924 945 966 969 957 945 933 921 915 915 918 927 942 954 969 981 987 987 984 975 963 951 942 936 930 930 930 930 930 930 927 927 924 924 921 924 924 924 921 921 918 918 918 918 921 924 927 930 933 933 936 936 936 939 939 942 945 948 951 948 948 945 942 942 942 945 948 951 957 966 978 987 999 1008 1014 1020 1026 1032 1038 1050 1068 1086 1107 1125 1146 1161 1179 1194 1209 1221 1227 1233 1233 1224 1215 1206 1194 1185 1185 1185 1194 1212 1230 1251 1275 1296 1314 1329 1335 1332 1329 1317 1305 1293 1284 1275 1266 1257 1251 1242 1236 1230 1224 1218 1203 1188 1176 1161 1149 1143 1140 1137 1146 1152 1152 1146 1143 1131 1122 1113 1113 1113 1113 1110 1110 1107 1104 1104 1110 1116 1113 1110 1101 1089 1080 1071 1065 1059 1056 1053 1056 1062 1071 1077 1080 1083 1074 1062 1053 1041 1029 1017 1005 996 999 1002 1017 1041 1065 1095 1128 1152 1167 1182 1188 1188 1188 1182 1176 1167 1158 1149 1158 1167 1176 1179 1182 1173 1161 1149 1164 1179 1203 1236 1269 1293 1314 1332 1326 1320 1302 1275 1248 1221 1191 1170 1164 1161 1167 1182 1194 1194 1194 1200 1209 1218 1239 1263 1287 1308 1329 1350 1371 1392 1410 1428 1437 1425 1416 1395 1371 1347 1326 1305 1284 1272 1257 1248 1242 1239 1236 1236 1239 1245 1248 1242 1236 1236 1239 1242 1251 1260 1272 1269 1266 1263 1260 1260
1248 870 870 870 867 864 864 861 861 861 861 861 861 861 861 864 864 864 867 867 867 864 864 864 864 864 864 864 861 861 861 861 861 861 861 861 861 861 861 861 861 861 864 864 864 864 864 864 864 864 864 864 864 864 864 864 864 864 861 861 861 861 861 861 861 861 861 861 861 861 861 861 861 861 861 861 861 861 861 861 861 861 861 861 861 861 861 861 861 861 861 861 861 864 864 867 867 867 867 867 864 864 861 861 861 861 864 864 864 864 864 864 864 861 861 864 864 864 864 864 867 867 867 867 867 867 867 870 873 876 891 909 930 954 981 984 972 960 945 933 924 927 930 942 957 972 990 1005 1014 1014 1014 1002 987 972 957 942 936 936 936 939 942 942 942 939 939 936 933 936 936 936 936 933 930 927 924 927 927 930 933 936 942 945 948 948 945 948 948 951 954 957 957 957 957 957 954 951 948 945 945 945 948 954 960 969 981 993 1002 1011 1020 1029 1038 1056 1077 1098 1113 1131 1146 1155 1167 1179 1191 1200 1209 1215 1215 1206 1200 1188 1176 1167 1167 1167 1179 1200 1218 1242 1263 1284 1302 1317 1326 1329 1332 1320 1308 1296 1287 1278 1269 1263 1257 1251 1248 1245 1239 1236 1218 1197 1182 1167 1155 1155 1158 1161 1167 1170 1170 1164 1158 1146 1134 1125 1128 1128 1128 1128 1125 1119 1116 1113 1119 1122 1119 1113 1107 1095 1083 1074 1062 1053 1053 1056 1056 1062 1068 1074 1080 1086 1077 1071 1062 1047 1035 1023 1008 999 1002 1002 1014 1035 1053 1086 1119 1143 1161 1179 1185 1191 1197 1191 1185 1179 1167 1158 1167 1176 1185 1188 1194 1185 1170 1155 1170 1182 1203 1236 1269 1293 1314 1332 1326 1320 1305 1281 1254 1227 1200 1179 1182 1182 1191 1206 1218 1221 1221 1224 1230 1233 1251 1272 1293 1317 1341 1362 1380 1401 1413 1428 1434 1425 1416 1398 1377 1359 1338 1320 1305 1293 1281 1275 1269 1266 1263 1260 1263 1269 1275 1269 1266 1260 1257 1254 1257 1260 1263 1260 1257 1251 1248 1248
1233 870 870 870 867 867 864 864 861 861 861 861 861 861 861 861 864 864 864 864 864 864 864 864 864 864 861 861 861 861 861 861 861 861 861 861 861 861 861 861 864 864 864 864 864 864 864 864 867 867 867 867 864 864 864 861 861 861 861 861 861 861 861 861 861 861 861 861 861 861 861 861 861 861 861 861 861 861 861 861 861 861 861 861 861 861 861 861 861 861 861 861 861 864 864 864 864 864 864 864 861 861 861 861 864 864 864 864 864 864 864 864 864 861 861 864 864 864 864 867 867 867 867 867 870 870 870 870 873 873 894 915 939 966 993 1002 990 978 966 951 945 948 951 963 978 990 1008 1023 1032 1032 1029 1017 999 981 963 948 942 945 948 954 957 960 957 954 951 948 945 945 945 942 942 942 939 939 936 939 939 939 942 945 948 948 951 951 954 954 957 957 957 960 960 963 963 963 960 960 954 951 948 948 948 951 954 960 972 981 993 1005 1017 1032 1044 1062 1080 1098 1113 1128 1140 1149 1155 1164 1173 1182 1188 1194 1194 1188 1179 1170 1158 1149 1152 1155 1170 1194 1215 1236 1257 1275 1290 1308 1320 1329 1338 1326 1314 1305 1296 1287 1281 1272 1266 1266 1263 1260 1254 1251 1230 1209 1191 1179 1167 1167 1176 1182 1185 1191 1191 1182 1176 1164 1149 1140 1140 1143 1143 1140 1140 1134 1125 1122 1125 1125 1122 1119 1113 1098 1086 1071 1056 1041 1047 1053 1059 1062 1068 1074 1080 1086 1083 1080 1071 1056 1044 1032 1020 1011 1008 1005 1014 1029 1047 1077 1107 1134 1152 1173 1185 1194 1200 1197 1194 1188 1179 1170 1176 1185 1191 1197 1200 1191 1176 1161 1170 1182 1200 1233 1263 1290 1311 1329 1326 1320 1308 1284 1260 1233 1209 1191 1197 1203 1215 1230 1245 1248 1251 1251 1251 1248 1263 1278 1296 1323 1353 1374 1392 1407 1416 1425 1428 1422 1413 1401 1386 1371 1353 1338 1326 1317 1311 1305 1299 1293 1290 1290 1290 1296 1299 1296 1293 1287 1278 1272 1263 1260 1254 1248 1245 1239 1236 1233
1215 870 870 870 870 867 867 864 864 861 861 861 861 861 861 861 864 864 864 864 864 864 864 861 861 861 861 861 861 861 861 861 861 861 861 861 861 861 864 864 864 864 864 864 864 864 864 864 867 867 867 867 864 861 861 861 861 861 861 861 861 861 861 861 861 861 861 861 861 861 861 861 861 861 861 861 861 861 861 861 861 861 861 861 861 861 861 861 861 861 861 864 864 864 864 864 864 864 861 861 864 864 864 864 864 864 864 864 864 864 864 864 864 864 864 864 864 864 867 867 867 867 867 870 873 873 870 870 873 873 891 912 936 969 999 1011 1005 999 987 975 969 972 975 987 999 1011 1026 1041 1047 1044 1038 1023 1005 990 975 957 957 966 972 981 990 993 987 984 978 972 966 963 963 960 957 954 951 948 948 948 948 948 948 951 954 957 957 960 963 963 966 966 966 966 969 969 969 969 966 966 963 957 954 954 951 951 951 957 963 969 984 996 1011 1032 1050 1065 1080 1095 1110 1122 1131 1137 1140 1146 1152 1158 1167 1173 1173 1164 1155 1146 1137 1131 1140 1146 1164 1188 1212 1230 1248 1266 1284 1299 1314 1329 1341 1332 1323 1314 1305 1299 1293 1284 1278 1278 1278 1275 1269 1260 1242 1221 1203 1194 1182 1185 1194 1203 1206 1212 1209 1200 1191 1179 1164 1155 1155 1155 1155 1155 1152 1143 1137 1131 1128 1128 1128 1125 1119 1101 1083 1065 1047 1029 1038 1050 1059 1062 1068 1074 1083 1089 1086 1086 1077 1065 1053 1044 1038 1029 1020 1011 1014 1026 1038 1068 1098 1125 1143 1164 1179 1191 1203 1200 1197 1194 1188 1179 1188 1197 1203 1203 1203 1194 1176 1161 1170 1179 1197 1230 1260 1287 1314 1335 1332 1332 1317 1290 1266 1239 1212 1194 1206 1215 1233 1251 1269 1272 1278 1278 1272 1269 1278 1290 1308 1335 1365 1383 1398 1413 1413 1413 1410 1407 1404 1398 1389 1377 1365 1353 1341 1338 1332 1326 1323 1317 1317 1314 1314 1317 1320 1314 1311 1302 1290 1278 1266 1254 1242 1233 1227 1221 1215 1215
1197 867 867 867 867 867 867 867 864 861 861 861 861 861 861 864 864 864 864 864 864 864 861 861 861 861 861 861 861 861 861 861 861 861 864 864 864 864 864 864 864 864 864 864 864 864 864 864 864 864 867 867 864 861 861 861 861 861 861 861 861 861 861 861 861 861 861 861 861 861 861 861 861 861 861 861 861 861 861 861 861 861 861 861 861 861 861 861 861 861 864 864 864 864 864 864 864 864 864 864 864 864 864 864 864 864 864 864 861 864 864 864 864 864 864 864 864 864 864 864 864 864 867 873 876 873 873 873 873 873 888 909 933 969 1005 1020 1020 1017 1008 999 993 996 999 1008 1020 1032 1047 1059 1062 1053 1044 1029 1011 993 984 972 975 987 996 1008 1023 1029 1026 1020 1011 1005 996 990 987 981 978 972 966 963 957 954 954 954 954 954 960 963 966 969 972 975 975 978 978 978 978 975 972 972 972 969 969 966 963 960 954 954 954 954 957 963 975 990 1005 1026 1050 1065 1077 1089 1101 1113 1122 1122 1125 1128 1134 1137 1143 1149 1146 1137 1128 1122 1113 1110 1122 1131 1152 1173 1197 1218 1239 1260 1281 1299 1317 1332 1344 1335 1329 1323 1314 1308 1299 1293 1287 1284 1281 1278 1272 1269 1251 1233 1221 1215 1209 1215 1224 1233 1230 1227 1221 1209 1200 1191 1179 1173 1170 1167 1164 1164 1164 1155 1149 1140 1137 1131 1128 1125 1119 1104 1089 1074 1062 1047 1053 1062 1068 1068 1068 1077 1086 1095 1098 1098 1098 1089 1083 1080 1077 1071 1053 1038 1032 1035 1041 1068 1095 1119 1137 1158 1173 1191 1206 1206 1209 1206 1200 1197 1203 1212 1218 1215 1212 1203 1188 1173 1182 1188 1203 1233 1260 1287 1314 1338 1341 1344 1332 1305 1281 1254 1227 1212 1227 1242 1257 1278 1296 1299 1305 1305 1299 1293 1299 1311 1323 1350 1374 1392 1401 1410 1404 1401 1395 1392 1389 1386 1377 1371 1362 1353 1347 1344 1341 1338 1332 1329 1326 1323 1320 1320 1320 1314 1305 1296 1284 1272 1260 1245 1230 1221 1209 1203 1200 1197
1185 867 867 867 867 867 870 867 864 864 861 861 861 861 861 864 864 864 864 867 864 864 864 861 861 861 861 861 861 861 861 861 864 864 864 864 864 864 864 864 864 864 864 861 861 861 861 864 864 864 864 864 864 864 861 861 861 861 861 861 861 861 861 861 861 861 861 861 861 861 861 861 861 861 861 861 861 861 861 861 861 861 861 861 861 861 861 861 861 861 864 864 864 864 864 861 864 864 864 864 864 864 864 864 864 861 861 861 861 861 864 864 864 867 867 864 864 864 864 864 864 864 867 870 873 870 870 870 873 873 888 906 927 969 1008 1029 1032 1038 1029 1023 1017 1017 1020 1029 1041 1050 1059 1068 1068 1056 1044 1029 1014 999 996 990 990 996 1002 1017 1032 1044 1047 1050 1044 1038 1029 1020 1014 1011 1008 1005 996 984 975 966 957 954 954 957 966 972 981 987 993 999 1002 1005 1005 1005 1002 999 993 990 987 981 978 975 969 969 966 963 960 960 960 963 969 978 990 1011 1032 1050 1062 1074 1083 1095 1101 1107 1110 1113 1113 1116 1119 1119 1119 1113 1107 1107 1110 1113 1125 1137 1155 1176 1194 1218 1239 1263 1287 1308 1323 1335 1347 1341 1335 1329 1320 1314 1305 1299 1293 1290 1284 1281 1275 1272 1257 1242 1233 1233 1230 1239 1248 1254 1245 1239 1230 1218 1206 1200 1194 1188 1179 1173 1170 1170 1170 1164 1158 1152 1143 1134 1128 1122 1116 1107 1098 1089 1080 1071 1074 1074 1074 1071 1071 1080 1092 1107 1113 1119 1122 1119 1119 1116 1116 1107 1086 1065 1056 1053 1050 1077 1101 1125 1143 1161 1179 1197 1215 1218 1221 1221 1218 1215 1221 1227 1230 1227 1224 1215 1203 1191 1194 1200 1212 1239 1266 1290 1317 1341 1347 1356 1347 1323 1302 1275 1248 1236 1254 1269 1287 1308 1323 1329 1332 1332 1326 1323 1326 1332 1341 1362 1386 1395 1398 1401 1395 1386 1380 1377 1371 1365 1359 1353 1350 1347 1344 1344 1341 1338 1332 1326 1320 1314 1308 1302 1296 1290 1281 1275 1266 1260 1248 1233 1221 1209 1197 1191 1188 1185
1170 864 864 864 864 867 870 867 867 864 864 861 861 861 861 861 864 864 867 867 867 867 867 864 864 864 861 861 861 861 861 864 864 864 867 867 864 864 864 864 864 861 861 861 861 861 861 861 861 864 864 864 864 864 864 864 864 861 861 861 861 861 861 861 861 861 861 861 861 861 861 861 861 861 861 861 861 861 861 861 861 861 861 861 861 861 861 861 861 861 861 861 861 864 864 864 864 864 864 864 864 864 864 861 861 861 861 861 861 861 861 864 864 867 867 864 864 864 864 864 864 867 867 870 870 870 870 870 870 873 885 900 921 963 1005 1032 1044 1059 1053 1047 1044 1041 1041 1044 1053 1062 1068 1074 1071 1056 1044 1029 1017 1008 1005 1002 1002 1002 1002 1020 1038 1050 1059 1068 1068 1065 1062 1053 1047 1041 1035 1029 1017 1005 990 978 966 960 960 960 975 990 1002 1014 1023 1029 1032 1038 1038 1038 1038 1032 1026 1020 1011 1005 996 987 984 981 978 972 969 966 966 966 969 972 978 996 1014 1029 1041 1056 1065 1074 1083 1089 1092 1095 1095 1095 1095 1095 1092 1092 1092 1101 1113 1125 1137 1152 1167 1185 1200 1224 1248 1272 1296 1320 1332 1341 1350 1344 1338 1329 1323 1317 1311 1305 1299 1293 1290 1284 1278 1272 1263 1251 1245 1248 1248 1254 1263 1266 1260 1251 1242 1227 1215 1209 1206 1200 1188 1179 1173 1176 1173 1170 1167 1158 1149 1137 1128 1122 1113 1110 1107 1107 1104 1104 1095 1086 1077 1074 1071 1083 1101 1119 1134 1146 1155 1155 1158 1152 1149 1140 1119 1098 1086 1080 1077 1098 1122 1146 1164 1185 1200 1215 1230 1233 1236 1236 1236 1236 1239 1239 1242 1242 1242 1230 1215 1203 1209 1215 1230 1248 1269 1293 1317 1338 1347 1356 1353 1338 1323 1302 1281 1272 1284 1296 1314 1335 1356 1359 1365 1365 1359 1353 1353 1356 1362 1377 1395 1401 1398 1395 1383 1368 1359 1353 1347 1344 1341 1338 1338 1335 1335 1332 1329 1323 1317 1311 1302 1296 1287 1278 1266 1260 1251 1245 1239 1233 1227 1218 1212 1197 1185 1176 1173 1170
1155 864 864 864 864 867 867 867 867 864 864 861 861 861 861 864 864 867 867 867 867 867 867 864 864 864 864 861 864 864 864 864 867 867 867 864 864 864 864 864 861 861 861 861 861 861 861 861 861 864 864 864 864 864 864 864 864 861 861 861 861 861 861 861 861 861 861 861 861 861 861 861 861 861 861 861 861 861 861 861 861 861 861 861 861 861 861 861 861 861 861 861 861 861 864 864 864 864 864 864 861 861 861 861 861 861 861 861 861 861 861 861 864 864 864 864 861 864 864 864 867 867 867 870 870 870 870 870 870 870 882 894 915 957 999 1032 1056 1080 1080 1074 1071 1068 1065 1065 1071 1074 1077 1077 1071 1056 1044 1032 1023 1017 1014 1014 1011 1008 1005 1023 1038 1053 1065 1077 1083 1086 1089 1083 1077 1068 1056 1044 1032 1017 1005 990 975 969 969 969 993 1014 1032 1044 1056 1062 1068 1074 1077 1080 1077 1077 1074 1062 1050 1038 1023 1011 1005 999 993 987 981 978 975 972 972 972 972 981 990 1005 1017 1032 1044 1053 1062 1068 1074 1077 1077 1077 1074 1071 1074 1083 1092 1110 1128 1143 1161 1176 1191 1206 1224 1248 1272 1293 1311 1329 1338 1341 1344 1341 1335 1329 1323 1314 1311 1308 1302 1299 1296 1290 1284 1275 1269 1260 1254 1257 1257 1260 1266 1269 1263 1260 1254 1245 1236 1227 1221 1209 1197 1185 1182 1182 1182 1179 1176 1170 1158 1146 1137 1125 1119 1119 1116 1116 1113 1113 1098 1086 1077 1080 1083 1101 1122 1143 1152 1164 1170 1173 1176 1173 1167 1158 1137 1116 1104 1095 1086 1104 1122 1140 1161 1182 1200 1218 1236 1239 1245 1248 1248 1248 1248 1248 1251 1251 1251 1239 1224 1212 1218 1224 1236 1257 1275 1296 1320 1341 1356 1368 1368 1359 1350 1332 1311 1299 1311 1320 1341 1362 1383 1386 1392 1392 1389 1383 1383 1383 1383 1392 1404 1401 1392 1383 1368 1350 1338 1329 1323 1320 1320 1320 1320 1320 1320 1317 1314 1305 1296 1287 1281 1272 1263 1248 1236 1230 1224 1218 1215 1209 1206 1206 1203 1188 1173 1164 1158 1152
1134 864 864 861 864 864 867 867 867 864 864 861 861 864 864 867 867 870 870 870 867 867 867 867 867 864 864 864 864 864 867 867 867 867 864 864 864 864 861 861 861 861 861 861 861 861 861 861 861 861 864 864 864 864 864 864 864 861 861 861 861 861 861 861 861 861 861 861 861 861 861 861 861 861 861 861 861 861 861 861 861 861 861 861 861 861 861 861 861 861 861 861 861 864 864 864 864 864 861 861 861 861 861 861 861 861 861 861 861 861 861 861 861 864 864 864 864 864 864 864 867 867 867 867 867 867 867 867 870 870 879 891 909 951 993 1029 1065 1098 1104 1107 1107 1107 1107 1107 1107 1104 1095 1089 1077 1062 1050 1044 1041 1035 1035 1032 1026 1020 1014 1026 1038 1050 1065 1077 1086 1095 1101 1095 1089 1077 1062 1047 1032 1020 1005 996 987 987 990 993 1011 1026 1041 1056 1074 1083 1092 1101 1101 1101 1098 1092 1086 1074 1059 1050 1044 1038 1035 1029 1026 1014 1002 993 987 981 978 975 972 975 978 987 999 1011 1020 1029 1038 1044 1050 1053 1059 1065 1068 1071 1080 1092 1107 1125 1143 1164 1179 1194 1212 1230 1248 1269 1293 1311 1323 1335 1338 1338 1335 1332 1326 1320 1314 1308 1305 1302 1299 1299 1299 1293 1287 1281 1275 1269 1263 1260 1257 1260 1266 1272 1272 1269 1266 1260 1251 1242 1233 1221 1209 1194 1191 1191 1191 1188 1182 1176 1164 1152 1143 1134 1125 1125 1125 1122 1119 1116 1104 1089 1086 1095 1104 1119 1140 1158 1164 1170 1176 1182 1188 1185 1182 1173 1152 1134 1119 1107 1098 1107 1119 1134 1155 1179 1197 1218 1236 1245 1254 1257 1254 1251 1254 1254 1257 1254 1254 1245 1233 1221 1227 1230 1242 1263 1281 1305 1326 1350 1368 1383 1389 1383 1380 1359 1338 1326 1335 1344 1362 1386 1407 1413 1419 1419 1416 1413 1410 1407 1407 1410 1410 1401 1386 1371 1350 1332 1317 1308 1302 1302 1299 1299 1299 1299 1296 1296 1296 1284 1272 1260 1251 1242 1230 1218 1206 1203 1197 1194 1191 1188 1188 1191 1194 1182 1170 1155 1140 1134
1128 861 861 861 861 864 864 864 864 864 864 861 864 864 867 870 870 873 870 870 870 867 867 867 867 867 867 867 867 867 864 864 864 864 864 864 861 861 861 861 861 861 861 861 861 861 861 861 861 861 864 864 864 864 864 864 861 861 861 861 861 861 861 861 861 861 861 861 861 861 861 861 864 861 861 861 861 861 861 861 861 861 861 861 861 861 861 861 861 861 861 861 861 861 861 861 861 861 861 861 861 861 861 861 861 861 861 861 861 861 861 861 861 864 864 864 864 864 864 864 864 867 867 867 867 867 867 867 867 870 879 888 906 945 984 1026 1068 1110 1122 1131 1137 1137 1140 1137 1134 1131 1116 1104 1092 1080 1068 1065 1062 1059 1053 1050 1041 1035 1029 1032 1038 1047 1062 1074 1086 1098 1104 1101 1095 1083 1065 1047 1035 1023 1011 1008 1005 1008 1011 1014 1023 1035 1047 1065 1083 1095 1107 1119 1119 1116 1113 1104 1095 1080 1068 1059 1059 1059 1056 1056 1053 1038 1023 1011 1002 993 987 981 975 975 975 978 987 996 1005 1011 1020 1026 1032 1041 1053 1065 1074 1086 1098 1110 1125 1143 1161 1179 1194 1212 1230 1251 1269 1290 1311 1323 1329 1335 1335 1329 1326 1320 1314 1308 1302 1296 1296 1293 1290 1293 1293 1293 1293 1290 1284 1275 1269 1260 1254 1257 1266 1275 1278 1281 1281 1275 1269 1257 1245 1233 1218 1206 1203 1200 1200 1194 1185 1176 1167 1158 1149 1143 1137 1134 1134 1131 1122 1113 1107 1101 1101 1116 1128 1140 1152 1161 1164 1167 1173 1182 1191 1191 1188 1182 1164 1149 1137 1125 1113 1116 1122 1134 1155 1176 1197 1218 1239 1245 1254 1257 1254 1248 1251 1254 1254 1251 1248 1242 1236 1227 1230 1236 1245 1266 1284 1308 1332 1356 1377 1398 1407 1407 1407 1389 1368 1359 1362 1368 1389 1410 1434 1443 1452 1455 1452 1449 1443 1437 1434 1428 1425 1413 1395 1377 1353 1329 1311 1299 1287 1284 1278 1275 1275 1275 1275 1272 1272 1260 1248 1236 1227 1215 1206 1197 1188 1185 1182 1179 1176 1173 1176 1182 1185 1176 1167 1155 1137 1128
1122 861 861 861 861 864 864 864 864 864 864 861 861 864 864 867 870 870 870 870 870 870 870 870 867 867 867 864 867 867 867 867 867 864 864 864 861 861 861 861 861 861 861 861 861 861 861 861 861 861 861 864 864 867 867 867 864 864 864 864 864 864 864 861 861 861 861 861 861 861 861 861 861 861 861 861 861 861 861 861 861 861 861 861 861 861 861 861 861 861 861 861 861 861 861 861 861 861 861 861 861 861 861 861 861 861 861 861 861 861 861 861 861 864 864 864 864 864 864 864 864 864 864 864 864 864 867 867 867 870 876 888 903 939 978 1023 1071 1119 1134 1149 1161 1164 1164 1164 1158 1155 1140 1122 1110 1101 1092 1089 1086 1080 1074 1065 1059 1050 1044 1044 1041 1047 1059 1068 1083 1095 1107 1104 1098 1086 1068 1050 1038 1026 1020 1023 1029 1029 1029 1026 1032 1041 1050 1068 1083 1098 1113 1125 1125 1125 1119 1107 1098 1086 1074 1065 1065 1068 1068 1068 1068 1059 1047 1035 1023 1011 999 990 984 981 975 978 981 987 996 1008 1020 1032 1044 1059 1077 1092 1107 1119 1131 1143 1152 1167 1182 1197 1212 1227 1245 1269 1290 1302 1314 1323 1326 1326 1320 1314 1308 1302 1296 1290 1284 1281 1278 1275 1275 1278 1284 1287 1290 1293 1290 1290 1287 1281 1275 1278 1281 1284 1284 1284 1281 1275 1269 1260 1251 1242 1233 1224 1218 1212 1206 1197 1191 1182 1170 1161 1152 1146 1140 1137 1137 1131 1125 1119 1116 1110 1113 1119 1128 1131 1134 1137 1137 1137 1149 1167 1185 1191 1197 1197 1182 1167 1155 1140 1128 1128 1128 1134 1152 1170 1191 1212 1233 1242 1254 1260 1260 1263 1260 1257 1254 1242 1233 1230 1230 1230 1239 1245 1257 1275 1293 1317 1341 1365 1389 1410 1425 1428 1434 1419 1401 1389 1389 1392 1410 1437 1461 1473 1482 1488 1485 1479 1473 1464 1455 1446 1440 1425 1410 1395 1368 1344 1320 1299 1281 1269 1260 1251 1251 1251 1251 1248 1248 1236 1224 1215 1203 1194 1185 1176 1167 1167 1164 1161 1161 1164 1167 1173 1176 1170 1164 1149 1131 1122
1116 861 861 861 861 861 861 864 864 864 864 861 864 864 864 867 867 870 870 870 870 870 870 867 867 864 864 864 864 867 867 867 867 864 864 861 861 861 861 861 861 861 861 861 861 861 861 861 861 861 861 864 867 870 870 870 867 867 867 867 867 867 864 864 861 861 861 861 861 861 861 861 861 861 861 861 861 861 861 861 861 861 861 861 861 861 861 861 861 861 861 861 861 861 861 858 858 861 861 861 861 861 861 861 861 861 861 861 861 861 861 861 861 861 864 864 867 864 864 864 864 864 864 864 864 864 867 867 867 867 876 882 897 936 975 1020 1071 1122 1140 1158 1170 1176 1179 1179 1176 1173 1158 1143 1131 1125 1116 1113 1107 1104 1092 1083 1077 1071 1068 1062 1059 1059 1068 1074 1089 1104 1113 1110 1104 1092 1074 1059 1050 1044 1041 1044 1047 1044 1038 1032 1038 1044 1053 1071 1089 1104 1116 1125 1125 1125 1119 1110 1101 1092 1080 1074 1077 1077 1080 1083 1086 1083 1077 1068 1053 1035 1020 1008 996 990 984 981 981 984 993 1005 1020 1041 1062 1080 1101 1119 1134 1146 1158 1170 1182 1197 1209 1224 1236 1251 1266 1284 1302 1308 1311 1311 1308 1305 1299 1293 1290 1284 1281 1275 1272 1266 1263 1260 1260 1266 1272 1278 1284 1293 1296 1299 1299 1296 1290 1290 1290 1290 1287 1284 1278 1272 1266 1260 1254 1248 1239 1230 1221 1215 1206 1200 1191 1182 1173 1161 1155 1146 1140 1134 1131 1128 1125 1119 1119 1116 1116 1119 1119 1119 1116 1113 1113 1113 1125 1149 1173 1188 1200 1209 1197 1185 1173 1158 1143 1137 1134 1137 1149 1161 1182 1203 1224 1236 1251 1260 1272 1281 1275 1266 1254 1236 1221 1221 1227 1236 1245 1257 1272 1287 1302 1326 1350 1377 1401 1425 1443 1452 1461 1446 1431 1419 1416 1413 1431 1458 1485 1500 1515 1521 1515 1509 1497 1485 1473 1464 1455 1443 1431 1419 1392 1368 1341 1308 1278 1257 1239 1227 1224 1224 1224 1221 1221 1212 1200 1191 1185 1176 1167 1158 1149 1146 1143 1146 1152 1158 1161 1164 1167 1158 1152 1140 1122 1116
1098 864 864 864 861 861 861 861 861 864 864 864 864 864 867 867 870 870 870 867 867 867 867 864 864 864 861 861 861 864 864 864 864 864 861 861 861 861 861 861 861 861 861 861 861 861 861 861 861 861 864 864 867 870 870 867 867 870 870 870 870 870 867 864 864 861 861 861 861 861 861 861 861 861 861 861 864 864 861 861 861 861 861 861 861 861 861 861 861 861 861 861 861 861 861 861 861 861 861 861 861 861 861 861 861 861 861 861 861 864 864 864 864 864 864 864 867 864 864 864 864 864 864 864 864 864 867 867 867 867 873 882 897 936 975 1020 1068 1116 1134 1152 1167 1176 1185 1185 1185 1182 1173 1161 1152 1149 1143 1137 1134 1128 1119 1107 1101 1098 1095 1086 1080 1077 1080 1086 1098 1110 1122 1116 1110 1098 1083 1068 1065 1062 1062 1062 1065 1059 1050 1041 1044 1050 1059 1080 1098 1110 1119 1128 1128 1131 1125 1119 1110 1101 1092 1086 1086 1089 1095 1101 1104 1104 1104 1098 1080 1062 1044 1026 1011 1002 993 987 987 984 993 1005 1023 1047 1074 1098 1122 1143 1155 1170 1182 1197 1212 1224 1236 1248 1260 1275 1287 1299 1308 1305 1302 1296 1287 1281 1275 1272 1269 1266 1266 1263 1257 1251 1248 1248 1248 1254 1260 1269 1278 1287 1296 1305 1308 1305 1305 1299 1296 1290 1284 1281 1275 1266 1260 1254 1248 1242 1233 1224 1215 1209 1200 1194 1188 1179 1170 1158 1152 1143 1134 1128 1125 1119 1116 1110 1110 1110 1110 1110 1110 1107 1104 1098 1098 1095 1107 1134 1158 1179 1197 1212 1206 1200 1188 1176 1161 1152 1143 1140 1146 1152 1167 1188 1206 1224 1239 1257 1278 1299 1293 1284 1275 1254 1236 1236 1248 1257 1266 1272 1281 1293 1305 1329 1356 1386 1413 1440 1461 1473 1485 1473 1461 1452 1446 1440 1455 1482 1506 1521 1536 1539 1527 1515 1500 1482 1467 1458 1449 1440 1428 1419 1398 1380 1356 1323 1290 1269 1248 1230 1221 1212 1209 1203 1200 1194 1185 1179 1179 1176 1173 1167 1161 1158 1158 1155 1152 1149 1146 1143 1140 1134 1125 1116 1104 1098
1086 864 864 864 861 861 861 861 861 861 864 864 864 867 867 867 870 870 870 867 867 867 864 864 861 861 861 861 861 861 864 864 864 864 861 861 861 861 861 861 861 861 861 861 861 861 861 861 861 861 864 864 867 867 867 867 867 870 870 873 873 873 870 864 861 861 861 861 861 861 861 861 861 861 861 861 861 864 861 861 861 861 861 861 861 861 861 861 861 861 861 861 861 861 861 861 861 861 861 861 861 861 861 861 861 861 861 864 864 864 864 864 864 864 864 864 864 864 864 864 864 864 864 864 864 864 864 867 867 867 873 879 894 933 972 1017 1062 1107 1125 1143 1158 1170 1179 1185 1188 1191 1185 1179 1173 1173 1170 1164 1161 1155 1146 1140 1134 1128 1122 1113 1104 1098 1101 1101 1110 1119 1128 1122 1119 1107 1095 1080 1080 1080 1083 1083 1080 1074 1062 1053 1056 1059 1071 1089 1107 1116 1125 1134 1140 1143 1140 1131 1122 1113 1104 1098 1101 1104 1110 1119 1125 1122 1122 1113 1098 1080 1065 1047 1029 1017 1005 999 993 987 996 1005 1023 1050 1077 1104 1128 1152 1167 1182 1200 1215 1230 1242 1251 1260 1269 1278 1287 1293 1302 1293 1284 1275 1266 1257 1254 1254 1251 1248 1248 1242 1239 1233 1233 1230 1230 1236 1242 1254 1266 1278 1290 1302 1308 1308 1308 1302 1293 1284 1275 1266 1260 1251 1245 1239 1236 1230 1224 1215 1206 1197 1188 1182 1176 1170 1161 1152 1143 1137 1128 1122 1116 1107 1101 1095 1095 1095 1095 1095 1095 1095 1092 1092 1092 1092 1107 1131 1158 1182 1209 1227 1227 1227 1218 1203 1188 1173 1161 1152 1155 1158 1167 1182 1200 1221 1242 1263 1287 1311 1305 1299 1290 1275 1257 1260 1272 1284 1290 1299 1305 1314 1323 1344 1368 1392 1422 1452 1473 1491 1506 1500 1491 1482 1473 1464 1482 1506 1530 1539 1551 1548 1530 1515 1494 1473 1458 1449 1440 1431 1422 1410 1392 1377 1353 1323 1296 1272 1251 1233 1221 1209 1200 1194 1188 1185 1179 1179 1182 1185 1185 1182 1182 1176 1173 1164 1155 1143 1134 1125 1116 1110 1101 1095 1089 1086
1080 861 861 861 861 861 861 861 861 861 864 864 864 867 867 867 867 867 867 867 867 864 864 861 861 861 861 861 861 861 861 861 861 861 861 861 861 861 861 861 861 861 861 861 861 861 861 861 861 861 864 864 867 867 867 867 870 870 870 873 873 873 870 864 861 861 861 861 861 861 861 861 861 861 861 861 861 861 861 861 861 861 861 861 861 861 861 861 861 861 861 861 861 861 861 861 861 861 861 864 864 864 864 861 861 861 861 864 864 864 864 864 864 861 864 864 864 864 864 864 864 864 864 864 864 864 864 867 867 867 873 879 891 927 963 1005 1047 1089 1107 1122 1140 1155 1167 1179 1191 1200 1203 1206 1206 1203 1200 1194 1185 1179 1170 1164 1158 1152 1146 1137 1128 1122 1122 1122 1128 1131 1134 1128 1122 1113 1101 1092 1095 1098 1101 1098 1095 1086 1074 1062 1068 1071 1080 1098 1116 1128 1140 1149 1152 1158 1155 1146 1137 1128 1122 1119 1122 1128 1134 1140 1143 1140 1137 1125 1110 1095 1080 1068 1053 1041 1029 1017 1005 996 1008 1020 1038 1065 1092 1116 1140 1164 1179 1197 1212 1224 1239 1245 1251 1257 1263 1272 1278 1284 1287 1278 1269 1260 1248 1239 1236 1233 1230 1227 1224 1221 1218 1215 1215 1218 1221 1230 1236 1248 1257 1269 1284 1296 1305 1308 1308 1299 1287 1275 1263 1254 1245 1236 1230 1227 1224 1218 1212 1206 1197 1188 1176 1170 1167 1158 1152 1143 1134 1128 1119 1113 1104 1095 1086 1077 1074 1074 1077 1080 1083 1083 1086 1089 1092 1095 1113 1137 1164 1194 1224 1245 1251 1254 1248 1230 1215 1197 1182 1170 1170 1167 1176 1188 1200 1227 1251 1275 1296 1317 1317 1314 1305 1293 1281 1287 1299 1311 1323 1332 1341 1347 1353 1365 1383 1401 1431 1461 1485 1503 1524 1521 1515 1509 1500 1491 1506 1530 1551 1557 1560 1551 1530 1506 1482 1458 1440 1431 1425 1416 1407 1398 1377 1356 1335 1311 1290 1269 1248 1230 1218 1206 1200 1194 1188 1188 1191 1194 1197 1203 1203 1203 1200 1194 1188 1176 1161 1143 1131 1116 1104 1098 1092 1086 1083 1080
1101 861 861 861 861 861 861 861 861 864 864 864 864 864 864 864 864 864 864 864 864 864 864 861 861 861 861 861 861 861 861 861 861 861 861 864 861 861 861 861 861 861 861 861 861 861 861 861 861 861 864 864 864 867 867 867 867 867 870 870 870 870 867 864 861 861 861 861 861 861 861 861 861 861 861 861 861 861 861 861 861 861 861 861 861 861 861 861 861 861 861 861 861 861 861 861 861 861 861 861 864 864 864 864 864 864 864 864 864 864 864 864 861 861 861 864 864 864 864 864 864 864 864 864 864 864 864 864 867 867 870 876 885 918 951 990 1029 1068 1086 1104 1119 1134 1149 1167 1185 1203 1212 1221 1224 1221 1221 1212 1206 1200 1191 1185 1176 1170 1164 1155 1146 1140 1140 1140 1143 1146 1146 1140 1134 1125 1113 1104 1107 1113 1116 1110 1107 1098 1083 1074 1077 1083 1092 1110 1125 1137 1149 1161 1164 1170 1167 1161 1152 1146 1140 1140 1146 1149 1155 1158 1164 1155 1146 1137 1119 1104 1095 1089 1080 1065 1053 1038 1023 1008 1023 1038 1059 1086 1110 1134 1158 1179 1194 1209 1218 1227 1236 1239 1242 1245 1251 1260 1263 1269 1275 1263 1254 1245 1233 1224 1221 1215 1212 1206 1203 1200 1197 1194 1200 1206 1215 1227 1239 1248 1257 1266 1278 1290 1299 1302 1305 1293 1278 1263 1251 1239 1230 1221 1215 1212 1212 1209 1203 1200 1191 1179 1167 1161 1155 1149 1140 1134 1125 1119 1110 1101 1092 1080 1068 1056 1053 1053 1053 1062 1074 1077 1083 1089 1101 1110 1128 1155 1182 1209 1233 1257 1266 1272 1266 1251 1236 1215 1194 1185 1185 1185 1197 1212 1230 1248 1269 1287 1305 1323 1323 1320 1317 1308 1299 1305 1317 1329 1344 1359 1371 1377 1383 1392 1401 1413 1440 1467 1494 1518 1542 1542 1542 1539 1527 1515 1524 1542 1557 1557 1557 1545 1521 1497 1470 1446 1425 1413 1404 1392 1383 1374 1353 1332 1311 1287 1266 1248 1233 1218 1212 1203 1200 1197 1194 1200 1203 1209 1215 1221 1221 1218 1218 1209 1203 1191 1173 1155 1140 1125 1113 1110 1107 1104 1101 1101
1125 861 861 861 861 861 861 861 861 861 864 864 864 864 864 864 864 864 864 864 864 864 864 864 864 861 861 861 861 861 861 861 861 861 861 864 861 861 861 861 861 861 861 861 861 861 861 861 861 861 864 864 864 867 867 867 867 867 867 867 867 867 867 864 861 861 861 861 861 861 861 861 861 861 861 861 861 861 861 861 861 861 864 861 861 861 861 861 861 861 861 861 861 861 861 861 861 861 861 861 861 864 864 867 867 864 864 864 864 864 864 861 861 861 861 861 861 864 864 864 864 864 864 864 864 864 864 864 867 867 870 873 882 909 939 972 1011 1047 1065 1083 1098 1113 1125 1149 1176 1200 1212 1224 1230 1230 1230 1227 1221 1215 1206 1200 1191 1185 1176 1167 1158 1152 1149 1149 1152 1158 1161 1155 1149 1143 1131 1122 1122 1125 1125 1119 1116 1107 1095 1086 1092 1098 1107 1119 1131 1146 1158 1170 1176 1182 1179 1173 1167 1164 1164 1164 1167 1173 1176 1176 1176 1167 1155 1143 1131 1119 1113 1110 1104 1089 1074 1059 1041 1026 1041 1059 1080 1104 1131 1155 1179 1197 1206 1212 1218 1221 1224 1227 1230 1236 1242 1248 1254 1260 1263 1254 1245 1236 1224 1212 1206 1200 1194 1188 1182 1176 1173 1170 1179 1188 1200 1215 1233 1242 1251 1257 1269 1281 1290 1293 1296 1284 1269 1254 1239 1224 1215 1206 1200 1200 1197 1197 1194 1191 1182 1170 1158 1149 1140 1134 1128 1122 1113 1107 1098 1089 1080 1068 1056 1044 1038 1035 1038 1050 1059 1074 1086 1098 1116 1134 1152 1173 1191 1212 1236 1254 1266 1278 1275 1266 1257 1233 1209 1197 1194 1194 1212 1236 1260 1278 1299 1314 1326 1338 1335 1332 1326 1320 1311 1317 1329 1341 1359 1377 1392 1404 1413 1419 1425 1434 1458 1482 1509 1533 1557 1566 1569 1569 1557 1545 1548 1560 1566 1560 1554 1539 1512 1488 1461 1437 1413 1401 1386 1374 1359 1347 1326 1305 1284 1266 1245 1233 1224 1215 1215 1215 1212 1212 1212 1215 1221 1227 1233 1236 1236 1233 1233 1224 1215 1203 1185 1167 1152 1137 1125 1128 1128 1128 1128 1125
1143 861 861 861 861 861 861 861 861 861 861 864 864 864 864 864 864 864 864 864 864 867 867 864 864 864 861 861 861 861 861 861 861 861 861 864 864 864 861 861 861 861 861 861 861 861 861 861 861 861 861 864 867 867 867 867 867 867 867 867 867 867 867 864 864 861 861 861 861 861 861 861 861 861 861 861 861 861 861 861 861 861 864 864 861 861 861 861 861 861 861 861 861 861 861 861 861 861 861 861 861 864 864 867 864 864 864 861 861 861 861 861 861 861 861 861 861 864 864 864 864 864 864 864 864 864 864 864 867 867 870 870 879 897 918 948 981 1017 1041 1065 1086 1101 1116 1140 1164 1188 1200 1212 1215 1215 1212 1209 1206 1200 1197 1191 1188 1185 1179 1170 1158 1152 1149 1149 1155 1164 1170 1170 1167 1161 1152 1143 1140 1140 1137 1131 1128 1119 1113 1107 1113 1119 1125 1137 1146 1158 1170 1179 1185 1191 1191 1185 1182 1179 1176 1176 1179 1185 1185 1188 1188 1176 1164 1152 1143 1134 1134 1134 1131 1116 1104 1086 1065 1047 1062 1077 1098 1128 1155 1173 1191 1206 1206 1206 1206 1206 1209 1212 1218 1224 1230 1239 1245 1251 1254 1248 1239 1230 1218 1206 1200 1194 1185 1176 1164 1158 1155 1152 1161 1173 1188 1206 1224 1233 1242 1251 1263 1272 1281 1284 1287 1275 1260 1245 1227 1212 1200 1194 1185 1185 1185 1185 1185 1182 1173 1161 1149 1137 1125 1116 1113 1107 1101 1095 1089 1080 1071 1059 1047 1035 1029 1023 1023 1035 1050 1065 1083 1104 1125 1149 1167 1182 1197 1212 1227 1242 1260 1275 1281 1278 1275 1251 1227 1209 1206 1200 1224 1257 1287 1308 1329 1341 1350 1356 1350 1344 1338 1329 1323 1329 1338 1347 1368 1389 1410 1425 1443 1452 1458 1467 1485 1503 1527 1551 1575 1587 1599 1605 1590 1578 1578 1578 1578 1566 1554 1533 1506 1479 1452 1428 1407 1392 1374 1356 1335 1314 1293 1275 1257 1245 1233 1233 1233 1233 1239 1242 1245 1242 1242 1245 1248 1251 1251 1254 1251 1248 1242 1233 1224 1212 1194 1176 1161 1149 1140 1143 1149 1149 1146 1143
1161 861 861 861 861 861 861 861 861 861 861 864 864 864 864 861 861 861 864 864 864 867 867 864 864 864 861 861 861 861 861 861 861 861 864 864 864 864 864 864 861 861 861 861 861 861 861 861 861 861 864 867 867 870 870 870 870 867 867 867 867 867 864 864 864 861 861 861 861 861 861 861 861 861 861 861 861 861 861 861 861 861 861 864 864 864 861 861 861 861 861 861 861 861 861 861 861 861 861 861 861 861 864 864 864 864 864 864 861 861 861 861 861 861 861 861 861 861 864 864 864 864 864 864 861 864 864 864 867 867 867 870 876 888 900 924 954 984 1014 1044 1071 1092 1110 1134 1158 1179 1185 1191 1194 1194 1191 1191 1188 1188 1182 1179 1176 1173 1170 1164 1155 1149 1149 1149 1155 1167 1176 1179 1179 1176 1170 1164 1161 1158 1152 1146 1140 1137 1131 1128 1131 1134 1140 1152 1161 1173 1182 1191 1197 1203 1203 1200 1197 1194 1188 1188 1191 1194 1197 1200 1200 1188 1176 1167 1161 1155 1155 1158 1155 1143 1131 1110 1089 1068 1083 1098 1116 1146 1176 1191 1197 1203 1197 1191 1191 1191 1194 1197 1203 1209 1218 1227 1233 1242 1248 1242 1233 1224 1215 1203 1197 1191 1182 1167 1152 1143 1137 1134 1146 1161 1176 1194 1212 1224 1233 1242 1254 1266 1272 1275 1278 1266 1254 1239 1221 1200 1188 1182 1173 1173 1173 1173 1173 1173 1164 1152 1140 1125 1107 1098 1098 1095 1089 1086 1080 1071 1062 1050 1038 1029 1020 1014 1017 1029 1041 1059 1077 1098 1116 1134 1149 1167 1182 1197 1209 1224 1245 1266 1278 1281 1287 1266 1245 1230 1221 1212 1233 1263 1293 1314 1338 1350 1356 1365 1359 1353 1347 1341 1335 1338 1347 1356 1374 1389 1410 1431 1452 1467 1479 1494 1509 1527 1548 1572 1599 1614 1626 1632 1623 1611 1608 1602 1599 1581 1563 1536 1506 1473 1452 1434 1416 1401 1386 1368 1350 1329 1305 1281 1260 1251 1242 1248 1257 1266 1266 1269 1266 1260 1254 1260 1266 1269 1269 1272 1266 1260 1251 1239 1227 1212 1194 1179 1173 1167 1161 1167 1170 1170 1164 1161
1176 861 861 861 861 861 861 861 861 861 861 864 864 861 861 861 861 861 864 864 864 867 867 864 864 864 864 861 861 861 861 861 861 861 861 864 864 864 864 864 861 861 861 861 861 861 861 861 861 864 864 867 867 870 870 870 870 867 867 864 864 864 864 864 864 861 861 861 861 861 861 861 861 861 861 861 861 861 861 861 861 861 861 861 864 864 864 864 861 861 861 861 861 861 861 861 861 861 861 861 861 861 861 861 864 864 864 864 861 861 861 861 861 861 861 861 861 861 861 861 864 864 864 864 861 864 864 864 867 867 867 870 870 879 885 903 927 951 987 1020 1053 1080 1110 1131 1149 1167 1164 1161 1164 1167 1170 1173 1173 1173 1167 1161 1158 1155 1152 1149 1149 1146 1146 1146 1155 1167 1176 1185 1191 1194 1188 1185 1179 1173 1170 1164 1161 1155 1152 1146 1146 1146 1149 1161 1170 1182 1194 1206 1212 1218 1218 1215 1212 1209 1203 1200 1206 1209 1212 1215 1215 1206 1194 1188 1188 1188 1185 1179 1173 1158 1143 1125 1107 1089 1098 1110 1128 1152 1176 1185 1191 1194 1188 1182 1179 1176 1173 1179 1182 1191 1200 1212 1221 1227 1236 1230 1227 1218 1209 1197 1191 1188 1185 1170 1158 1146 1137 1128 1137 1149 1161 1173 1188 1200 1212 1227 1242 1257 1266 1269 1272 1263 1248 1233 1215 1197 1188 1185 1179 1176 1170 1167 1161 1158 1149 1143 1131 1113 1098 1086 1083 1083 1080 1077 1071 1062 1053 1044 1032 1020 1014 1008 1011 1020 1032 1047 1065 1083 1101 1122 1143 1161 1182 1194 1206 1221 1245 1266 1284 1293 1302 1287 1269 1254 1239 1224 1242 1269 1293 1320 1344 1359 1368 1374 1371 1368 1365 1359 1353 1356 1362 1371 1386 1404 1422 1446 1470 1488 1506 1524 1536 1551 1572 1596 1620 1635 1650 1656 1647 1638 1629 1620 1608 1587 1563 1536 1503 1473 1458 1443 1428 1416 1404 1386 1368 1350 1323 1296 1275 1269 1260 1272 1284 1296 1290 1287 1281 1272 1263 1272 1278 1287 1287 1287 1281 1272 1263 1245 1227 1212 1197 1185 1182 1185 1188 1191 1194 1191 1182 1179
1197 861 861 861 861 861 861 861 861 864 864 864 861 861 861 861 864 864 864 867 867 867 867 864 864 864 864 861 861 861 861 861 861 861 861 861 864 864 864 864 861 861 861 861 861 861 861 861 861 861 864 864 867 870 870 870 867 867 864 864 864 861 864 864 864 864 864 861 861 861 861 861 861 861 861 861 861 861 861 861 861 861 861 861 864 864 864 867 864 864 861 861 861 861 861 861 861 861 861 861 861 861 861 861 864 864 864 864 864 861 861 861 861 861 861 861 861 861 861 861 864 864 864 864 861 864 864 864 867 867 867 870 870 873 876 891 909 930 963 999 1032 1065 1098 1119 1134 1146 1143 1140 1143 1149 1158 1161 1161 1161 1158 1152 1149 1143 1137 1140 1140 1143 1143 1146 1155 1167 1176 1188 1197 1200 1200 1197 1191 1185 1179 1176 1170 1167 1164 1164 1164 1164 1167 1176 1185 1197 1206 1218 1224 1230 1230 1230 1227 1221 1215 1215 1221 1224 1227 1227 1227 1221 1215 1209 1206 1203 1194 1188 1176 1164 1152 1137 1119 1104 1113 1122 1134 1152 1167 1176 1182 1185 1179 1170 1167 1161 1155 1158 1164 1170 1185 1197 1206 1215 1221 1218 1215 1206 1197 1188 1185 1185 1182 1173 1164 1152 1140 1125 1134 1143 1152 1161 1173 1185 1200 1215 1230 1248 1260 1266 1269 1260 1245 1230 1212 1194 1188 1185 1182 1173 1164 1155 1149 1140 1137 1131 1125 1107 1089 1077 1074 1068 1068 1068 1065 1056 1047 1038 1026 1014 1008 1005 1005 1014 1026 1038 1053 1071 1095 1119 1140 1164 1188 1197 1206 1221 1248 1275 1293 1308 1320 1308 1293 1278 1260 1239 1254 1272 1293 1323 1350 1368 1380 1389 1389 1392 1389 1383 1377 1377 1380 1386 1407 1428 1449 1473 1494 1518 1539 1557 1569 1578 1596 1617 1638 1653 1668 1674 1668 1659 1644 1629 1611 1584 1557 1530 1503 1473 1464 1458 1449 1437 1425 1407 1386 1368 1344 1320 1302 1299 1296 1299 1308 1311 1305 1296 1290 1284 1278 1287 1296 1302 1302 1302 1296 1284 1272 1251 1230 1215 1203 1191 1200 1209 1218 1218 1221 1215 1203 1197
1209 861 861 861 861 861 864 864 864 864 864 864 861 861 861 864 867 867 867 867 867 867 867 867 867 867 864 864 864 861 861 861 861 861 864 864 864 867 864 864 861 861 861 861 861 861 861 861 861 861 861 864 867 870 870 867 867 867 864 864 864 864 864 864 864 864 864 864 861 861 861 861 861 861 861 861 861 861 861 861 861 861 861 861 861 864 864 864 864 864 861 861 861 861 861 861 861 861 861 861 861 861 861 861 861 864 864 864 864 864 861 861 861 861 861 861 861 861 861 861 864 864 864 864 864 864 864 867 867 867 867 870 870 873 873 882 897 912 945 975 1011 1047 1083 1101 1113 1125 1125 1122 1128 1137 1143 1146 1149 1149 1143 1140 1134 1128 1125 1128 1131 1137 1143 1146 1155 1167 1176 1188 1197 1203 1206 1206 1203 1197 1191 1185 1179 1179 1179 1179 1179 1182 1188 1194 1203 1212 1218 1227 1230 1236 1239 1239 1236 1233 1230 1227 1233 1239 1239 1239 1239 1236 1233 1227 1218 1209 1200 1188 1176 1167 1155 1143 1131 1122 1125 1131 1137 1149 1158 1167 1173 1176 1170 1161 1152 1146 1137 1140 1146 1155 1167 1182 1191 1200 1206 1203 1197 1191 1182 1173 1173 1179 1179 1176 1173 1161 1146 1131 1134 1140 1146 1158 1170 1182 1194 1209 1227 1245 1257 1263 1266 1257 1242 1230 1212 1197 1185 1179 1173 1161 1146 1134 1131 1125 1122 1122 1116 1098 1083 1071 1062 1056 1056 1059 1059 1050 1044 1035 1023 1008 1005 1002 1005 1014 1026 1041 1059 1080 1107 1131 1155 1173 1194 1203 1215 1230 1257 1284 1302 1314 1326 1320 1317 1305 1287 1269 1278 1290 1305 1335 1362 1383 1395 1407 1410 1413 1410 1401 1392 1395 1398 1407 1428 1452 1476 1497 1518 1542 1563 1584 1599 1614 1629 1644 1659 1671 1683 1686 1674 1665 1647 1629 1605 1581 1554 1530 1506 1485 1476 1470 1461 1449 1437 1416 1392 1368 1353 1335 1326 1326 1329 1326 1326 1326 1314 1302 1296 1293 1293 1302 1314 1320 1320 1320 1311 1296 1281 1260 1239 1224 1218 1209 1218 1230 1236 1239 1239 1230 1218 1212
1221 861 861 861 864 864 864 864 864 864 864 861 864 864 864 867 870 870 870 870 870 867 867 867 867 864 864 864 864 861 861 861 864 864 864 864 867 867 864 864 861 861 861 861 861 861 861 861 861 861 861 864 864 867 867 867 867 867 867 867 864 864 864 864 864 864 864 864 861 861 861 861 861 861 861 861 861 861 861 861 861 861 861 861 861 861 861 861 861 861 864 861 861 861 861 861 861 861 861 861 861 861 861 861 861 861 861 864 864 864 861 861 861 861 861 861 861 861 861 861 864 864 864 864 864 864 867 867 867 870 870 870 870 870 873 879 888 897 924 954 987 1026 1065 1080 1092 1101 1104 1110 1116 1122 1131 1131 1131 1131 1128 1122 1119 1113 1110 1119 1125 1131 1140 1149 1158 1164 1173 1182 1191 1200 1206 1215 1212 1212 1209 1203 1197 1194 1197 1197 1200 1203 1209 1215 1221 1224 1227 1230 1233 1236 1239 1239 1242 1239 1239 1239 1242 1242 1245 1248 1248 1245 1245 1236 1227 1218 1203 1191 1179 1170 1161 1152 1146 1137 1137 1137 1140 1146 1152 1158 1164 1170 1161 1155 1143 1134 1122 1125 1131 1140 1152 1164 1173 1182 1191 1188 1188 1182 1176 1170 1173 1176 1179 1176 1170 1161 1146 1134 1137 1143 1152 1164 1179 1188 1200 1209 1227 1245 1254 1260 1266 1254 1242 1227 1212 1197 1185 1179 1173 1161 1152 1143 1140 1140 1134 1131 1125 1104 1083 1065 1056 1044 1044 1047 1047 1044 1038 1029 1017 1005 1002 1002 1005 1020 1035 1053 1071 1089 1113 1137 1158 1179 1200 1209 1221 1236 1257 1278 1296 1311 1323 1332 1338 1332 1317 1302 1302 1308 1317 1344 1371 1392 1407 1425 1428 1431 1428 1419 1407 1410 1416 1428 1452 1476 1500 1521 1542 1563 1587 1608 1623 1641 1656 1668 1680 1689 1698 1698 1686 1674 1653 1629 1608 1581 1557 1536 1521 1506 1494 1482 1473 1458 1446 1422 1395 1368 1359 1350 1344 1347 1353 1347 1341 1332 1320 1308 1302 1302 1305 1317 1332 1341 1338 1338 1323 1305 1287 1266 1248 1236 1233 1230 1236 1245 1254 1254 1254 1245 1230 1224
1242 861 861 864 864 864 867 864 864 864 864 861 864 864 867 870 870 873 873 873 870 867 867 867 864 864 864 861 861 864 864 864 864 864 864 864 864 864 864 864 861 861 861 861 861 861 861 861 861 861 861 864 864 867 867 867 867 867 867 867 867 867 867 867 867 864 864 864 861 861 861 861 861 861 861 861 861 861 861 861 861 861 861 861 861 861 861 861 861 861 864 864 864 864 861 861 861 861 861 861 861 861 861 861 861 861 861 864 864 864 864 864 864 861 861 861 861 861 861 861 861 861 864 864 864 867 867 867 867 867 867 867 870 870 873 876 879 885 909 933 963 999 1038 1056 1068 1080 1092 1104 1110 1116 1122 1122 1119 1119 1119 1119 1119 1122 1122 1128 1134 1140 1146 1152 1155 1155 1161 1173 1182 1194 1206 1218 1218 1221 1221 1218 1212 1212 1212 1215 1218 1221 1224 1227 1230 1230 1230 1227 1227 1227 1230 1230 1233 1233 1233 1233 1236 1236 1239 1242 1245 1245 1245 1239 1230 1218 1209 1197 1188 1179 1173 1167 1158 1152 1146 1140 1137 1140 1146 1152 1158 1164 1161 1158 1146 1131 1116 1122 1128 1134 1143 1152 1161 1170 1176 1176 1179 1176 1173 1167 1170 1173 1176 1170 1164 1152 1140 1128 1137 1143 1155 1170 1185 1194 1203 1212 1230 1245 1254 1260 1266 1254 1242 1227 1212 1197 1188 1182 1176 1167 1158 1155 1152 1152 1146 1140 1131 1107 1083 1062 1050 1035 1035 1035 1035 1032 1032 1023 1011 1002 999 999 1005 1023 1041 1059 1077 1092 1113 1134 1152 1176 1197 1209 1224 1239 1251 1263 1281 1302 1320 1338 1356 1359 1347 1335 1329 1323 1326 1350 1374 1398 1419 1440 1443 1446 1446 1434 1425 1428 1437 1449 1473 1500 1524 1542 1563 1584 1605 1623 1644 1662 1677 1689 1701 1707 1713 1710 1698 1686 1662 1638 1614 1593 1572 1557 1545 1533 1515 1500 1482 1464 1446 1422 1395 1371 1368 1365 1362 1359 1359 1350 1341 1329 1320 1308 1308 1311 1317 1332 1347 1356 1353 1350 1335 1314 1293 1275 1260 1251 1248 1248 1257 1266 1272 1272 1272 1263 1251 1245
1263 864 864 867 864 864 864 864 861 861 861 861 864 864 867 870 870 873 873 876 873 867 867 864 864 864 864 864 864 864 864 864 864 861 861 861 864 864 864 864 864 864 864 861 861 861 861 861 861 861 861 864 864 864 864 864 867 867 867 870 870 870 870 870 870 867 864 864 861 861 861 861 861 861 861 861 861 861 861 861 861 861 861 861 861 861 861 861 861 861 861 864 864 864 864 861 861 861 861 861 861 861 861 861 861 861 861 861 861 864 864 864 864 861 861 861 861 861 861 861 861 861 864 864 867 867 867 867 867 867 867 867 867 870 870 873 876 882 897 915 939 975 1011 1032 1050 1068 1086 1104 1116 1119 1125 1125 1122 1122 1122 1122 1125 1128 1131 1134 1137 1140 1143 1143 1143 1143 1146 1161 1173 1188 1206 1221 1227 1233 1236 1233 1230 1230 1230 1230 1233 1236 1236 1236 1236 1230 1227 1224 1218 1215 1215 1218 1221 1221 1221 1221 1221 1221 1227 1233 1236 1239 1239 1233 1227 1218 1212 1203 1197 1194 1191 1185 1173 1161 1149 1137 1131 1134 1134 1143 1152 1158 1161 1167 1158 1140 1122 1128 1134 1140 1143 1146 1152 1158 1164 1167 1170 1170 1170 1170 1170 1170 1164 1158 1149 1140 1128 1119 1131 1143 1155 1170 1185 1197 1206 1218 1233 1248 1257 1263 1266 1260 1248 1236 1221 1206 1197 1191 1188 1173 1161 1155 1152 1149 1146 1140 1131 1107 1083 1062 1044 1026 1026 1026 1026 1023 1023 1014 1005 996 993 990 996 1011 1029 1038 1047 1059 1074 1089 1107 1131 1152 1176 1197 1218 1236 1254 1278 1302 1329 1350 1374 1383 1377 1371 1365 1359 1356 1377 1395 1416 1437 1458 1464 1467 1464 1452 1443 1446 1458 1470 1497 1521 1545 1566 1584 1602 1617 1632 1653 1674 1692 1707 1725 1728 1731 1728 1713 1698 1674 1650 1626 1605 1587 1572 1557 1542 1524 1503 1485 1461 1440 1422 1401 1386 1383 1380 1377 1371 1368 1356 1344 1332 1326 1317 1317 1326 1335 1350 1365 1374 1368 1362 1344 1323 1302 1290 1275 1269 1269 1272 1281 1290 1299 1296 1293 1284 1269 1263
1278 867 867 864 864 864 861 861 861 861 861 864 864 867 867 870 870 873 873 876 873 870 867 867 867 864 864 864 864 864 864 861 861 861 861 861 861 864 864 864 864 864 864 861 861 861 861 861 861 861 864 864 864 864 864 864 867 867 870 870 870 873 870 870 870 867 864 864 861 861 861 861 861 861 861 861 861 861 861 861 861 861 861 861 861 861 861 861 861 861 861 861 864 864 864 864 861 861 861 861 861 861 861 861 861 861 861 861 861 864 864 867 864 864 864 861 861 861 861 861 861 861 864 867 867 867 864 864 864 864 864 867 867 867 870 873 876 882 891 900 921 954 990 1014 1038 1062 1086 1110 1125 1134 1146 1146 1143 1143 1140 1137 1137 1134 1134 1131 1125 1122 1119 1116 1119 1122 1128 1146 1164 1185 1206 1227 1236 1245 1251 1248 1245 1245 1245 1245 1245 1248 1248 1242 1239 1230 1224 1215 1212 1206 1203 1206 1209 1209 1206 1206 1203 1200 1206 1215 1224 1224 1227 1227 1221 1218 1212 1209 1206 1206 1206 1197 1185 1173 1155 1134 1122 1122 1119 1125 1137 1146 1155 1167 1164 1152 1140 1134 1131 1131 1134 1137 1143 1146 1152 1155 1155 1158 1161 1161 1158 1155 1149 1143 1134 1125 1116 1107 1119 1134 1149 1167 1185 1200 1212 1224 1239 1254 1260 1266 1269 1260 1251 1239 1221 1203 1194 1185 1179 1170 1158 1149 1140 1134 1128 1125 1116 1104 1089 1074 1053 1035 1026 1023 1017 1014 1014 1005 996 987 987 984 990 1002 1014 1020 1029 1035 1047 1056 1071 1092 1113 1146 1179 1209 1233 1257 1284 1311 1338 1362 1383 1398 1401 1404 1398 1392 1389 1407 1425 1443 1461 1479 1485 1488 1488 1479 1470 1473 1482 1494 1518 1542 1566 1584 1602 1614 1629 1644 1662 1683 1704 1722 1743 1743 1743 1740 1722 1707 1683 1656 1632 1614 1596 1581 1563 1545 1524 1506 1482 1461 1440 1422 1413 1401 1398 1398 1392 1386 1377 1365 1350 1341 1335 1329 1332 1344 1356 1368 1383 1392 1383 1374 1356 1335 1317 1305 1296 1290 1293 1296 1305 1317 1323 1320 1314 1302 1287 1278
1284 870 867 864 864 861 861 861 861 861 861 864 864 867 867 870 870 870 873 873 870 870 867 867 867 867 864 864 864 861 861 861 861 861 861 861 861 861 861 861 861 861 861 861 861 861 861 861 861 864 864 864 864 864 864 867 867 867 870 870 870 873 870 870 870 867 864 864 861 861 861 861 861 861 861 861 861 861 861 861 861 861 861 861 861 861 861 861 861 861 861 861 861 861 864 864 864 861 861 861 861 861 861 861 861 861 861 861 861 861 864 864 864 867 864 864 861 861 861 861 864 864 864 864 864 864 864 864 864 864 864 864 867 867 870 873 876 882 888 894 909 936 966 996 1029 1059 1086 1110 1128 1137 1146 1143 1140 1137 1134 1128 1125 1122 1122 1113 1104 1098 1095 1092 1098 1107 1116 1140 1161 1185 1212 1236 1248 1260 1266 1263 1263 1260 1260 1257 1257 1257 1254 1248 1242 1230 1218 1209 1200 1194 1191 1194 1197 1194 1194 1191 1185 1179 1185 1197 1206 1209 1212 1215 1212 1209 1209 1209 1209 1209 1209 1203 1191 1179 1155 1131 1116 1110 1104 1107 1116 1125 1140 1152 1155 1146 1140 1131 1125 1119 1122 1125 1131 1140 1146 1149 1152 1155 1155 1155 1149 1140 1131 1125 1119 1113 1107 1098 1116 1131 1149 1170 1191 1203 1218 1230 1242 1257 1263 1266 1266 1257 1248 1236 1218 1200 1188 1179 1170 1161 1152 1143 1128 1116 1110 1104 1101 1101 1098 1089 1068 1047 1032 1020 1008 1008 1005 996 987 981 981 981 984 993 999 1005 1014 1020 1026 1032 1047 1065 1083 1125 1167 1203 1236 1269 1299 1323 1350 1368 1389 1407 1419 1431 1428 1422 1422 1440 1458 1473 1488 1503 1506 1512 1515 1509 1503 1506 1509 1515 1539 1563 1581 1596 1614 1626 1638 1653 1671 1692 1710 1731 1752 1752 1752 1743 1728 1710 1683 1656 1629 1611 1593 1578 1560 1542 1524 1503 1485 1464 1443 1431 1422 1416 1413 1413 1407 1395 1386 1374 1362 1353 1350 1350 1356 1368 1380 1392 1404 1410 1398 1389 1374 1356 1341 1332 1323 1317 1317 1317 1326 1335 1341 1332 1326 1311 1293 1284
1281 867 864 864 864 861 861 861 861 861 861 864 864 864 867 867 867 867 867 867 867 867 867 867 870 867 867 867 864 864 864 861 861 861 861 864 864 864 864 864 861 861 861 861 861 861 861 861 861 864 864 864 864 864 867 867 870 870 873 873 873 873 873 873 870 867 864 864 861 861 861 861 861 861 861 861 861 861 861 861 861 861 861 861 861 861 861 861 861 861 861 861 861 861 861 864 864 864 864 861 861 861 861 861 861 861 861 861 861 861 861 864 864 864 864 864 864 864 864 864 864 864 864 864 864 864 864 864 864 864 864 864 867 867 870 873 876 879 882 888 900 924 945 981 1020 1053 1080 1104 1119 1128 1137 1134 1131 1128 1119 1113 1110 1107 1101 1092 1083 1077 1074 1074 1083 1095 1110 1137 1164 1188 1215 1239 1254 1266 1275 1275 1275 1272 1269 1266 1263 1260 1257 1248 1239 1227 1212 1200 1191 1182 1179 1182 1182 1179 1179 1176 1167 1161 1167 1176 1188 1191 1197 1200 1200 1200 1203 1206 1209 1206 1206 1200 1191 1179 1152 1125 1107 1098 1089 1089 1092 1098 1113 1128 1131 1128 1122 1116 1110 1107 1110 1113 1122 1134 1146 1152 1161 1161 1158 1155 1143 1128 1116 1107 1101 1098 1098 1098 1122 1146 1167 1182 1200 1215 1227 1239 1248 1257 1263 1263 1263 1254 1245 1233 1215 1197 1185 1173 1164 1158 1149 1137 1119 1101 1095 1092 1092 1098 1104 1098 1083 1065 1044 1020 1002 999 996 987 981 972 975 975 981 990 996 1005 1011 1020 1029 1035 1050 1065 1083 1131 1179 1221 1254 1290 1314 1335 1353 1371 1386 1404 1416 1431 1434 1437 1443 1458 1473 1485 1500 1515 1518 1524 1527 1524 1518 1524 1530 1536 1560 1581 1599 1617 1632 1647 1659 1674 1692 1710 1728 1743 1761 1761 1764 1758 1743 1728 1701 1671 1644 1623 1605 1587 1566 1548 1527 1509 1488 1470 1452 1443 1440 1437 1434 1431 1425 1410 1398 1389 1383 1377 1377 1374 1380 1392 1404 1413 1425 1425 1416 1404 1392 1380 1368 1359 1350 1344 1341 1338 1344 1350 1350 1338 1326 1311 1293 1281
1275 864 864 864 861 861 861 861 861 861 861 864 864 864 864 864 864 864 864 867 867 867 867 867 870 867 867 867 867 864 864 864 864 864 864 864 864 864 864 864 861 861 861 861 861 861 861 861 864 864 864 864 864 864 867 867 870 870 873 873 876 876 873 870 870 867 864 861 861 861 861 861 861 861 861 861 861 861 861 861 861 861 861 861 861 861 861 861 861 861 861 861 861 861 861 861 861 864 864 864 864 861 861 861 861 861 861 861 861 861 861 861 864 864 864 864 867 867 867 864 864 864 861 861 861 864 864 864 864 864 864 867 867 867 870 870 870 873 876 882 891 912 930 966 1005 1041 1065 1086 1101 1107 1116 1116 1113 1110 1101 1095 1089 1083 1077 1068 1056 1053 1056 1062 1074 1092 1110 1134 1161 1185 1206 1230 1245 1263 1272 1272 1272 1269 1263 1260 1254 1248 1242 1236 1230 1218 1203 1191 1179 1170 1164 1164 1164 1161 1161 1158 1149 1140 1146 1155 1164 1170 1176 1182 1185 1188 1194 1200 1203 1203 1203 1194 1185 1176 1149 1122 1101 1092 1083 1083 1083 1083 1086 1089 1092 1092 1092 1095 1098 1101 1107 1113 1125 1137 1149 1152 1158 1155 1149 1143 1128 1113 1101 1095 1086 1089 1098 1104 1128 1152 1173 1188 1203 1215 1227 1236 1242 1251 1254 1254 1254 1245 1236 1227 1209 1191 1179 1170 1161 1152 1146 1134 1116 1095 1089 1086 1083 1092 1098 1095 1083 1074 1047 1020 1002 993 987 981 972 966 969 972 978 987 996 1005 1017 1026 1035 1044 1059 1080 1098 1149 1200 1245 1275 1305 1323 1338 1353 1368 1380 1392 1407 1419 1428 1437 1446 1461 1476 1488 1503 1518 1527 1536 1539 1539 1536 1542 1548 1557 1578 1599 1620 1635 1653 1668 1680 1695 1713 1731 1743 1755 1767 1770 1773 1770 1758 1746 1719 1692 1662 1641 1620 1599 1578 1557 1536 1515 1497 1479 1464 1461 1461 1458 1455 1449 1440 1428 1413 1410 1407 1407 1404 1404 1407 1419 1428 1434 1443 1443 1431 1419 1410 1401 1395 1386 1380 1374 1368 1362 1359 1359 1353 1338 1323 1305 1287 1275
1266 864 861 861 861 861 861 861 861 861 861 864 861 861 861 861 861 864 864 864 867 867 867 867 867 867 867 867 864 864 864 864 864 864 867 867 867 867 867 864 861 861 861 861 861 861 861 861 864 861 861 861 864 864 867 867 870 870 873 873 873 873 870 867 867 864 861 861 861 861 861 861 861 861 861 861 861 861 861 861 861 861 861 861 861 861 861 861 861 861 861 861 861 861 861 861 864 864 864 864 864 864 864 861 861 861 861 861 861 861 861 861 864 864 864 867 867 864 864 864 864 861 861 861 861 864 864 864 864 864 864 864 864 867 867 867 870 870 873 876 885 900 912 945 981 1011 1035 1059 1074 1083 1092 1095 1098 1095 1086 1077 1068 1059 1053 1044 1035 1035 1041 1050 1068 1086 1107 1131 1155 1179 1203 1227 1239 1251 1260 1260 1260 1254 1251 1245 1236 1230 1224 1218 1215 1203 1191 1176 1164 1152 1149 1146 1143 1143 1140 1137 1128 1119 1122 1131 1140 1146 1155 1161 1167 1173 1182 1191 1197 1197 1194 1188 1176 1164 1140 1116 1098 1089 1083 1080 1077 1074 1068 1059 1056 1059 1059 1071 1083 1095 1107 1116 1128 1140 1149 1149 1149 1143 1134 1125 1110 1098 1086 1077 1071 1077 1092 1107 1128 1149 1170 1185 1203 1215 1224 1233 1236 1239 1242 1242 1242 1233 1227 1215 1200 1185 1173 1164 1152 1146 1137 1128 1110 1095 1086 1077 1071 1077 1086 1083 1077 1074 1047 1020 999 987 978 972 969 963 969 975 984 993 1002 1014 1026 1038 1047 1056 1074 1101 1125 1176 1227 1269 1293 1320 1332 1341 1350 1359 1368 1377 1389 1398 1410 1422 1437 1452 1464 1482 1497 1515 1527 1542 1551 1554 1557 1563 1569 1575 1596 1617 1638 1656 1674 1689 1704 1719 1734 1749 1758 1764 1770 1776 1779 1779 1770 1761 1737 1713 1686 1659 1635 1611 1587 1566 1545 1524 1506 1497 1485 1482 1485 1485 1476 1467 1458 1446 1431 1431 1434 1434 1431 1431 1434 1440 1449 1455 1461 1461 1452 1443 1437 1431 1425 1413 1404 1398 1389 1380 1374 1368 1359 1338 1317 1299 1278 1266
1269 861 861 861 861 861 861 861 861 861 861 861 861 861 861 861 861 861 864 864 864 864 864 867 867 867 864 864 864 864 864 864 867 867 867 867 867 867 864 864 861 861 861 861 861 861 861 861 861 861 861 861 864 864 867 867 870 870 870 870 870 870 867 864 864 861 861 861 861 861 861 861 861 861 861 861 861 861 861 864 861 861 861 861 861 861 861 861 861 861 861 861 861 861 861 861 861 864 864 864 864 864 864 864 864 861 861 861 861 861 861 864 864 864 864 864 864 864 864 864 861 861 861 861 861 864 864 864 864 864 864 864 864 864 864 867 867 870 870 873 879 888 900 924 954 984 1005 1029 1047 1059 1071 1074 1077 1077 1068 1059 1050 1041 1029 1023 1017 1020 1032 1044 1065 1086 1107 1131 1152 1176 1197 1221 1227 1233 1239 1239 1242 1236 1230 1224 1215 1206 1200 1197 1197 1185 1173 1161 1149 1137 1131 1128 1125 1122 1122 1116 1107 1095 1098 1107 1116 1122 1131 1140 1149 1155 1167 1176 1185 1185 1185 1176 1161 1146 1125 1104 1092 1089 1086 1083 1080 1074 1056 1035 1029 1029 1029 1050 1068 1089 1104 1122 1131 1137 1140 1134 1131 1125 1116 1104 1092 1077 1065 1062 1056 1065 1083 1101 1116 1134 1152 1173 1194 1206 1218 1227 1227 1227 1227 1224 1221 1215 1209 1200 1188 1176 1164 1152 1140 1131 1122 1113 1101 1089 1077 1062 1050 1053 1059 1059 1059 1056 1035 1008 990 981 972 966 966 966 981 996 1008 1023 1038 1047 1059 1068 1080 1092 1113 1137 1164 1203 1245 1278 1299 1320 1326 1332 1335 1338 1344 1350 1356 1365 1380 1395 1413 1428 1443 1461 1482 1503 1521 1542 1557 1563 1569 1578 1587 1596 1617 1635 1656 1674 1692 1707 1722 1737 1746 1752 1758 1761 1767 1767 1767 1764 1761 1755 1743 1725 1707 1677 1650 1626 1605 1581 1563 1542 1527 1518 1509 1509 1512 1512 1503 1491 1479 1467 1455 1455 1458 1461 1458 1455 1458 1467 1473 1479 1482 1482 1476 1467 1461 1455 1446 1437 1425 1413 1404 1395 1386 1377 1365 1344 1323 1302 1281 1269
1281 861 861 861 861 861 861 861 861 861 861 861 861 861 861 861 861 861 864 864 864 864 864 864 867 864 864 864 864 864 864 864 864 864 864 864 864 867 864 864 861 861 861 861 861 861 861 861 861 861 861 861 864 864 867 867 870 870 870 870 867 867 864 864 861 861 861 861 861 861 861 861 861 861 861 861 861 864 864 864 861 861 861 861 861 861 861 861 861 864 864 861 861 861 861 861 861 861 861 864 864 864 864 867 864 864 861 864 864 864 864 864 864 864 864 864 864 864 864 864 864 864 864 864 861 864 864 864 864 864 864 864 864 864 864 867 867 867 870 876 879 885 891 909 933 957 978 1002 1020 1035 1050 1056 1059 1059 1050 1041 1032 1023 1014 1011 1008 1017 1035 1053 1074 1098 1122 1140 1161 1173 1185 1197 1197 1200 1203 1212 1218 1215 1209 1203 1191 1179 1176 1176 1176 1167 1158 1149 1134 1122 1116 1113 1113 1113 1116 1110 1098 1089 1086 1089 1092 1104 1113 1125 1134 1143 1152 1161 1170 1173 1176 1170 1158 1146 1125 1104 1092 1089 1086 1083 1083 1074 1050 1029 1017 1017 1017 1038 1062 1080 1098 1113 1119 1122 1125 1122 1116 1107 1095 1083 1068 1053 1044 1047 1050 1065 1086 1110 1125 1143 1161 1179 1200 1209 1212 1218 1215 1215 1209 1206 1200 1194 1188 1182 1173 1164 1152 1140 1128 1119 1113 1104 1101 1095 1077 1059 1044 1038 1029 1029 1029 1029 1014 996 981 972 966 966 966 969 990 1011 1029 1047 1062 1074 1086 1098 1113 1131 1149 1173 1194 1224 1254 1278 1290 1305 1311 1314 1314 1317 1317 1323 1332 1341 1356 1371 1389 1404 1422 1443 1467 1491 1515 1539 1560 1569 1581 1593 1602 1617 1635 1653 1674 1692 1713 1725 1740 1749 1752 1752 1752 1752 1752 1749 1746 1746 1746 1746 1737 1731 1719 1692 1665 1641 1620 1599 1581 1563 1548 1542 1536 1536 1539 1542 1530 1518 1506 1494 1485 1482 1485 1485 1485 1482 1485 1494 1500 1503 1506 1506 1500 1494 1485 1476 1467 1452 1440 1428 1419 1410 1398 1386 1374 1356 1338 1317 1293 1281
1296 864 861 861 861 861 861 861 861 861 861 861 861 861 861 861 861 864 864 864 864 867 867 867 867 867 867 864 867 867 864 864 864 864 864 864 864 864 864 864 864 861 861 861 861 861 861 861 861 861 861 864 864 864 867 867 870 873 873 873 870 867 864 864 861 861 861 861 861 861 861 861 861 861 861 861 864 864 864 861 861 861 861 861 864 864 861 861 861 864 864 861 861 861 861 861 861 861 861 861 864 864 864 864 864 864 864 864 864 867 867 867 864 864 864 861 861 861 861 864 864 864 864 864 861 861 864 864 864 864 864 864 864 864 864 864 867 867 870 873 876 879 885 894 909 924 945 966 987 1005 1026 1032 1041 1044 1035 1026 1017 1008 1002 1005 1005 1017 1041 1062 1086 1110 1134 1149 1167 1173 1176 1179 1179 1182 1185 1194 1203 1197 1188 1179 1167 1155 1152 1155 1155 1149 1143 1134 1122 1107 1104 1104 1104 1107 1110 1104 1092 1080 1077 1074 1077 1089 1101 1110 1119 1125 1134 1143 1152 1158 1167 1161 1155 1146 1128 1110 1098 1092 1089 1083 1080 1071 1047 1023 1011 1011 1008 1029 1050 1068 1086 1101 1107 1110 1110 1104 1098 1089 1077 1062 1047 1035 1026 1038 1047 1068 1092 1119 1137 1155 1173 1188 1206 1209 1209 1206 1203 1197 1194 1188 1179 1176 1170 1164 1155 1149 1137 1125 1116 1107 1101 1098 1101 1101 1086 1065 1047 1026 1005 999 999 999 990 981 972 966 963 966 969 978 1002 1026 1047 1062 1077 1095 1110 1128 1146 1167 1185 1200 1218 1236 1254 1266 1275 1281 1284 1287 1290 1293 1296 1302 1311 1323 1335 1350 1365 1386 1404 1428 1452 1479 1506 1533 1557 1575 1590 1605 1617 1632 1653 1674 1692 1713 1734 1743 1749 1755 1749 1743 1737 1734 1731 1725 1722 1722 1725 1728 1725 1722 1716 1695 1674 1653 1635 1617 1602 1590 1578 1572 1563 1563 1566 1569 1560 1548 1539 1527 1518 1515 1518 1518 1515 1515 1515 1521 1524 1527 1530 1527 1521 1515 1503 1491 1479 1464 1452 1440 1431 1425 1413 1404 1389 1374 1356 1335 1311 1299
1311 861 861 864 864 864 864 861 861 861 861 861 861 864 864 864 864 864 864 867 867 864 864 864 864 864 864 864 864 864 864 864 864 864 867 867 867 867 864 864 864 864 861 861 861 861 861 861 861 861 861 864 864 864 867 867 870 870 870 870 867 867 864 864 861 861 861 861 861 861 861 861 861 861 861 861 864 864 861 861 861 861 861 861 864 864 864 864 864 864 864 861 861 861 861 861 861 861 861 861 861 864 864 864 864 864 864 864 864 867 867 867 864 864 861 861 861 861 861 861 864 864 864 861 861 861 861 864 864 864 864 864 864 864 864 864 867 867 867 870 873 876 879 882 888 897 912 930 948 969 990 1002 1014 1017 1014 1008 1002 996 993 1002 1008 1026 1047 1071 1092 1116 1137 1152 1167 1170 1167 1164 1167 1170 1173 1182 1188 1182 1170 1155 1143 1131 1128 1131 1137 1131 1128 1119 1107 1095 1092 1095 1098 1101 1104 1098 1086 1071 1068 1065 1065 1077 1089 1098 1104 1110 1116 1122 1128 1140 1152 1155 1152 1149 1137 1125 1113 1101 1089 1080 1074 1065 1041 1020 1008 1005 1002 1017 1032 1050 1071 1089 1095 1095 1095 1086 1080 1068 1056 1044 1032 1020 1017 1032 1047 1071 1098 1128 1143 1161 1176 1191 1206 1206 1203 1200 1191 1182 1176 1170 1164 1158 1152 1143 1137 1128 1119 1107 1098 1092 1089 1089 1095 1101 1086 1071 1053 1026 1002 990 987 984 978 972 969 969 966 978 993 1008 1029 1047 1065 1080 1092 1113 1134 1152 1170 1185 1197 1209 1218 1230 1239 1248 1254 1257 1263 1266 1266 1269 1269 1278 1296 1311 1329 1347 1368 1389 1407 1428 1449 1470 1497 1524 1548 1575 1599 1620 1638 1656 1677 1695 1713 1728 1743 1746 1749 1749 1737 1728 1719 1713 1710 1704 1698 1698 1701 1704 1704 1704 1701 1689 1674 1662 1647 1635 1623 1611 1602 1599 1593 1593 1596 1596 1587 1581 1572 1560 1551 1548 1548 1548 1548 1545 1545 1545 1545 1545 1545 1542 1533 1524 1509 1494 1479 1464 1452 1440 1434 1425 1416 1407 1395 1380 1368 1347 1323 1311
1323 864 864 864 864 864 864 864 861 861 864 864 864 864 867 864 864 864 864 867 867 864 864 864 864 864 864 861 861 861 861 861 864 864 867 870 867 867 864 864 864 864 861 861 861 861 861 861 864 864 864 864 864 864 864 867 867 867 867 867 864 864 864 864 864 861 861 861 861 861 861 861 861 861 861 861 861 864 861 861 861 861 861 864 864 864 864 864 864 864 864 861 861 861 861 861 861 861 861 861 861 861 861 861 864 864 864 864 867 867 864 864 864 861 861 861 861 861 861 861 861 861 861 861 861 861 861 861 864 864 864 864 864 864 864 864 864 867 867 867 870 873 876 879 882 885 891 897 909 924 939 948 960 969 972 975 978 978 984 1002 1020 1038 1053 1068 1083 1101 1116 1131 1146 1155 1158 1161 1158 1155 1155 1158 1161 1155 1146 1137 1125 1116 1113 1116 1119 1116 1113 1110 1098 1086 1086 1089 1092 1095 1095 1092 1080 1068 1062 1059 1056 1068 1077 1086 1092 1095 1104 1110 1122 1137 1155 1158 1158 1155 1140 1125 1110 1095 1077 1071 1065 1056 1041 1026 1014 1005 996 1008 1017 1032 1053 1077 1083 1086 1089 1080 1071 1059 1047 1032 1023 1014 1014 1035 1053 1080 1107 1137 1155 1173 1188 1197 1209 1206 1200 1194 1185 1173 1167 1161 1155 1146 1140 1131 1119 1107 1098 1089 1080 1077 1071 1074 1080 1089 1083 1071 1056 1029 1002 987 981 975 969 966 963 966 966 981 1002 1023 1047 1068 1086 1098 1113 1131 1152 1170 1182 1194 1203 1209 1215 1218 1224 1230 1233 1239 1242 1245 1251 1254 1257 1269 1290 1314 1332 1353 1374 1395 1416 1434 1452 1473 1497 1521 1545 1575 1605 1632 1656 1677 1698 1716 1728 1740 1749 1749 1749 1743 1728 1713 1704 1695 1689 1683 1677 1674 1677 1680 1680 1683 1680 1674 1668 1662 1653 1647 1638 1629 1623 1623 1620 1620 1623 1623 1617 1611 1602 1593 1584 1581 1581 1578 1575 1575 1572 1569 1566 1560 1554 1548 1536 1524 1506 1488 1470 1455 1440 1431 1422 1416 1407 1401 1392 1383 1371 1356 1335 1323
1323 867 867 870 867 867 864 864 861 864 864 867 867 870 870 867 864 864 864 864 864 867 867 864 864 864 861 861 861 861 861 864 864 864 867 867 867 864 864 864 864 864 861 861 861 864 864 864 864 864 864 864 864 864 867 867 867 864 864 864 861 861 861 861 861 861 861 861 861 861 861 861 861 861 861 861 861 861 861 861 861 864 864 864 864 864 864 864 864 864 864 861 861 861 861 861 861 861 861 861 861 861 861 864 864 864 864 864 864 864 864 864 864 864 864 864 861 861 861 861 861 861 864 864 864 864 864 864 864 864 864 864 864 864 864 864 864 867 867 867 870 870 873 873 876 876 879 882 888 894 903 912 918 927 933 936 948 960 975 1002 1026 1044 1056 1068 1077 1086 1095 1110 1122 1134 1140 1146 1140 1134 1131 1128 1128 1125 1122 1119 1110 1098 1095 1098 1101 1101 1098 1095 1086 1077 1077 1080 1083 1086 1089 1083 1071 1062 1056 1050 1047 1056 1065 1074 1077 1083 1092 1101 1116 1137 1155 1161 1161 1158 1143 1128 1110 1092 1074 1065 1056 1047 1038 1029 1017 1005 996 999 1005 1017 1038 1056 1068 1074 1077 1068 1059 1047 1035 1023 1017 1011 1014 1041 1065 1092 1119 1146 1164 1182 1194 1203 1209 1206 1200 1191 1179 1170 1161 1155 1149 1140 1134 1122 1104 1089 1077 1071 1062 1059 1053 1056 1065 1074 1074 1071 1062 1035 1008 990 978 966 963 960 960 960 960 978 1005 1029 1059 1086 1110 1122 1137 1152 1164 1176 1185 1191 1197 1197 1200 1203 1206 1209 1215 1221 1227 1233 1239 1251 1260 1278 1302 1329 1347 1368 1386 1404 1422 1443 1464 1488 1509 1533 1557 1584 1611 1638 1665 1692 1710 1725 1737 1746 1752 1752 1749 1740 1722 1701 1689 1680 1671 1665 1662 1656 1653 1650 1650 1650 1650 1650 1647 1647 1647 1647 1641 1638 1635 1635 1635 1638 1641 1644 1638 1635 1629 1620 1614 1611 1605 1602 1596 1590 1581 1572 1566 1554 1545 1533 1521 1509 1494 1476 1458 1440 1422 1410 1401 1392 1389 1383 1377 1371 1365 1350 1332 1320
1320 870 870 873 870 870 867 867 864 864 864 867 864 864 864 864 864 864 864 864 864 864 864 864 864 861 861 861 861 861 861 861 861 864 864 864 864 861 861 864 864 864 861 861 864 864 864 864 864 864 864 864 864 867 864 864 864 864 861 861 861 861 861 861 861 861 861 861 861 861 861 861 861 861 861 861 861 861 861 861 861 864 864 864 864 864 864 864 864 864 864 864 861 861 861 861 861 861 861 861 864 864 864 864 864 864 864 864 864 864 864 864 864 864 864 864 864 861 861 861 861 861 864 864 864 864 864 864 864 864 864 864 864 864 864 864 864 867 867 867 867 870 870 870 870 873 873 873 876 876 879 885 888 894 900 906 924 945 969 999 1029 1047 1056 1068 1071 1071 1077 1089 1101 1110 1119 1125 1119 1113 1107 1101 1095 1095 1098 1101 1092 1086 1080 1080 1083 1083 1083 1083 1074 1065 1068 1071 1074 1077 1077 1074 1062 1050 1044 1041 1038 1047 1053 1059 1065 1068 1080 1092 1110 1134 1158 1164 1161 1161 1146 1134 1116 1098 1080 1065 1053 1041 1035 1029 1020 1008 996 996 999 1005 1017 1029 1038 1044 1050 1041 1035 1026 1020 1014 1014 1014 1023 1053 1080 1107 1134 1158 1173 1188 1197 1203 1206 1203 1197 1188 1176 1161 1155 1149 1146 1137 1131 1119 1098 1077 1065 1056 1050 1047 1044 1044 1053 1062 1062 1065 1059 1038 1014 996 981 963 960 957 954 957 957 975 1002 1029 1065 1104 1131 1146 1161 1170 1176 1182 1182 1185 1185 1185 1188 1188 1191 1194 1200 1206 1215 1227 1236 1251 1263 1281 1308 1332 1356 1377 1398 1416 1437 1458 1482 1503 1527 1548 1572 1599 1626 1650 1677 1698 1716 1731 1740 1746 1749 1749 1746 1737 1719 1698 1680 1665 1650 1641 1632 1626 1626 1626 1623 1623 1623 1626 1629 1629 1635 1638 1632 1629 1629 1632 1635 1641 1647 1653 1650 1650 1647 1641 1635 1626 1620 1614 1605 1596 1584 1572 1560 1545 1530 1515 1500 1488 1473 1455 1440 1422 1404 1392 1380 1371 1368 1365 1362 1356 1353 1341 1329 1320
1317 873 873 876 876 873 870 867 867 864 864 864 864 864 861 861 861 864 864 864 864 864 864 864 864 861 861 861 861 861 861 861 861 861 864 864 861 861 861 861 864 864 864 864 864 864 864 864 864 864 864 864 864 867 864 864 864 864 861 861 861 861 861 861 861 861 861 861 861 861 864 864 864 864 864 864 861 861 861 864 864 864 864 864 864 864 864 864 864 864 864 864 861 861 861 861 861 861 861 861 864 864 864 864 864 861 861 861 861 864 864 864 864 864 864 864 864 864 864 861 861 861 864 864 864 864 864 864 864 864 864 864 864 864 864 864 864 867 867 867 867 867 867 870 870 870 870 873 873 876 876 879 882 885 888 891 912 936 960 990 1023 1038 1047 1053 1056 1059 1062 1071 1077 1086 1092 1101 1095 1092 1089 1083 1080 1080 1083 1083 1077 1068 1062 1059 1056 1059 1065 1065 1062 1056 1059 1065 1068 1071 1074 1068 1059 1047 1041 1038 1035 1038 1044 1050 1056 1062 1080 1101 1122 1143 1164 1167 1164 1158 1146 1134 1119 1104 1089 1077 1062 1050 1038 1026 1011 999 984 990 993 996 1005 1011 1017 1020 1023 1020 1017 1011 1008 1002 1008 1017 1032 1062 1092 1116 1137 1158 1170 1182 1194 1200 1206 1200 1194 1185 1173 1158 1146 1140 1131 1128 1125 1116 1098 1077 1065 1050 1038 1038 1038 1041 1050 1059 1062 1062 1059 1041 1023 1005 984 963 960 954 954 954 957 978 1008 1038 1077 1116 1143 1158 1173 1176 1182 1182 1179 1176 1173 1176 1176 1179 1185 1188 1197 1203 1215 1227 1242 1257 1272 1290 1314 1335 1359 1380 1404 1425 1446 1470 1494 1518 1542 1566 1590 1611 1635 1659 1680 1701 1716 1728 1737 1740 1746 1743 1740 1734 1716 1698 1677 1653 1629 1617 1602 1596 1599 1599 1599 1599 1599 1602 1605 1611 1617 1623 1617 1614 1614 1620 1623 1632 1644 1653 1656 1659 1659 1653 1647 1635 1626 1614 1605 1593 1581 1566 1551 1530 1512 1494 1476 1461 1446 1428 1413 1398 1383 1371 1362 1353 1347 1344 1338 1338 1338 1332 1323 1317
1305 873 876 879 879 879 876 873 867 864 864 861 861 861 861 861 861 861 861 861 861 861 864 864 864 861 861 861 861 861 864 864 864 864 864 864 861 861 861 861 864 864 864 864 864 864 864 864 864 864 864 864 867 867 867 864 864 864 861 861 861 861 861 861 861 861 861 861 861 861 864 864 864 867 867 864 864 864 864 864 864 864 864 864 864 864 864 864 864 864 861 861 861 861 861 864 864 861 864 864 864 864 864 864 861 861 861 861 861 861 864 864 864 864 864 864 864 864 864 864 861 861 861 864 864 864 864 864 864 864 864 864 864 864 864 864 864 867 867 867 867 867 867 867 870 870 870 870 873 873 873 876 879 879 882 885 900 921 942 975 1008 1026 1035 1044 1047 1047 1050 1056 1059 1062 1065 1065 1068 1071 1071 1068 1068 1065 1065 1062 1056 1047 1041 1032 1023 1029 1035 1038 1041 1041 1050 1056 1065 1068 1071 1065 1056 1044 1038 1032 1029 1032 1035 1041 1050 1056 1080 1104 1128 1146 1167 1170 1164 1158 1146 1137 1125 1110 1095 1083 1068 1053 1035 1017 1002 987 972 978 987 990 993 996 999 1002 1002 1002 1002 999 993 990 1002 1017 1038 1068 1098 1119 1134 1152 1161 1173 1185 1194 1200 1197 1191 1185 1170 1155 1140 1131 1119 1119 1119 1113 1101 1089 1071 1050 1032 1035 1038 1044 1056 1065 1065 1065 1059 1047 1032 1014 990 966 960 954 954 957 963 990 1026 1059 1092 1122 1143 1155 1167 1170 1176 1179 1170 1164 1164 1164 1167 1176 1185 1194 1203 1212 1227 1242 1257 1272 1284 1302 1320 1338 1359 1380 1401 1425 1452 1476 1503 1530 1554 1578 1599 1620 1641 1659 1680 1695 1707 1719 1725 1731 1734 1731 1731 1725 1713 1698 1674 1647 1623 1602 1584 1575 1578 1581 1581 1581 1578 1581 1581 1587 1593 1599 1596 1590 1590 1596 1599 1611 1623 1632 1641 1647 1647 1644 1641 1629 1617 1602 1593 1581 1569 1554 1542 1518 1494 1473 1455 1440 1422 1407 1392 1380 1365 1353 1341 1329 1326 1320 1317 1317 1317 1314 1308 1305
1293 873 879 882 879 876 873 870 864 864 861 861 861 861 861 861 861 864 864 864 864 867 867 864 864 864 861 861 861 861 864 864 867 864 864 864 861 861 861 861 861 864 864 864 864 864 864 864 864 867 867 870 870 870 867 864 864 861 861 861 861 861 861 861 861 861 861 861 861 861 861 864 864 864 864 864 864 864 864 864 864 864 864 864 864 864 864 864 864 861 861 861 861 861 861 864 864 864 864 864 864 864 864 861 861 861 861 861 861 861 861 861 861 861 864 864 864 864 864 864 864 861 864 864 864 864 864 864 864 864 864 864 864 864 864 864 864 867 867 867 867 867 867 867 870 870 870 870 870 870 873 873 876 876 879 879 891 906 924 957 993 1014 1023 1035 1038 1038 1041 1041 1044 1038 1035 1029 1041 1050 1056 1059 1059 1053 1047 1041 1032 1026 1014 1002 987 990 993 999 1011 1023 1035 1050 1062 1065 1068 1065 1053 1044 1035 1026 1023 1023 1026 1032 1044 1056 1080 1104 1125 1149 1170 1170 1167 1161 1152 1140 1128 1113 1095 1077 1059 1041 1020 1002 987 975 963 969 978 984 987 990 993 993 993 993 993 990 984 978 996 1014 1035 1068 1098 1119 1131 1143 1152 1161 1167 1176 1185 1185 1185 1182 1170 1158 1143 1128 1113 1113 1116 1113 1101 1092 1074 1056 1041 1038 1035 1038 1053 1065 1065 1062 1059 1047 1032 1014 990 966 960 954 954 966 981 1008 1044 1077 1095 1113 1128 1134 1140 1146 1155 1158 1155 1149 1152 1161 1167 1179 1191 1203 1218 1233 1248 1263 1278 1290 1305 1320 1338 1359 1377 1398 1419 1440 1461 1485 1512 1539 1560 1581 1599 1617 1632 1647 1665 1680 1692 1704 1710 1713 1716 1716 1716 1713 1704 1692 1671 1647 1620 1599 1575 1563 1560 1560 1560 1557 1557 1557 1560 1563 1569 1575 1569 1566 1566 1572 1578 1587 1599 1611 1617 1626 1629 1629 1629 1617 1602 1590 1578 1563 1551 1539 1527 1506 1482 1461 1440 1419 1404 1389 1374 1359 1344 1332 1323 1311 1305 1299 1293 1293 1293 1293 1293 1293
1278 873 876 879 876 873 867 867 864 861 861 861 861 861 861 864 864 867 867 870 870 870 867 867 864 864 864 864 864 864 864 864 867 867 864 864 861 861 861 861 861 864 864 864 864 861 864 864 864 867 870 873 870 870 867 864 861 861 861 861 861 861 861 861 861 861 861 861 861 861 861 861 861 861 861 861 864 864 864 861 861 861 861 861 861 861 861 861 861 861 861 861 861 861 861 861 864 864 864 864 864 864 861 861 861 861 861 861 861 861 861 861 861 861 861 864 864 864 864 864 864 864 864 864 864 864 864 864 864 861 864 864 864 864 864 864 864 864 864 864 867 867 867 867 867 870 870 870 870 870 870 873 873 876 876 879 888 897 912 945 981 1005 1020 1035 1032 1029 1029 1026 1026 1023 1020 1017 1026 1035 1041 1047 1050 1047 1038 1032 1026 1020 1011 996 984 981 981 984 999 1014 1029 1047 1062 1065 1065 1062 1053 1041 1026 1008 996 996 999 1011 1029 1047 1077 1107 1134 1152 1173 1173 1167 1161 1149 1134 1122 1107 1095 1077 1059 1044 1026 1008 993 978 963 966 969 975 981 987 990 990 987 987 984 981 978 972 990 1011 1035 1065 1098 1116 1125 1134 1140 1146 1152 1158 1167 1173 1176 1176 1167 1158 1146 1131 1116 1116 1116 1113 1104 1092 1077 1062 1044 1035 1023 1023 1038 1050 1053 1050 1047 1035 1023 1005 984 966 960 954 957 972 990 1020 1053 1083 1092 1101 1110 1113 1116 1122 1131 1137 1137 1137 1143 1155 1164 1179 1197 1212 1233 1251 1269 1281 1296 1311 1323 1341 1359 1380 1401 1419 1440 1458 1476 1500 1524 1548 1563 1581 1596 1605 1617 1629 1644 1659 1674 1689 1695 1695 1698 1698 1701 1698 1692 1686 1668 1644 1620 1596 1572 1554 1548 1539 1536 1536 1533 1536 1536 1539 1545 1548 1545 1539 1539 1548 1554 1563 1575 1584 1593 1599 1605 1608 1611 1599 1587 1575 1560 1542 1533 1524 1512 1494 1476 1455 1431 1407 1389 1374 1356 1341 1326 1314 1305 1296 1287 1278 1272 1272 1272 1272 1278 1278
1260 870 870 870 867 864 861 861 861 861 861 861 861 861 861 864 867 870 873 876 873 870 867 867 867 867 867 864 864 864 864 867 870 867 864 864 861 861 861 861 861 864 864 864 864 864 864 864 867 870 870 870 870 867 864 864 861 861 861 861 861 861 861 861 861 861 861 861 861 861 861 861 861 861 861 861 864 864 864 864 861 861 861 861 861 861 861 861 861 861 861 861 861 861 861 861 861 864 864 861 861 861 861 861 861 864 864 864 864 864 864 864 864 864 864 864 864 864 864 864 864 864 867 867 867 867 864 864 864 864 864 864 867 867 867 867 864 864 864 864 864 867 867 867 870 870 870 870 870 870 873 873 873 873 876 876 882 888 900 930 960 984 1005 1026 1026 1023 1023 1023 1023 1023 1020 1017 1023 1026 1032 1038 1044 1041 1035 1029 1023 1014 1005 990 978 972 969 972 987 1002 1017 1035 1050 1053 1059 1056 1044 1035 1014 990 975 975 978 993 1017 1044 1074 1107 1134 1155 1176 1176 1170 1161 1146 1128 1116 1104 1095 1080 1065 1050 1038 1026 1008 987 969 966 963 963 972 984 984 987 987 984 978 975 972 969 987 1008 1032 1065 1095 1110 1116 1125 1128 1128 1134 1146 1155 1161 1170 1173 1167 1161 1152 1140 1125 1122 1119 1116 1104 1095 1080 1062 1047 1029 1011 1005 1014 1023 1026 1029 1029 1014 999 987 975 960 957 951 954 972 990 1017 1047 1074 1080 1086 1089 1092 1098 1101 1107 1113 1116 1122 1134 1149 1164 1182 1200 1221 1245 1266 1284 1296 1311 1326 1344 1362 1380 1401 1422 1446 1467 1485 1503 1518 1536 1551 1563 1575 1584 1590 1596 1608 1620 1632 1650 1668 1674 1677 1680 1680 1683 1680 1677 1671 1656 1638 1617 1596 1572 1554 1539 1524 1518 1515 1512 1515 1518 1521 1524 1527 1521 1518 1518 1524 1530 1539 1545 1554 1563 1572 1578 1584 1587 1581 1575 1563 1548 1530 1518 1509 1497 1482 1467 1449 1428 1407 1389 1371 1353 1335 1320 1308 1296 1284 1275 1263 1257 1251 1248 1251 1257 1260
1239 867 864 864 864 861 861 861 861 861 861 861 861 861 864 867 870 873 873 876 876 876 873 873 870 870 867 864 864 864 867 867 870 867 867 864 864 861 861 861 861 861 864 864 864 864 864 867 867 867 870 870 867 864 864 864 864 864 861 861 861 861 861 861 861 861 861 861 861 861 861 861 861 861 861 861 864 864 864 864 861 861 861 861 861 861 861 861 861 861 861 861 861 861 861 864 861 861 861 861 861 861 861 861 861 864 864 864 864 864 864 864 864 864 864 864 864 864 864 864 867 867 867 867 867 867 867 864 864 864 864 867 867 867 867 867 867 864 864 864 864 867 867 867 870 870 870 870 870 870 873 873 873 873 873 873 879 882 891 912 933 957 981 1008 1014 1020 1026 1029 1032 1032 1032 1029 1026 1023 1026 1032 1041 1038 1035 1029 1020 1011 999 987 975 966 960 960 975 987 1002 1017 1029 1035 1041 1041 1032 1020 999 975 960 963 966 984 1014 1041 1071 1104 1131 1152 1176 1176 1170 1164 1146 1131 1119 1110 1101 1089 1077 1068 1056 1044 1023 1002 981 969 957 954 963 972 978 984 987 984 981 975 969 966 984 1005 1029 1059 1089 1101 1104 1110 1113 1116 1125 1140 1158 1164 1173 1176 1176 1176 1173 1164 1155 1149 1146 1137 1122 1110 1095 1077 1062 1041 1023 1014 1014 1014 1017 1020 1020 1005 993 981 969 960 954 951 954 969 984 1008 1035 1059 1065 1068 1074 1080 1086 1095 1101 1107 1113 1116 1128 1143 1158 1182 1203 1227 1251 1272 1287 1299 1311 1332 1350 1371 1392 1413 1434 1458 1479 1497 1515 1527 1536 1545 1551 1557 1563 1569 1572 1584 1596 1608 1626 1644 1653 1656 1656 1659 1659 1659 1653 1650 1638 1623 1608 1587 1569 1551 1530 1509 1503 1497 1494 1497 1497 1500 1500 1503 1500 1497 1497 1500 1506 1512 1518 1527 1533 1542 1548 1557 1563 1563 1557 1551 1536 1521 1506 1494 1482 1470 1455 1440 1425 1407 1389 1371 1353 1335 1320 1305 1293 1278 1266 1254 1245 1236 1230 1230 1236 1239
1218 864 861 861 861 861 861 861 861 861 861 864 864 864 864 867 870 873 873 873 876 876 876 873 870 870 867 864 867 867 867 867 867 867 864 864 864 861 861 861 861 861 864 864 864 864 864 867 867 867 867 867 864 864 864 864 864 864 864 864 861 861 861 861 861 861 861 861 861 861 861 861 861 861 861 864 864 864 864 861 861 861 861 864 864 864 864 864 864 864 864 864 864 864 864 864 864 861 861 861 861 861 861 861 861 864 864 861 861 861 861 864 864 864 864 864 864 864 864 864 867 867 867 867 867 867 864 864 864 864 864 867 867 867 867 867 867 867 867 864 867 867 867 867 870 870 870 870 870 870 870 870 870 870 870 870 873 876 879 891 900 918 942 966 990 1011 1029 1035 1041 1038 1032 1029 1026 1023 1026 1032 1035 1035 1032 1029 1017 1005 990 978 963 957 954 954 963 972 981 993 1002 1008 1014 1014 1008 1002 984 966 951 954 960 981 1011 1044 1074 1101 1128 1146 1164 1167 1164 1158 1140 1125 1113 1107 1098 1089 1083 1074 1059 1047 1029 1008 987 969 954 948 954 960 966 975 984 984 984 981 975 969 987 1005 1026 1053 1080 1089 1089 1092 1101 1107 1122 1140 1161 1173 1179 1188 1188 1191 1188 1179 1173 1164 1155 1146 1131 1116 1101 1086 1068 1050 1032 1017 1011 1002 1002 1005 1002 990 981 972 963 954 951 948 951 963 978 996 1017 1038 1041 1047 1053 1065 1074 1083 1089 1095 1101 1107 1119 1137 1152 1176 1203 1224 1248 1269 1284 1296 1308 1329 1350 1371 1395 1416 1440 1464 1485 1503 1521 1530 1533 1536 1536 1539 1539 1542 1545 1557 1569 1584 1602 1620 1629 1632 1635 1635 1635 1635 1629 1626 1614 1602 1590 1575 1560 1542 1521 1500 1491 1485 1479 1479 1476 1476 1476 1476 1473 1470 1470 1476 1479 1485 1491 1497 1506 1512 1521 1530 1539 1542 1542 1539 1527 1515 1497 1482 1467 1455 1443 1431 1419 1407 1389 1374 1356 1341 1326 1311 1296 1281 1266 1251 1239 1227 1215 1212 1215 1218
1197 861 861 861 861 861 861 861 861 864 864 864 864 864 864 867 867 870 870 873 870 870 870 867 867 867 867 867 867 867 867 867 864 864 864 864 864 861 861 861 861 861 861 864 864 864 864 864 864 864 864 864 864 864 864 864 864 864 864 864 864 861 861 861 861 861 861 861 861 861 861 861 861 861 861 861 861 861 861 861 861 861 861 861 861 861 861 861 861 861 861 861 861 861 861 864 861 861 861 861 861 861 861 861 861 861 861 861 861 864 864 864 864 864 864 864 864 864 864 864 864 867 867 867 867 867 864 867 867 867 867 867 867 867 864 864 867 867 867 867 867 867 867 870 870 870 870 867 867 870 870 870 867 867 870 870 870 873 873 879 885 894 912 930 954 981 1002 1014 1026 1029 1026 1023 1020 1017 1017 1023 1029 1029 1029 1023 1011 999 984 969 957 951 948 948 954 960 969 975 984 987 993 993 990 987 972 957 945 951 954 978 1011 1044 1071 1101 1125 1137 1152 1152 1152 1149 1134 1116 1107 1098 1092 1086 1083 1077 1062 1050 1029 1008 990 972 951 942 945 945 954 966 975 978 984 984 981 978 990 1005 1023 1044 1068 1074 1074 1074 1086 1101 1119 1143 1164 1179 1188 1197 1200 1203 1197 1188 1179 1167 1158 1146 1134 1122 1104 1086 1068 1053 1038 1020 1005 987 984 978 975 969 966 960 954 948 948 945 948 957 969 981 996 1011 1014 1014 1026 1041 1059 1062 1065 1071 1077 1083 1101 1122 1146 1170 1191 1215 1233 1251 1266 1281 1296 1317 1338 1362 1389 1413 1437 1458 1479 1497 1515 1521 1521 1521 1518 1512 1512 1512 1512 1527 1545 1563 1581 1599 1611 1617 1623 1623 1620 1617 1611 1605 1593 1581 1566 1551 1536 1521 1503 1485 1476 1470 1464 1461 1458 1455 1455 1452 1449 1446 1443 1446 1449 1455 1461 1467 1476 1485 1491 1500 1509 1515 1518 1521 1512 1503 1488 1470 1455 1443 1434 1425 1413 1401 1386 1371 1356 1344 1332 1317 1302 1287 1272 1257 1242 1224 1206 1200 1197 1194
1179 861 861 861 861 861 861 861 861 861 861 864 864 867 867 870 873 873 870 870 870 870 867 867 867 867 867 867 867 870 867 867 864 864 864 864 864 864 861 861 861 861 861 864 864 867 864 864 864 864 864 861 861 861 861 861 864 864 864 864 864 864 861 861 861 861 861 861 861 861 861 861 861 861 861 861 861 861 861 861 861 861 861 861 861 861 861 861 861 861 861 861 861 861 861 861 861 861 861 861 861 861 861 861 861 861 861 861 861 864 864 864 864 864 864 864 864 864 864 864 864 864 864 864 864 864 867 867 867 867 867 867 867 864 864 864 864 867 867 867 867 867 867 867 867 867 867 867 867 867 867 867 867 867 867 867 870 870 870 873 876 882 888 894 915 933 954 975 996 1005 1008 1011 1008 1005 1005 1011 1017 1017 1017 1017 1005 993 981 966 954 951 948 945 951 954 960 969 975 978 984 981 978 972 960 948 939 945 948 972 1005 1038 1068 1098 1122 1131 1140 1140 1137 1131 1122 1110 1101 1092 1083 1083 1083 1077 1065 1050 1032 1008 987 969 951 942 939 939 945 951 957 966 975 978 981 984 990 999 1011 1029 1047 1053 1053 1053 1071 1092 1110 1128 1149 1158 1170 1179 1185 1194 1191 1185 1176 1164 1152 1140 1128 1113 1098 1083 1068 1050 1029 1011 996 978 969 963 957 954 954 951 948 945 948 951 957 966 978 987 999 1008 1008 1011 1017 1032 1047 1047 1047 1047 1053 1059 1080 1107 1134 1155 1179 1197 1215 1233 1251 1272 1290 1314 1335 1362 1389 1416 1440 1461 1482 1500 1515 1518 1512 1509 1500 1491 1485 1488 1488 1503 1524 1542 1560 1578 1593 1605 1617 1617 1617 1611 1602 1593 1578 1563 1548 1533 1518 1503 1491 1476 1467 1458 1449 1446 1443 1437 1434 1428 1425 1422 1419 1422 1425 1428 1437 1443 1452 1461 1467 1473 1479 1488 1494 1500 1494 1491 1479 1461 1446 1434 1422 1413 1404 1395 1383 1371 1359 1347 1335 1323 1311 1296 1281 1263 1248 1227 1206 1194 1185 1179
1176 861 861 861 861 861 861 861 861 861 861 861 864 867 870 873 873 873 873 870 870 870 870 870 870 867 867 867 867 870 867 867 864 864 864 864 864 864 864 861 861 861 861 864 864 867 867 867 864 864 864 861 861 861 861 861 861 861 861 864 864 864 864 864 861 861 861 861 861 861 861 861 861 861 861 861 861 861 861 861 861 861 861 861 861 861 861 861 861 861 861 861 861 861 861 861 861 861 861 861 861 861 861 861 861 861 861 861 864 864 864 864 864 864 864 864 864 864 864 864 864 864 864 864 864 867 867 867 867 867 867 867 867 864 864 867 867 867 867 867 867 867 867 867 867 867 867 867 867 867 867 867 867 867 867 867 867 870 870 870 873 876 879 882 894 906 921 942 960 975 987 996 999 1002 1005 1005 1008 1011 1014 1014 1002 990 978 966 954 948 945 942 948 951 957 960 966 969 972 969 966 960 951 942 936 945 954 981 1014 1050 1074 1098 1113 1119 1125 1122 1116 1113 1104 1098 1092 1083 1077 1077 1080 1077 1068 1056 1038 1014 993 972 951 939 939 936 939 945 948 957 963 969 975 981 987 990 999 1011 1023 1029 1032 1038 1059 1080 1098 1113 1128 1137 1146 1155 1164 1173 1176 1170 1167 1152 1137 1125 1113 1101 1089 1077 1065 1041 1020 999 984 966 960 951 945 945 945 945 945 948 954 960 966 978 987 993 1002 1008 1008 1008 1014 1023 1035 1032 1029 1029 1035 1041 1065 1095 1125 1143 1164 1182 1200 1218 1242 1269 1293 1317 1341 1365 1392 1419 1443 1470 1491 1503 1515 1515 1506 1497 1482 1470 1464 1464 1464 1482 1503 1521 1539 1560 1578 1593 1611 1614 1614 1611 1599 1584 1569 1551 1536 1521 1506 1494 1482 1470 1461 1449 1443 1437 1431 1422 1416 1410 1404 1398 1398 1398 1401 1407 1419 1428 1434 1440 1446 1449 1452 1461 1467 1473 1476 1479 1467 1455 1440 1425 1410 1398 1392 1383 1377 1368 1359 1350 1338 1329 1317 1305 1290 1275 1257 1236 1215 1200 1185 1176
1182 861 861 861 861 861 861 861 861 861 861 864 867 870 870 873 873 873 873 873 873 873 870 870 870 867 867 867 864 864 864 864 864 864 864 864 864 864 864 864 861 861 861 864 864 867 867 867 864 864 864 861 861 861 861 861 861 861 861 861 861 864 864 864 864 864 861 861 861 861 861 861 861 861 861 861 861 861 861 861 861 861 861 861 861 861 861 861 861 861 861 861 861 861 861 861 861 861 861 861 861 861 861 861 861 861 861 861 861 864 864 864 864 864 864 864 864 864 864 864 864 864 864 864 864 867 867 867 867 867 864 864 864 867 867 867 867 867 867 867 867 867 867 867 867 867 867 867 867 867 867 867 867 867 867 867 867 867 870 870 870 873 873 876 882 888 900 915 930 945 960 975 984 993 999 999 1002 1005 1008 1008 996 984 975 963 951 948 942 939 942 945 951 954 957 960 960 957 954 948 942 936 936 948 963 990 1023 1059 1074 1092 1101 1104 1104 1101 1095 1089 1089 1086 1080 1074 1071 1074 1077 1077 1071 1062 1044 1023 999 978 954 939 939 936 939 942 945 948 951 957 963 972 978 984 987 993 996 1005 1014 1026 1044 1065 1083 1092 1104 1113 1119 1128 1140 1149 1149 1149 1146 1128 1113 1101 1092 1086 1077 1071 1059 1032 1005 984 969 957 951 945 942 942 939 945 951 960 966 975 981 987 996 999 1005 1008 1008 1008 1011 1014 1020 1017 1017 1020 1032 1047 1068 1095 1122 1137 1152 1170 1194 1218 1248 1278 1308 1332 1353 1374 1395 1419 1446 1470 1491 1503 1515 1509 1497 1482 1467 1452 1443 1446 1446 1464 1482 1503 1518 1536 1557 1581 1602 1608 1614 1614 1602 1593 1575 1560 1542 1530 1518 1509 1497 1488 1479 1470 1458 1446 1437 1425 1413 1401 1395 1386 1383 1386 1389 1395 1401 1410 1416 1422 1425 1425 1428 1434 1443 1449 1455 1461 1458 1449 1440 1422 1404 1392 1380 1371 1365 1356 1350 1344 1335 1326 1317 1308 1293 1278 1263 1245 1224 1209 1191 1182
1191 861 861 861 861 861 861 861 861 861 861 864 867 870 873 873 873 873 873 873 873 873 870 870 870 867 867 867 867 867 864 864 864 864 864 864 864 864 864 864 861 864 864 864 864 864 864 864 864 864 861 861 861 861 861 861 861 861 861 861 861 861 864 864 864 864 864 864 861 861 861 861 861 861 861 861 861 861 861 861 861 861 861 861 861 861 861 861 861 861 861 861 861 861 861 861 861 861 861 861 861 861 861 861 861 861 861 861 861 861 864 864 864 864 864 864 864 864 864 864 864 864 864 864 864 864 867 867 864 864 864 864 864 867 867 867 867 867 867 867 867 867 867 867 867 867 867 867 867 867 867 867 867 867 867 867 867 867 867 870 870 870 873 873 876 879 885 894 903 915 930 945 960 975 987 993 1002 1002 1005 1002 990 981 969 960 951 945 939 936 939 942 945 945 948 948 948 945 942 936 933 933 936 954 972 996 1026 1056 1065 1071 1077 1080 1080 1077 1071 1068 1068 1068 1068 1065 1062 1065 1071 1071 1068 1062 1047 1026 1005 981 954 939 936 933 933 936 939 942 942 948 954 960 966 972 981 984 990 996 1002 1008 1023 1038 1050 1059 1068 1077 1086 1095 1104 1113 1116 1116 1113 1101 1086 1077 1071 1068 1059 1050 1041 1017 996 981 969 957 951 945 942 942 939 948 957 969 978 987 993 993 996 996 993 993 993 990 993 1002 1011 1020 1029 1038 1053 1068 1086 1104 1125 1137 1152 1173 1200 1227 1257 1287 1317 1338 1362 1383 1401 1419 1443 1467 1485 1497 1509 1503 1488 1476 1458 1440 1431 1431 1431 1446 1464 1479 1500 1521 1542 1566 1590 1602 1611 1614 1605 1596 1584 1572 1557 1548 1536 1527 1518 1509 1497 1488 1476 1464 1449 1434 1419 1404 1395 1383 1377 1377 1374 1380 1383 1389 1392 1398 1401 1404 1407 1413 1419 1428 1437 1446 1446 1443 1437 1419 1401 1386 1371 1359 1350 1344 1338 1332 1326 1320 1311 1302 1290 1278 1263 1248 1233 1218 1200 1194
1200 861 861 861 864 864 864 864 864 864 864 864 867 870 873 873 873 873 873 873 873 870 870 870 867 867 867 867 867 867 867 864 864 864 864 864 864 867 864 864 861 864 864 864 864 867 864 864 864 864 861 861 861 861 861 861 861 861 861 861 861 861 861 864 864 867 867 867 864 861 861 861 861 861 861 861 861 861 861 861 861 861 861 861 861 861 861 861 861 861 861 861 861 861 861 861 861 861 861 861 864 864 861 861 861 861 861 861 861 861 864 864 864 864 864 864 864 864 864 864 864 864 864 864 864 864 864 864 864 864 864 864 864 864 867 867 867 867 867 867 867 867 867 867 867 867 867 867 867 867 867 867 867 867 867 867 867 867 870 870 870 870 870 873 876 876 882 888 891 906 924 942 960 978 990 996 1002 1002 1002 996 987 975 966 957 948 942 936 933 933 933 936 939 939 942 942 939 936 933 933 933 939 957 975 999 1023 1050 1053 1056 1059 1056 1053 1047 1038 1035 1038 1041 1044 1047 1050 1056 1062 1065 1062 1062 1047 1029 1008 981 954 939 933 930 930 933 936 936 939 942 948 951 960 966 972 978 984 990 993 999 1008 1014 1023 1032 1038 1050 1059 1068 1077 1089 1092 1092 1089 1080 1068 1062 1056 1050 1041 1029 1017 1002 990 975 966 954 951 945 942 942 942 951 966 978 987 993 996 993 990 984 981 978 975 975 981 996 1011 1029 1047 1065 1080 1095 1107 1119 1131 1146 1158 1179 1206 1236 1263 1293 1320 1344 1368 1386 1404 1422 1440 1461 1479 1488 1500 1494 1482 1470 1449 1431 1422 1419 1419 1431 1443 1458 1482 1506 1530 1554 1581 1590 1602 1608 1605 1602 1593 1584 1575 1566 1554 1545 1536 1527 1518 1509 1497 1485 1470 1455 1437 1422 1404 1386 1374 1368 1362 1362 1362 1365 1368 1371 1377 1380 1383 1392 1401 1407 1419 1428 1431 1431 1431 1416 1398 1383 1365 1347 1338 1329 1323 1317 1311 1305 1296 1290 1278 1269 1257 1245 1236 1221 1209 1200
1206 861 861 864 864 867 867 870 870 870 870 870 873 876 876 876 873 873 870 870 867 867 864 864 864 864 864 864 864 864 864 864 861 864 864 864 864 864 864 864 864 864 864 864 864 867 864 864 864 864 861 861 861 861 861 861 861 861 861 861 861 861 861 861 864 864 864 864 864 864 864 861 861 861 861 861 861 861 861 861 861 861 861 861 861 861 861 861 861 861 861 861 861 861 861 861 861 861 861 861 861 861 861 861 861 861 861 861 861 861 861 861 864 864 864 864 864 864 864 864 864 864 864 864 864 864 864 864 864 864 864 864 864 867 867 867 867 867 867 867 867 867 867 867 867 867 867 867 867 867 867 867 867 867 867 867 867 867 870 870 870 870 873 873 876 876 879 882 885 900 918 936 954 975 990 996 1002 999 996 990 981 972 963 954 945 939 933 930 930 927 930 930 933 933 933 933 930 930 933 936 942 960 978 999 1020 1038 1041 1044 1041 1035 1029 1017 1008 999 1005 1011 1017 1029 1038 1044 1050 1056 1056 1059 1047 1029 1011 984 954 936 933 927 927 930 933 936 939 942 945 948 954 960 969 978 987 990 990 993 996 999 1002 1008 1017 1026 1038 1050 1059 1068 1074 1077 1077 1068 1062 1053 1044 1035 1020 1005 990 984 981 972 963 954 951 945 942 945 948 960 975 993 990 990 984 978 972 966 963 960 966 969 981 1005 1029 1053 1074 1095 1107 1122 1131 1137 1146 1155 1167 1182 1203 1224 1254 1284 1314 1344 1371 1392 1407 1425 1443 1458 1470 1476 1482 1479 1470 1458 1440 1422 1410 1410 1407 1419 1434 1449 1476 1503 1524 1548 1569 1578 1587 1593 1593 1593 1590 1590 1587 1581 1575 1566 1554 1545 1533 1521 1512 1497 1485 1467 1449 1431 1413 1395 1380 1368 1356 1350 1344 1341 1347 1350 1353 1356 1359 1368 1374 1383 1395 1404 1410 1416 1419 1407 1392 1374 1356 1335 1323 1311 1299 1293 1287 1281 1275 1269 1260 1254 1245 1239 1233 1224 1212 1206
1209 864 864 867 867 867 870 870 870 870 870 870 870 870 870 870 870 867 867 864 864 864 864 864 864 864 864 864 861 861 861 861 861 864 864 864 864 864 864 864 861 861 864 864 864 867 864 864 864 861 861 861 861 861 861 861 861 861 861 861 864 864 864 864 864 864 864 864 864 864 864 864 864 861 861 861 861 861 861 861 861 861 861 861 861 861 861 861 861 861 861 861 861 861 861 861 861 861 861 861 861 861 861 861 861 861 861 861 861 861 861 861 861 864 864 864 864 864 864 864 864 864 864 864 864 864 864 864 864 864 864 864 867 867 867 867 867 867 867 867 867 867 867 867 867 867 867 867 867 867 867 867 867 867 867 867 867 867 870 870 870 873 876 879 879 879 879 882 885 897 912 930 951 969 984 990 996 993 990 984 975 966 960 951 945 939 933 927 927 924 924 924 927 927 927 927 927 927 930 936 945 963 981 996 1011 1026 1029 1032 1029 1023 1014 1002 987 978 981 987 996 1011 1026 1032 1038 1044 1047 1053 1044 1029 1014 981 951 933 930 924 924 927 930 933 936 939 942 945 951 960 969 978 990 996 999 1002 999 996 996 996 999 1008 1017 1029 1041 1050 1056 1059 1062 1056 1053 1044 1035 1023 1008 993 981 975 972 963 957 948 945 942 939 942 945 954 969 984 981 981 975 969 960 960 957 960 969 981 999 1023 1050 1071 1089 1110 1122 1137 1146 1155 1164 1170 1176 1191 1209 1230 1260 1293 1323 1350 1377 1395 1413 1431 1443 1455 1464 1467 1470 1464 1455 1446 1428 1410 1398 1395 1389 1401 1416 1437 1464 1494 1515 1533 1551 1557 1563 1569 1572 1575 1581 1584 1590 1590 1587 1581 1572 1560 1548 1539 1527 1512 1500 1482 1461 1443 1425 1407 1389 1371 1356 1344 1335 1326 1326 1326 1329 1332 1335 1341 1350 1359 1371 1380 1389 1398 1407 1395 1386 1371 1350 1329 1311 1296 1281 1269 1260 1254 1248 1245 1242 1236 1233 1230 1227 1221 1212 1206
1203 864 867 867 870 870 870 870 867 867 867 864 867 867 867 864 864 864 864 861 861 864 864 864 864 864 864 864 861 861 861 861 861 864 864 864 864 864 864 861 861 861 861 864 864 864 864 864 864 861 861 861 861 861 861 861 861 861 861 864 864 867 864 864 864 864 864 864 864 864 864 864 864 864 861 861 861 861 861 861 861 861 861 861 861 861 861 861 861 861 861 861 861 861 861 861 861 861 861 861 861 861 861 861 861 861 861 861 861 861 861 861 861 861 861 861 864 864 864 864 864 864 864 864 864 864 864 864 864 864 864 864 864 867 867 867 867 864 867 867 867 867 864 867 867 867 867 867 867 867 867 867 867 867 867 867 867 867 870 870 870 873 873 876 876 876 876 879 882 891 906 918 939 960 975 981 987 984 981 975 969 960 954 945 939 933 930 924 924 921 918 918 918 921 921 921 921 924 930 936 945 963 978 993 1005 1017 1020 1023 1020 1011 1002 990 978 966 969 969 981 996 1011 1020 1026 1035 1041 1047 1041 1029 1017 987 954 936 930 921 924 924 927 930 933 936 939 942 951 960 969 978 990 996 999 1005 999 996 993 990 987 993 1002 1008 1017 1029 1035 1041 1047 1044 1041 1035 1023 1014 999 984 972 966 960 954 948 942 939 936 936 939 942 951 966 978 975 972 966 960 954 954 954 960 978 996 1020 1044 1068 1086 1101 1119 1134 1149 1161 1173 1182 1185 1188 1200 1221 1242 1275 1308 1338 1362 1383 1404 1419 1437 1443 1452 1458 1455 1455 1449 1440 1431 1416 1401 1386 1377 1365 1380 1398 1419 1452 1482 1503 1515 1527 1530 1533 1536 1542 1551 1560 1572 1584 1587 1593 1593 1584 1578 1566 1554 1542 1527 1515 1494 1473 1452 1434 1416 1398 1383 1368 1350 1332 1314 1311 1305 1302 1305 1308 1314 1323 1332 1344 1353 1368 1380 1392 1389 1383 1371 1353 1332 1311 1290 1269 1254 1236 1227 1224 1221 1218 1218 1215 1215 1215 1212 1206 1203
1185 864 864 867 867 870 870 870 867 867 864 864 864 864 861 861 861 861 861 861 861 864 864 864 867 864 864 864 864 861 861 861 861 861 864 864 864 864 864 864 864 864 867 867 867 867 864 864 864 861 861 861 861 861 861 861 861 861 861 864 867 867 867 867 864 864 861 861 864 864 864 864 864 864 864 864 864 861 861 861 861 861 861 861 861 861 861 861 861 861 861 861 861 861 861 861 861 861 861 861 861 861 861 861 861 861 861 861 861 861 861 861 861 861 861 861 861 861 864 864 864 864 864 864 864 864 864 864 864 864 864 864 864 864 864 864 864 864 864 864 864 864 864 867 867 867 867 867 867 867 867 867 867 867 867 867 867 867 870 870 870 873 873 873 873 876 876 876 879 888 897 909 930 951 963 972 978 975 972 966 960 954 948 939 933 930 924 921 918 915 915 912 912 915 915 915 918 921 930 936 948 963 978 990 999 1008 1011 1011 1008 1002 993 981 969 960 960 960 969 984 996 1008 1017 1026 1032 1038 1035 1029 1020 990 960 939 930 921 921 924 924 927 930 933 939 942 951 960 969 978 987 993 996 999 996 993 990 987 984 984 987 990 996 1002 1011 1020 1029 1029 1029 1023 1014 1005 993 978 966 960 951 948 942 936 936 933 936 939 942 954 966 978 972 966 960 954 948 951 954 963 990 1014 1038 1062 1086 1098 1113 1128 1143 1158 1170 1185 1197 1203 1206 1218 1233 1251 1284 1317 1347 1371 1395 1413 1428 1440 1443 1443 1443 1437 1434 1428 1425 1419 1407 1392 1377 1362 1350 1365 1383 1404 1434 1467 1485 1494 1503 1503 1503 1503 1509 1515 1530 1545 1560 1575 1587 1593 1593 1593 1584 1572 1560 1542 1524 1506 1488 1470 1452 1434 1416 1398 1383 1365 1344 1329 1317 1305 1296 1293 1290 1296 1302 1308 1320 1329 1344 1359 1371 1371 1371 1362 1347 1329 1311 1290 1269 1251 1233 1221 1212 1203 1200 1197 1197 1197 1197 1194 1188 1185
1161 864 864 867 867 867 867 867 864 864 864 861 861 861 861 861 861 861 861 864 864 864 864 864 867 864 864 864 864 861 861 861 861 861 861 864 864 864 864 864 864 864 867 867 867 867 864 864 864 861 861 861 861 861 861 861 861 861 864 864 867 867 867 867 864 864 861 861 861 861 861 861 864 864 867 867 864 864 864 861 861 861 861 861 861 861 861 861 861 861 864 864 861 861 861 861 861 861 861 861 861 861 861 861 861 861 861 861 861 861 861 861 861 861 861 861 861 861 861 861 864 864 864 864 864 864 864 864 864 864 864 864 864 864 864 864 864 864 864 864 864 864 867 867 867 867 867 870 870 870 870 867 867 867 867 867 867 867 870 870 870 870 870 870 873 876 876 879 879 885 891 900 921 942 954 963 972 966 963 957 951 945 939 933 927 924 921 918 915 912 909 909 909 909 909 912 915 918 927 936 948 963 975 987 993 999 999 999 996 990 984 975 963 954 954 951 960 972 987 996 1005 1014 1017 1017 1014 1011 1002 978 951 933 927 918 918 921 924 927 930 933 936 942 951 957 966 972 978 984 987 987 984 981 981 984 987 990 993 996 996 993 996 999 1005 1005 1008 1005 999 993 984 972 960 954 945 942 939 936 936 933 933 939 945 954 963 972 966 957 951 948 945 954 966 981 1008 1038 1062 1080 1101 1113 1122 1134 1152 1167 1182 1197 1212 1218 1224 1236 1248 1263 1287 1317 1344 1371 1395 1410 1425 1434 1431 1428 1422 1419 1413 1410 1407 1401 1389 1377 1365 1350 1335 1353 1371 1392 1422 1449 1464 1470 1479 1476 1473 1473 1479 1485 1503 1521 1539 1557 1575 1587 1593 1596 1590 1581 1569 1554 1536 1521 1506 1491 1473 1455 1437 1419 1401 1383 1365 1347 1332 1317 1302 1293 1281 1281 1284 1287 1296 1305 1320 1335 1350 1350 1353 1347 1338 1326 1311 1293 1272 1254 1236 1218 1203 1185 1182 1179 1176 1176 1173 1170 1164 1158
1128 861 864 864 864 864 864 864 861 861 861 861 861 861 861 861 864 864 864 864 864 864 864 867 867 864 864 864 864 861 861 861 861 861 861 861 864 864 864 864 864 867 867 867 864 864 864 864 864 861 861 861 861 861 861 861 861 861 864 864 864 864 864 864 864 864 861 861 861 861 861 861 864 864 867 867 867 867 864 864 861 861 861 861 861 861 861 861 861 861 864 861 861 861 861 861 861 861 861 861 861 861 861 861 861 861 861 861 861 861 861 861 861 861 861 861 861 861 861 861 861 864 864 864 864 864 864 864 864 864 864 864 864 864 864 864 864 864 864 864 864 864 867 867 867 867 867 867 867 867 867 867 867 867 867 870 870 870 870 870 870 870 870 870 873 876 876 879 882 885 891 900 915 930 942 951 960 957 951 945 942 936 930 927 924 921 918 915 912 909 909 906 906 906 909 909 915 918 927 936 945 957 966 975 984 990 993 993 990 984 978 969 957 948 948 945 951 963 975 987 996 1002 1002 1002 996 990 981 960 939 927 921 918 918 921 924 924 927 933 936 942 948 957 963 966 972 975 978 978 975 972 975 978 984 990 993 996 993 987 987 987 984 987 990 990 987 984 975 966 957 951 942 939 936 936 933 933 933 939 948 954 960 963 957 948 942 942 942 960 978 999 1029 1062 1083 1095 1110 1122 1131 1143 1158 1173 1191 1206 1224 1233 1245 1254 1263 1272 1293 1314 1338 1362 1389 1404 1413 1425 1416 1407 1401 1395 1392 1389 1386 1380 1368 1356 1347 1335 1326 1344 1362 1386 1410 1434 1443 1449 1452 1449 1446 1446 1452 1461 1479 1503 1524 1542 1560 1572 1581 1587 1584 1581 1575 1563 1548 1536 1527 1515 1494 1476 1458 1440 1422 1407 1392 1377 1359 1341 1326 1308 1290 1281 1272 1269 1278 1287 1299 1311 1326 1329 1332 1329 1326 1320 1308 1296 1281 1263 1245 1224 1203 1179 1170 1161 1155 1152 1149 1143 1131 1128
1107 861 861 861 861 861 861 861 861 861 861 861 864 864 864 864 864 864 864 864 867 867 867 867 867 867 864 864 864 861 861 861 861 861 861 861 861 864 864 864 864 864 864 864 864 864 864 864 864 861 861 861 861 861 861 861 861 864 864 864 861 861 861 861 861 861 861 861 861 861 861 861 861 864 864 867 867 867 867 864 864 861 861 861 861 861 861 861 861 861 861 861 861 861 861 861 861 861 861 861 861 861 861 861 861 861 861 861 861 861 861 861 861 861 861 861 861 861 861 861 861 861 864 864 864 864 864 864 864 864 864 864 864 864 867 864 864 864 864 864 864 864 867 867 867 867 867 867 867 867 867 867 867 870 870 870 870 870 870 870 870 870 870 870 873 873 876 879 882 888 894 900 912 924 933 939 948 945 942 936 933 927 924 921 921 918 918 915 912 906 906 906 906 906 906 909 912 915 924 933 939 948 957 966 975 981 984 984 984 978 975 963 954 945 942 939 945 954 966 978 987 993 990 987 978 969 957 942 930 921 918 915 918 921 924 924 927 930 936 939 948 954 957 960 966 966 966 969 966 963 966 972 978 984 987 990 987 984 978 975 972 975 978 981 978 978 972 966 957 951 942 936 936 933 933 930 933 936 942 945 948 948 942 939 936 939 942 966 993 1017 1047 1074 1092 1104 1116 1125 1134 1146 1161 1173 1191 1209 1230 1245 1257 1269 1278 1287 1305 1323 1341 1365 1389 1401 1410 1416 1404 1392 1383 1377 1371 1368 1362 1356 1344 1335 1323 1314 1305 1323 1344 1365 1389 1413 1422 1425 1428 1425 1419 1422 1434 1446 1464 1485 1506 1521 1533 1545 1557 1566 1572 1575 1575 1569 1566 1557 1545 1536 1518 1500 1482 1464 1446 1431 1413 1398 1383 1365 1347 1329 1308 1293 1275 1266 1269 1272 1281 1293 1302 1305 1308 1308 1305 1302 1296 1287 1278 1260 1242 1218 1194 1170 1158 1146 1137 1131 1128 1119 1110 1107
1098 861 861 861 861 861 861 861 861 861 864 864 864 864 864 864 867 864 864 864 864 867 867 867 867 864 864 864 864 864 861 861 861 861 861 861 861 861 864 864 864 864 864 864 864 864 864 864 864 861 861 861 861 861 861 864 864 864 864 864 861 861 861 861 861 861 861 861 864 864 861 861 861 864 864 864 867 867 864 864 864 864 861 861 861 861 861 861 861 861 861 861 861 861 861 861 861 861 861 861 861 861 861 861 861 861 861 861 861 861 861 861 861 861 861 861 861 861 861 861 861 861 861 864 864 864 864 864 864 864 864 864 867 867 867 867 867 864 864 864 864 864 867 867 867 867 867 867 867 867 867 870 870 870 870 870 870 870 870 870 870 870 870 870 873 873 876 879 882 888 894 903 909 918 924 927 933 933 930 927 924 921 921 921 924 921 918 915 912 906 903 903 900 900 900 903 906 909 918 927 933 942 948 957 963 969 972 975 975 972 966 957 948 939 936 933 939 948 960 969 978 981 978 978 966 951 939 930 921 915 915 915 915 918 921 924 924 927 933 936 942 948 951 954 957 960 960 960 957 951 954 960 966 969 975 975 972 969 966 963 963 966 969 972 972 975 972 972 969 963 954 948 942 936 933 930 930 930 930 933 933 936 933 933 933 942 948 972 1002 1029 1053 1077 1089 1098 1107 1116 1128 1140 1155 1170 1188 1209 1227 1245 1260 1272 1281 1290 1308 1323 1341 1362 1386 1398 1404 1410 1398 1386 1374 1365 1359 1350 1341 1332 1320 1311 1302 1293 1287 1305 1329 1350 1371 1392 1398 1401 1401 1398 1392 1398 1416 1431 1449 1470 1488 1497 1509 1521 1533 1548 1554 1563 1569 1572 1572 1566 1557 1548 1530 1512 1494 1476 1458 1440 1425 1410 1395 1377 1359 1341 1323 1299 1278 1263 1260 1257 1263 1272 1281 1284 1284 1284 1284 1281 1278 1272 1263 1245 1227 1203 1182 1158 1146 1131 1122 1116 1110 1107 1104 1101
1131 861 861 861 861 861 861 861 864 864 864 867 867 867 867 864 864 864 864 864 864 864 864 864 864 864 864 864 864 864 864 861 861 861 861 861 861 861 861 864 864 864 864 864 864 864 864 864 864 864 861 861 861 861 864 864 864 867 867 864 861 861 861 861 861 861 861 861 864 864 861 861 864 864 867 864 864 864 864 864 864 864 864 861 861 861 861 861 861 864 864 861 861 861 861 861 861 861 861 861 861 861 861 861 861 861 861 861 861 861 861 861 861 861 861 861 861 861 861 861 861 861 861 864 864 864 864 864 864 864 867 867 867 864 864 864 864 864 864 864 864 864 867 867 867 867 867 867 867 867 867 870 870 870 870 870 870 870 870 870 870 870 870 870 873 873 873 876 879 885 888 894 900 909 912 918 924 924 921 921 921 918 921 921 924 921 918 915 909 903 903 900 897 897 900 900 903 906 915 921 927 933 939 945 951 957 960 963 963 960 954 948 939 933 930 927 933 942 951 960 966 969 966 966 954 939 927 921 915 912 912 912 915 918 921 921 924 927 930 933 936 942 945 948 951 951 951 951 948 942 942 948 951 954 957 960 957 957 954 951 951 954 957 960 963 966 969 972 975 972 969 960 951 942 936 933 927 927 924 924 924 924 927 927 933 945 954 981 1011 1038 1056 1074 1083 1089 1095 1104 1116 1128 1143 1161 1179 1200 1221 1236 1251 1266 1275 1287 1302 1320 1338 1356 1377 1389 1395 1404 1392 1383 1371 1362 1350 1335 1320 1308 1299 1287 1281 1275 1269 1290 1314 1335 1353 1368 1374 1371 1371 1368 1365 1374 1395 1419 1434 1452 1464 1476 1485 1500 1515 1530 1539 1548 1557 1563 1566 1563 1554 1545 1527 1509 1488 1467 1446 1431 1413 1398 1383 1368 1353 1335 1320 1296 1275 1257 1248 1242 1245 1251 1257 1257 1260 1260 1260 1257 1251 1242 1230 1212 1194 1173 1155 1134 1125 1119 1113 1116 1122 1125 1131 1134
1167 861 861 861 861 861 864 864 867 867 867 870 867 864 864 864 864 861 861 861 861 861 861 864 864 864 867 867 864 864 864 861 861 861 861 861 861 861 861 864 864 864 867 867 864 864 864 864 864 864 861 861 861 864 864 867 870 870 870 870 864 864 861 861 861 861 864 864 864 864 861 861 864 864 867 864 864 864 864 861 864 864 864 864 861 861 861 861 861 861 861 861 861 861 861 861 861 861 861 861 861 861 861 861 861 861 861 861 861 861 861 861 861 861 861 861 861 861 861 861 861 861 861 861 864 864 864 864 864 864 864 864 864 864 864 864 864 864 864 864 867 867 867 867 867 867 867 867 867 867 867 870 870 870 870 870 870 870 870 870 870 870 870 870 873 873 873 876 876 882 885 888 894 900 906 909 915 915 915 915 918 918 918 921 921 918 915 912 909 903 900 897 897 897 897 900 903 906 909 915 921 924 930 936 939 945 948 951 948 945 942 936 930 924 924 924 927 936 942 948 954 957 954 954 942 930 918 915 912 912 912 912 915 918 921 921 921 924 927 930 933 939 942 942 945 945 945 942 939 936 933 936 936 939 942 942 945 945 942 939 936 939 939 942 945 951 957 963 966 969 972 969 966 960 951 942 936 930 924 924 924 921 924 927 936 951 966 990 1017 1041 1050 1062 1071 1074 1077 1086 1098 1110 1125 1140 1164 1185 1209 1221 1233 1245 1257 1269 1284 1302 1320 1341 1362 1374 1383 1392 1383 1377 1368 1359 1347 1329 1308 1290 1278 1263 1257 1257 1254 1275 1299 1320 1335 1347 1350 1347 1344 1347 1350 1359 1380 1404 1416 1425 1437 1449 1461 1479 1497 1515 1530 1542 1551 1554 1560 1551 1542 1533 1512 1491 1470 1449 1428 1407 1389 1374 1359 1341 1329 1314 1302 1281 1263 1248 1236 1227 1227 1227 1230 1230 1233 1230 1227 1224 1212 1203 1191 1176 1161 1149 1137 1128 1125 1122 1125 1137 1149 1155 1164 1167
1197 861 861 861 861 864 864 864 864 867 867 867 864 864 861 861 861 861 861 861 861 861 861 864 864 864 867 867 864 864 864 861 861 861 861 861 861 861 864 864 864 864 867 867 864 864 864 864 861 861 861 861 861 864 867 870 870 873 876 873 870 867 864 864 864 864 864 864 864 864 864 864 864 867 867 864 864 864 861 861 861 864 864 864 864 861 861 861 861 861 861 861 861 861 861 861 861 861 861 861 861 861 861 861 861 861 861 861 861 861 861 861 861 861 861 861 861 861 861 861 861 861 861 861 861 864 864 864 864 864 864 864 864 864 864 864 864 864 867 867 867 867 867 867 867 867 867 867 867 867 867 867 870 870 870 867 867 870 870 870 870 870 870 873 873 876 876 876 879 879 882 885 891 894 900 903 909 909 912 912 915 918 918 918 918 915 912 909 906 903 900 897 897 897 897 897 900 903 906 912 915 918 921 927 930 936 936 936 936 933 927 924 921 918 918 918 924 930 936 939 945 948 945 942 933 921 912 912 909 909 909 912 915 918 921 921 921 924 927 930 930 933 936 936 936 936 933 933 930 927 927 927 930 930 933 933 933 930 927 924 921 924 927 930 933 939 942 948 954 957 963 966 969 969 963 957 951 945 939 933 930 927 930 930 939 957 975 996 1014 1032 1038 1047 1050 1053 1059 1068 1077 1092 1107 1125 1146 1167 1188 1203 1215 1227 1242 1254 1272 1290 1308 1329 1350 1365 1374 1386 1380 1377 1368 1356 1341 1320 1296 1275 1260 1245 1239 1239 1239 1260 1284 1302 1314 1323 1326 1320 1317 1323 1332 1344 1365 1386 1395 1404 1413 1428 1440 1458 1479 1503 1515 1530 1542 1545 1551 1542 1530 1518 1497 1476 1452 1431 1410 1389 1368 1350 1335 1320 1305 1293 1281 1266 1254 1239 1227 1215 1209 1209 1209 1206 1206 1200 1194 1185 1176 1167 1158 1149 1140 1137 1134 1131 1137 1140 1149 1164 1182 1188 1194 1200
1206 861 861 861 861 861 864 864 864 864 861 861 861 861 861 861 861 861 861 861 861 861 861 864 864 864 867 867 867 864 864 864 861 861 861 861 861 864 864 864 864 864 867 864 864 864 864 864 861 861 861 861 864 864 864 867 870 873 876 876 873 873 867 864 864 864 864 864 864 864 864 864 864 867 867 867 864 864 861 861 861 861 861 861 861 861 861 864 861 861 861 861 861 861 861 861 861 861 861 861 861 861 861 861 861 861 861 861 861 861 861 861 861 861 861 861 861 861 861 861 861 861 861 861 861 861 861 864 864 864 864 864 864 864 864 864 867 867 867 867 867 867 867 867 867 867 867 867 867 867 867 867 870 870 870 870 870 870 870 870 870 873 873 873 876 876 879 879 879 879 882 882 888 891 897 900 906 906 906 909 912 915 915 915 915 912 909 906 903 903 900 897 894 894 894 897 897 900 903 906 909 912 915 918 921 924 924 927 924 921 918 915 912 912 912 915 918 924 927 930 936 936 933 930 924 915 909 909 906 909 909 912 915 915 918 918 921 921 924 927 927 930 930 930 930 927 924 924 921 918 918 921 924 924 924 924 921 918 915 915 915 915 918 921 924 927 933 936 939 948 954 960 966 972 972 972 969 960 954 948 942 936 936 936 945 963 981 996 1008 1020 1023 1026 1029 1032 1038 1050 1062 1074 1092 1110 1128 1146 1164 1179 1194 1212 1227 1245 1263 1281 1302 1320 1341 1359 1371 1386 1383 1380 1371 1353 1335 1311 1284 1260 1245 1227 1221 1224 1227 1245 1263 1281 1290 1299 1299 1293 1287 1299 1311 1326 1347 1365 1377 1383 1392 1407 1422 1443 1464 1485 1500 1515 1524 1533 1542 1533 1524 1509 1488 1464 1443 1419 1398 1377 1356 1338 1323 1311 1299 1287 1275 1263 1248 1236 1221 1206 1200 1197 1194 1191 1188 1182 1170 1161 1155 1152 1152 1155 1158 1161 1161 1161 1164 1170 1176 1188 1200 1206 1206 1209
1212 861 861 861 861 861 861 861 861 861 861 861 861 861 861 861 861 861 861 861 861 861 861 864 864 867 867 870 867 864 864 864 861 861 861 861 864 864 864 864 867 864 864 864 864 864 864 861 861 861 861 864 864 864 867 870 870 873 873 873 870 870 867 864 864 867 867 867 864 864 864 867 867 867 867 867 864 861 861 861 861 861 861 861 861 861 864 864 864 864 861 861 861 861 861 861 861 861 861 861 861 861 861 861 861 861 861 861 861 861 861 861 861 861 861 861 861 861 861 861 861 861 861 861 861 861 861 861 861 861 864 864 864 864 864 867 867 867 867 867 867 867 864 867 867 867 867 867 867 867 867 867 870 870 870 870 870 870 870 870 870 873 873 873 876 876 879 879 876 879 879 882 885 891 894 897 903 903 906 906 909 912 912 912 909 906 906 903 900 897 897 894 894 894 894 894 897 897 900 903 903 906 909 909 912 915 915 915 915 912 912 909 906 906 909 912 915 918 921 924 924 924 924 921 915 912 906 906 906 906 909 909 912 915 918 918 921 921 921 924 924 924 924 924 921 918 918 915 915 912 912 915 915 912 912 912 909 909 909 912 915 918 918 921 921 924 927 930 936 942 948 954 960 969 969 972 972 972 969 966 960 954 948 939 942 957 969 984 999 1008 1011 1011 1011 1017 1020 1032 1047 1062 1077 1095 1107 1122 1137 1152 1170 1185 1203 1221 1245 1266 1287 1305 1326 1344 1362 1380 1380 1380 1374 1356 1341 1314 1287 1260 1236 1215 1206 1206 1209 1227 1251 1266 1275 1281 1278 1269 1263 1278 1293 1308 1329 1347 1356 1365 1377 1392 1407 1428 1449 1470 1488 1503 1518 1527 1539 1536 1524 1515 1491 1467 1446 1422 1398 1380 1365 1347 1338 1326 1314 1305 1296 1278 1263 1245 1227 1209 1197 1191 1185 1179 1176 1167 1158 1149 1152 1158 1167 1179 1188 1194 1191 1191 1194 1194 1197 1206 1215 1215 1212 1212
1215 861 861 861 861 861 861 861 861 861 861 861 861 861 861 861 861 861 861 861 861 861 861 864 864 864 867 867 867 864 864 864 864 861 861 861 864 864 864 867 867 864 864 864 864 861 861 861 861 861 861 864 864 867 867 870 873 873 873 870 870 867 867 864 864 867 870 867 864 864 867 867 867 867 867 864 864 861 861 861 861 861 861 861 861 864 864 864 864 864 864 861 861 861 861 861 861 861 861 861 861 861 861 861 861 861 861 861 864 861 861 861 861 861 861 861 861 861 861 861 861 861 861 861 861 861 861 861 861 861 864 864 864 864 867 867 867 867 867 867 867 867 867 867 867 867 867 867 867 867 867 867 867 867 867 867 870 870 870 870 870 870 873 873 873 873 876 876 876 876 879 882 885 888 894 897 903 903 903 903 903 903 903 903 903 903 900 900 897 897 894 894 891 891 891 894 894 897 897 900 900 900 903 903 906 906 909 909 909 906 906 903 903 903 906 909 912 915 918 918 918 918 915 915 912 909 909 906 906 906 909 909 912 912 915 915 915 915 915 918 918 918 915 915 915 912 912 909 909 909 909 909 909 909 906 906 906 906 906 909 912 912 915 918 924 927 933 939 948 957 969 975 984 990 987 984 981 978 978 975 975 972 960 948 945 951 954 966 981 993 996 996 1002 1005 1011 1023 1038 1050 1065 1077 1089 1101 1113 1131 1146 1164 1179 1194 1221 1245 1272 1293 1314 1335 1353 1374 1374 1377 1371 1356 1341 1314 1284 1254 1230 1203 1191 1191 1194 1215 1236 1251 1257 1260 1257 1248 1245 1260 1275 1290 1308 1326 1338 1347 1359 1377 1392 1413 1437 1458 1476 1497 1512 1527 1542 1539 1533 1524 1503 1479 1455 1434 1410 1395 1380 1365 1356 1347 1338 1326 1317 1299 1281 1260 1239 1215 1200 1188 1176 1173 1167 1161 1155 1149 1161 1176 1194 1209 1224 1227 1227 1224 1221 1215 1215 1221 1224 1221 1218 1215
1212 861 861 861 861 861 861 861 861 861 861 861 861 861 861 861 861 861 861 861 861 861 861 861 864 864 864 864 867 867 867 864 864 864 864 864 864 864 864 867 867 867 864 864 864 861 861 861 861 864 864 864 867 867 870 870 873 873 873 873 870 867 867 867 867 870 870 867 864 864 867 870 867 867 867 864 864 861 861 864 861 861 861 861 864 864 864 864 864 864 864 864 864 861 861 861 861 861 861 861 861 861 861 861 861 861 861 864 864 864 864 864 864 861 861 861 861 861 861 861 861 861 861 861 861 861 861 861 861 861 864 864 864 864 864 867 867 867 867 867 867 867 867 867 867 867 867 867 867 867 867 867 867 867 867 867 870 870 870 870 870 870 873 873 873 873 873 876 876 876 879 882 885 891 894 894 897 897 897 897 900 900 900 900 900 900 900 897 897 894 894 891 891 891 891 891 894 894 894 897 897 897 897 900 900 900 903 903 903 900 900 900 900 900 903 903 906 909 912 912 912 912 909 909 909 906 906 906 906 906 909 909 909 909 912 912 912 912 909 909 909 909 909 909 906 906 906 906 906 906 906 906 906 906 903 903 906 906 906 909 909 912 915 921 930 939 948 957 969 981 993 1005 1014 1023 1011 999 993 987 981 981 984 984 975 963 954 948 942 951 963 972 981 987 993 1002 1008 1020 1032 1044 1053 1062 1074 1086 1098 1113 1128 1140 1152 1164 1194 1227 1254 1281 1305 1326 1344 1362 1365 1365 1362 1344 1329 1305 1275 1248 1218 1191 1179 1182 1182 1200 1221 1236 1236 1239 1236 1230 1227 1239 1254 1269 1287 1305 1317 1329 1341 1359 1377 1401 1425 1449 1470 1491 1512 1527 1545 1548 1545 1542 1521 1500 1479 1458 1434 1419 1404 1389 1374 1362 1350 1338 1326 1305 1284 1263 1242 1218 1203 1188 1176 1170 1164 1164 1167 1170 1188 1209 1224 1239 1254 1257 1254 1248 1242 1236 1230 1230 1230 1224 1215 1212
1215 861 861 861 861 861 861 861 861 861 861 861 861 861 861 861 861 861 861 861 861 861 861 864 864 864 864 864 864 867 864 864 864 864 864 864 864 864 864 864 864 864 864 864 861 861 861 861 861 861 861 864 864 864 867 867 867 870 870 870 867 867 867 870 870 870 870 867 867 867 867 870 867 867 864 864 861 861 864 864 864 864 864 864 864 864 864 861 864 864 864 864 864 864 861 861 861 861 861 861 861 861 861 861 861 861 864 864 867 864 864 864 864 864 861 861 861 861 861 861 861 861 861 861 861 861 861 861 861 861 861 864 864 864 864 864 864 867 867 867 867 867 867 867 867 867 867 867 867 867 867 867 867 867 867 870 870 870 870 870 870 870 870 873 873 873 873 876 876 876 879 882 885 891 891 894 894 894 894 897 897 897 897 897 897 897 897 897 894 894 891 891 891 891 891 891 891 891 891 891 894 894 894 894 894 897 897 897 897 897 894 897 897 897 900 900 903 903 906 906 906 903 903 903 903 903 903 903 903 906 906 909 909 909 909 906 906 906 906 903 903 903 903 903 903 903 903 903 903 903 903 903 903 903 906 909 912 915 915 918 918 921 927 936 951 963 975 990 999 1008 1017 1023 1032 1038 1029 1023 1014 1002 990 987 987 987 984 981 975 960 945 948 954 963 972 981 990 999 1005 1017 1029 1041 1050 1062 1074 1089 1104 1116 1131 1146 1161 1176 1203 1230 1254 1272 1293 1308 1323 1338 1341 1344 1341 1329 1314 1293 1266 1239 1212 1185 1173 1170 1170 1185 1203 1215 1212 1212 1212 1209 1206 1221 1236 1251 1269 1284 1296 1311 1323 1341 1359 1383 1407 1434 1458 1479 1503 1521 1542 1548 1551 1551 1533 1515 1491 1467 1443 1425 1404 1386 1371 1356 1341 1329 1317 1296 1275 1257 1239 1221 1209 1200 1191 1185 1179 1182 1191 1200 1221 1242 1260 1269 1281 1278 1272 1266 1260 1251 1245 1242 1236 1230 1221 1215
1221 861 861 861 861 861 861 861 861 861 861 861 861 861 861 861 861 861 861 861 861 864 864 864 864 864 864 864 864 867 867 864 864 864 864 864 864 864 864 864 864 864 864 861 861 861 861 861 861 861 861 861 864 864 864 864 864 864 867 867 864 864 867 870 870 870 870 867 867 867 867 870 867 864 864 861 861 861 864 864 864 864 864 864 864 864 861 861 861 864 864 864 864 864 864 861 861 861 861 861 861 861 861 861 861 861 864 864 867 867 867 867 864 864 864 861 861 861 861 861 861 861 861 861 861 861 861 861 861 861 864 864 864 864 864 864 864 864 867 867 867 867 867 867 867 867 867 867 867 867 867 867 867 867 870 870 870 870 870 870 870 870 873 873 873 873 873 876 876 876 879 879 882 885 888 891 891 894 894 897 897 897 897 897 897 897 900 897 894 891 891 891 888 888 891 888 888 888 888 888 888 888 888 891 891 891 891 891 891 891 891 894 894 894 897 897 900 900 903 903 903 900 900 900 900 900 900 900 900 903 903 903 903 903 903 903 903 900 900 900 900 897 897 900 900 900 903 906 906 906 906 906 903 906 906 909 915 924 933 942 948 954 957 963 975 984 996 1011 1023 1032 1041 1047 1053 1059 1050 1041 1029 1014 999 993 990 987 990 993 987 975 960 957 957 957 966 972 984 993 1005 1020 1035 1050 1065 1080 1095 1110 1125 1137 1152 1167 1179 1194 1215 1233 1251 1263 1278 1290 1302 1314 1320 1323 1323 1311 1302 1281 1257 1233 1206 1179 1164 1161 1155 1167 1179 1188 1188 1185 1185 1188 1191 1206 1221 1236 1251 1266 1278 1293 1305 1323 1341 1365 1389 1416 1440 1464 1488 1509 1533 1542 1548 1551 1536 1518 1497 1470 1440 1416 1392 1371 1353 1335 1323 1311 1299 1281 1260 1245 1236 1227 1221 1218 1215 1212 1206 1209 1221 1233 1254 1275 1290 1296 1302 1296 1287 1278 1272 1263 1257 1251 1248 1239 1227 1221
1239 861 861 861 861 861 861 861 861 861 861 861 861 861 861 861 861 861 861 861 864 864 867 867 867 867 867 867 867 867 867 867 867 867 870 870 870 867 867 864 864 861 861 861 861 861 861 861 861 861 861 864 864 864 864 861 861 861 864 864 861 864 864 864 867 867 870 870 867 867 870 870 867 864 861 861 861 861 861 861 864 864 864 864 861 861 861 861 861 861 861 864 864 864 864 864 864 864 861 861 861 861 861 861 864 864 864 867 870 867 867 867 864 864 864 861 861 861 861 861 861 861 861 861 861 861 861 861 861 861 861 864 864 864 864 864 864 864 867 867 867 867 867 867 867 867 867 867 867 867 867 867 867 870 870 870 870 870 870 870 870 870 870 873 873 873 876 876 876 876 879 879 882 885 888 891 891 894 894 894 894 894 894 894 894 897 897 897 894 891 891 891 888 888 888 888 888 885 885 885 885 885 885 888 888 888 888 888 888 888 891 891 891 894 894 894 897 897 900 900 900 897 897 897 897 900 900 900 900 900 900 900 900 900 900 900 897 897 897 897 894 894 897 897 897 900 903 906 909 909 909 909 906 906 909 912 924 936 951 969 984 987 987 990 993 996 1011 1026 1041 1053 1065 1071 1074 1080 1068 1056 1044 1026 1011 1002 993 987 993 999 999 990 984 972 963 957 960 963 972 987 1005 1026 1050 1071 1092 1113 1128 1143 1158 1173 1185 1197 1209 1218 1227 1236 1245 1254 1263 1272 1284 1293 1296 1302 1302 1293 1287 1272 1254 1233 1206 1179 1161 1146 1134 1143 1152 1155 1155 1155 1161 1170 1179 1197 1215 1230 1242 1254 1263 1275 1287 1305 1323 1344 1368 1395 1419 1443 1464 1485 1506 1518 1530 1536 1518 1503 1479 1449 1422 1392 1365 1338 1317 1299 1284 1275 1266 1257 1251 1248 1251 1251 1251 1248 1242 1236 1227 1230 1242 1254 1272 1293 1308 1311 1311 1305 1293 1284 1278 1269 1266 1266 1263 1254 1245 1239
1257 861 861 861 861 861 861 861 861 861 861 861 861 861 861 861 861 861 861 861 864 867 867 867 867 867 870 870 867 867 867 867 867 870 873 873 870 870 867 864 864 864 861 861 861 861 861 861 861 864 864 864 864 864 864 861 861 861 861 861 861 861 861 861 864 864 867 867 870 870 870 867 867 864 861 861 861 861 861 861 861 861 861 861 861 861 861 861 861 861 861 861 861 864 864 867 867 867 864 864 861 861 861 861 864 864 867 870 873 870 867 867 864 864 864 861 861 861 861 861 861 861 861 861 861 861 861 861 861 861 861 864 864 864 864 864 864 864 867 867 867 867 867 867 867 867 867 870 870 867 867 870 870 870 870 870 870 870 870 870 870 870 870 873 873 873 876 876 876 879 879 882 882 885 888 891 894 894 891 891 891 891 891 891 891 894 894 894 894 891 891 891 888 888 888 888 885 885 885 885 882 882 885 885 885 885 885 885 885 888 888 888 891 891 891 891 894 894 897 897 897 897 897 897 897 900 900 903 903 903 903 900 900 900 897 897 894 894 894 894 894 894 894 897 897 900 900 903 903 906 906 906 909 912 915 924 942 960 975 990 1005 1002 996 996 996 996 1011 1029 1047 1059 1074 1083 1086 1092 1083 1074 1062 1047 1032 1017 1005 993 996 996 999 996 996 984 969 960 960 963 978 999 1020 1047 1071 1095 1116 1137 1152 1170 1185 1200 1212 1221 1224 1227 1230 1233 1239 1245 1251 1257 1263 1269 1272 1275 1275 1272 1266 1257 1245 1230 1206 1182 1161 1143 1125 1128 1131 1134 1134 1134 1143 1155 1170 1185 1203 1215 1227 1239 1248 1257 1266 1284 1305 1326 1353 1377 1401 1422 1443 1461 1479 1491 1500 1506 1494 1479 1458 1431 1407 1380 1350 1326 1302 1278 1266 1257 1248 1254 1257 1266 1275 1284 1281 1272 1266 1254 1242 1242 1254 1266 1284 1305 1317 1320 1323 1317 1305 1293 1287 1281 1278 1278 1278 1269 1260 1257
1272 861 861 861 861 861 861 861 861 861 861 861 861 861 861 861 861 861 861 861 864 867 867 867 867 870 870 870 870 867 867 867 870 873 876 876 873 870 867 864 864 864 864 861 861 861 861 861 861 864 864 864 864 864 864 861 861 861 861 861 861 861 861 861 861 864 864 867 870 870 870 867 864 864 861 861 861 861 861 861 861 861 861 861 861 861 861 861 861 861 861 861 861 864 867 867 867 870 867 864 864 861 861 861 864 867 870 873 876 873 870 867 864 864 861 861 861 861 861 861 861 861 861 861 861 861 861 861 861 861 861 864 864 864 864 864 867 867 867 867 867 867 867 867 867 867 870 870 870 870 870 870 870 870 870 870 870 870 870 870 870 870 873 873 873 876 876 876 879 879 882 882 882 885 885 888 888 888 888 888 888 888 888 888 888 891 891 891 891 894 894 894 894 891 888 888 885 885 885 882 882 882 882 885 885 885 885 888 888 888 888 888 888 888 888 891 891 891 894 894 894 894 894 894 894 897 897 900 900 900 900 897 897 897 897 894 894 894 894 894 897 897 900 900 903 906 906 909 912 912 912 912 912 918 924 936 957 981 996 1011 1020 1017 1011 1008 1005 1002 1017 1038 1056 1074 1089 1098 1101 1104 1095 1089 1080 1068 1056 1041 1023 1008 1002 996 996 999 1002 987 972 963 966 966 984 1011 1038 1065 1092 1116 1134 1155 1173 1191 1206 1218 1230 1236 1236 1236 1236 1236 1236 1239 1242 1245 1245 1248 1248 1251 1251 1251 1248 1242 1236 1224 1203 1182 1161 1140 1119 1119 1116 1116 1116 1116 1128 1143 1158 1173 1191 1203 1215 1224 1230 1236 1245 1266 1284 1308 1335 1362 1383 1407 1425 1440 1452 1461 1470 1473 1464 1452 1437 1419 1398 1374 1350 1323 1299 1272 1260 1251 1245 1260 1275 1290 1302 1314 1308 1296 1284 1269 1251 1251 1263 1275 1293 1311 1326 1329 1335 1329 1317 1308 1302 1296 1290 1290 1290 1284 1275 1272
1278 861 861 861 861 861 861 861 861 861 861 861 861 861 861 861 861 861 861 864 864 867 867 867 867 870 870 870 870 867 867 867 870 873 879 879 873 867 867 864 864 864 864 861 861 861 861 861 864 864 867 867 864 864 864 864 861 861 861 861 861 861 861 861 861 864 864 864 864 864 864 864 864 864 861 864 864 864 861 861 861 861 861 861 861 861 861 861 861 861 861 861 861 864 867 867 867 867 864 864 864 864 861 861 864 867 870 876 879 876 873 870 867 864 861 861 861 861 861 861 861 861 861 861 861 861 861 861 861 861 864 864 864 864 864 867 867 867 867 867 867 867 867 867 867 870 870 870 870 870 870 870 870 870 870 870 870 870 870 870 870 870 873 873 873 873 876 876 876 879 879 879 882 882 885 885 888 888 888 888 888 888 888 888 888 891 891 894 894 897 897 897 894 891 891 888 885 885 882 882 882 882 882 885 885 888 888 888 888 888 885 885 885 888 888 888 888 891 891 891 891 891 891 894 894 894 894 897 897 897 897 897 897 897 897 894 894 894 897 897 903 906 912 912 915 918 921 924 927 930 930 927 921 930 936 948 975 999 1014 1026 1038 1032 1029 1023 1017 1011 1026 1047 1065 1086 1107 1116 1116 1116 1107 1101 1092 1089 1083 1065 1047 1026 1014 999 993 996 999 987 975 966 969 972 993 1023 1053 1080 1107 1131 1152 1170 1188 1206 1221 1227 1236 1242 1242 1242 1245 1248 1248 1242 1236 1233 1230 1227 1230 1233 1233 1233 1230 1227 1221 1212 1194 1176 1158 1137 1116 1110 1107 1101 1101 1098 1113 1131 1149 1164 1179 1191 1197 1206 1209 1215 1221 1239 1257 1284 1317 1347 1371 1395 1416 1428 1440 1443 1446 1446 1440 1434 1428 1419 1410 1389 1368 1347 1320 1293 1275 1266 1254 1269 1281 1296 1314 1332 1326 1314 1302 1284 1263 1263 1272 1284 1302 1320 1335 1341 1347 1341 1332 1320 1311 1302 1293 1293 1290 1287 1281 1278
1287 861 861 861 861 861 861 861 861 861 861 861 861 861 861 861 861 864 864 867 867 867 867 864 864 864 867 870 870 870 870 870 870 873 876 873 870 867 867 864 864 864 864 861 861 861 861 861 864 864 864 864 864 864 864 864 864 864 864 861 861 861 861 861 861 861 861 861 861 864 867 867 867 867 864 867 867 864 864 864 861 861 861 861 861 861 861 861 861 861 861 864 864 864 867 867 867 864 864 864 864 861 861 864 864 867 873 876 879 876 873 870 867 864 861 861 861 861 861 861 861 861 861 861 861 861 861 861 861 861 864 864 864 864 867 867 867 867 867 867 867 867 867 867 870 870 870 870 870 870 870 870 870 870 870 870 870 870 870 870 870 873 873 873 873 873 873 876 876 876 876 879 879 882 882 885 885 888 888 888 888 888 888 888 888 891 891 897 900 903 900 897 897 894 891 888 885 882 882 882 882 882 882 885 888 891 891 888 888 885 885 885 885 885 885 888 888 888 888 891 891 891 891 891 891 894 894 894 894 894 894 894 894 897 897 897 897 897 903 906 918 930 939 942 942 948 951 954 960 966 963 951 939 945 948 963 987 1014 1032 1044 1056 1053 1050 1044 1035 1026 1035 1047 1059 1083 1107 1119 1122 1122 1119 1116 1113 1113 1110 1092 1071 1050 1029 1008 996 996 993 984 972 966 972 978 1002 1035 1065 1092 1119 1140 1161 1179 1197 1209 1224 1233 1242 1251 1257 1263 1260 1257 1251 1242 1233 1224 1218 1212 1215 1215 1215 1215 1215 1212 1209 1200 1185 1173 1152 1131 1110 1101 1092 1089 1089 1092 1107 1128 1146 1158 1170 1179 1182 1188 1194 1197 1206 1227 1248 1275 1308 1341 1365 1392 1413 1425 1437 1437 1437 1437 1434 1431 1428 1425 1419 1404 1386 1365 1335 1308 1293 1284 1275 1287 1299 1311 1329 1344 1338 1329 1317 1296 1278 1275 1284 1293 1311 1332 1347 1353 1359 1356 1344 1332 1320 1308 1299 1296 1293 1290 1290 1290
1299 861 861 861 861 861 861 861 861 861 861 861 861 864 864 864 864 864 867 867 867 867 867 864 861 864 864 867 867 870 870 867 867 870 870 870 870 867 864 864 861 861 864 861 861 861 861 861 861 864 864 864 864 864 864 864 864 864 864 864 861 861 861 861 861 861 861 861 864 864 870 876 873 870 870 870 867 867 864 864 864 861 861 861 861 861 861 861 861 861 861 864 864 867 867 867 864 861 861 861 861 861 861 864 867 870 873 879 882 879 873 870 867 861 861 861 861 861 861 861 861 861 861 861 861 861 861 861 861 861 864 864 864 864 867 867 867 867 867 867 867 867 867 867 870 870 870 870 870 870 870 870 870 870 870 870 873 873 873 873 873 873 873 873 873 873 876 876 879 879 879 879 879 882 882 885 885 885 888 888 888 891 888 888 885 888 891 894 897 900 900 900 897 894 891 888 885 882 882 882 882 882 882 885 885 888 888 888 888 888 885 885 885 885 888 888 888 891 891 891 891 891 891 891 891 894 894 894 894 894 894 894 894 897 897 900 903 909 918 927 942 957 963 966 969 972 975 981 984 987 981 972 963 966 969 981 1005 1029 1044 1059 1068 1068 1065 1059 1047 1038 1041 1047 1056 1083 1110 1122 1125 1128 1125 1122 1119 1119 1122 1107 1089 1071 1044 1017 1002 996 990 981 972 969 975 984 1008 1041 1074 1101 1128 1149 1170 1188 1203 1218 1233 1242 1254 1263 1272 1281 1275 1266 1257 1242 1227 1218 1206 1197 1197 1197 1197 1197 1200 1197 1194 1188 1176 1164 1146 1122 1101 1089 1077 1074 1083 1089 1107 1128 1146 1152 1161 1167 1170 1173 1179 1185 1197 1221 1242 1272 1305 1335 1362 1389 1410 1425 1437 1440 1437 1434 1437 1437 1437 1434 1431 1416 1398 1380 1350 1323 1311 1305 1302 1311 1320 1332 1341 1353 1347 1338 1326 1308 1290 1287 1296 1302 1323 1341 1359 1365 1374 1368 1356 1344 1329 1314 1302 1299 1293 1296 1299 1302
1314 861 861 861 861 861 861 861 861 861 861 864 864 867 867 864 864 864 864 864 864 864 864 864 861 864 864 864 867 867 867 867 867 867 867 867 867 864 864 864 861 861 861 861 861 861 861 861 864 864 864 864 864 864 864 864 864 864 864 864 861 861 861 861 861 861 861 864 864 870 876 885 882 876 873 870 867 864 864 861 861 861 861 861 861 861 861 861 861 861 864 867 867 867 867 867 864 861 861 861 861 861 861 861 864 867 870 873 876 876 873 870 867 861 861 861 861 861 861 861 861 861 861 861 861 861 861 861 861 861 864 864 864 864 867 867 867 867 867 867 867 867 867 867 870 870 870 870 870 870 870 870 870 870 870 870 873 873 876 873 873 873 873 873 876 876 876 879 879 879 879 879 879 879 882 882 885 885 888 888 888 888 888 888 885 888 894 897 897 900 900 897 897 894 891 888 885 882 882 882 882 882 882 885 888 888 891 891 891 891 891 888 888 888 888 891 891 891 891 891 891 891 891 891 891 894 894 894 894 894 894 894 894 897 900 906 912 927 942 954 969 984 990 990 993 996 999 1002 1002 999 996 990 984 987 990 999 1023 1044 1059 1071 1080 1080 1077 1071 1059 1047 1047 1047 1053 1083 1110 1122 1128 1134 1125 1119 1113 1116 1116 1110 1101 1089 1059 1032 1014 1002 990 981 975 972 978 984 1011 1044 1077 1104 1134 1158 1179 1197 1215 1230 1245 1257 1269 1278 1284 1290 1281 1275 1260 1242 1224 1209 1194 1182 1176 1170 1170 1173 1176 1179 1179 1176 1167 1155 1137 1110 1086 1074 1062 1059 1077 1092 1110 1131 1149 1152 1152 1155 1158 1161 1173 1185 1200 1224 1251 1275 1305 1332 1356 1377 1398 1413 1431 1437 1443 1449 1446 1443 1440 1434 1431 1419 1407 1392 1368 1341 1332 1326 1323 1329 1335 1344 1356 1368 1362 1356 1344 1323 1302 1296 1302 1308 1329 1347 1365 1377 1386 1383 1374 1362 1350 1338 1326 1320 1314 1314 1314 1314
1332 861 861 861 861 861 861 864 864 864 864 864 864 864 864 864 861 864 864 864 864 864 864 864 864 864 864 864 867 867 867 867 867 867 870 867 867 867 864 864 861 861 861 861 861 861 861 861 861 864 864 864 864 864 864 864 864 864 864 864 864 861 861 861 861 861 861 864 870 876 882 891 885 879 873 870 864 864 861 861 861 861 861 861 861 861 861 861 861 864 864 867 873 870 867 864 864 861 861 861 861 861 861 861 861 864 867 870 870 870 870 870 864 861 861 861 861 861 861 861 861 861 861 861 861 861 861 861 861 864 864 864 864 864 864 867 867 867 867 867 867 867 867 867 870 870 870 870 870 870 870 870 870 870 870 870 873 873 876 876 873 873 876 876 876 879 879 879 879 879 879 879 879 879 879 882 882 885 888 888 888 888 888 885 888 891 897 897 897 897 897 894 894 891 891 888 885 882 885 885 885 885 885 888 894 897 897 900 900 897 897 894 891 891 891 891 891 894 894 894 891 891 891 891 894 894 894 894 894 894 894 897 900 903 909 918 930 948 969 990 1002 1014 1020 1020 1020 1020 1023 1023 1017 1014 1008 1002 996 999 1005 1017 1035 1056 1071 1080 1089 1089 1086 1077 1068 1056 1053 1053 1059 1086 1113 1122 1125 1128 1122 1116 1110 1110 1110 1110 1110 1104 1080 1059 1035 1017 996 984 975 972 981 990 1014 1047 1077 1107 1137 1161 1182 1200 1218 1236 1251 1266 1278 1287 1293 1296 1287 1278 1263 1242 1221 1206 1188 1173 1164 1152 1149 1152 1155 1158 1161 1161 1152 1143 1125 1101 1074 1065 1059 1062 1080 1101 1119 1134 1149 1146 1140 1140 1143 1146 1164 1182 1203 1230 1254 1278 1302 1323 1344 1365 1383 1401 1419 1431 1440 1446 1446 1446 1443 1437 1431 1425 1416 1404 1386 1371 1359 1353 1347 1350 1353 1359 1371 1380 1374 1362 1350 1329 1308 1302 1308 1314 1335 1356 1371 1386 1398 1395 1389 1380 1371 1362 1353 1344 1338 1335 1332 1332
1350 861 861 861 861 861 861 864 864 864 864 864 864 861 861 861 861 864 864 864 867 867 867 867 867 867 864 864 867 867 867 867 867 867 870 870 867 864 864 864 864 864 864 861 861 861 861 861 861 864 864 864 867 867 867 867 867 864 864 864 864 864 864 864 861 861 864 867 873 879 885 894 888 879 870 867 864 864 861 861 861 861 861 861 861 861 861 861 864 864 867 873 876 873 867 864 864 861 861 861 861 861 861 861 861 861 864 864 867 867 867 864 864 861 861 861 861 861 861 861 861 861 861 861 861 861 861 861 864 864 864 864 864 864 864 864 867 867 867 867 867 867 867 867 867 867 867 870 870 870 870 870 870 870 870 870 873 876 876 876 876 873 873 873 876 876 876 879 879 879 882 882 882 882 882 882 882 885 885 885 885 885 885 885 885 891 894 897 897 897 897 894 894 891 888 888 885 882 885 885 885 885 882 885 888 891 891 891 891 891 891 891 891 891 891 891 894 894 894 894 894 894 894 894 894 894 894 897 897 897 897 900 903 909 918 936 951 972 996 1017 1026 1035 1041 1038 1038 1035 1035 1032 1029 1023 1017 1008 1002 1008 1017 1029 1050 1071 1083 1095 1104 1098 1095 1089 1077 1068 1068 1068 1074 1095 1119 1125 1128 1128 1122 1116 1113 1116 1116 1116 1119 1116 1098 1080 1059 1032 1008 993 978 972 984 993 1017 1050 1083 1113 1140 1167 1185 1206 1224 1242 1257 1272 1284 1293 1296 1302 1290 1281 1266 1245 1224 1206 1188 1170 1155 1143 1134 1134 1134 1137 1143 1146 1137 1131 1116 1092 1068 1062 1059 1065 1086 1110 1125 1134 1143 1134 1128 1128 1131 1137 1158 1179 1203 1227 1254 1272 1293 1311 1329 1347 1368 1386 1407 1419 1431 1440 1443 1443 1440 1437 1434 1428 1422 1416 1410 1404 1395 1383 1374 1374 1371 1374 1383 1392 1380 1362 1347 1326 1308 1305 1314 1323 1344 1362 1380 1392 1404 1407 1401 1398 1392 1386 1377 1371 1362 1359 1353 1350
1377 861 861 861 861 861 861 861 864 864 861 861 861 861 861 861 861 861 864 864 867 867 867 867 867 867 867 867 867 867 867 867 867 867 867 867 864 864 864 864 864 864 864 864 861 861 861 861 861 864 864 864 867 867 867 867 867 867 867 867 864 864 864 864 864 864 864 870 876 882 882 885 882 876 870 867 864 861 861 861 861 861 861 861 861 864 864 867 867 870 870 873 876 873 867 861 861 861 861 861 861 861 861 861 861 861 861 864 864 864 864 864 861 861 861 861 861 861 861 861 861 861 861 861 861 861 861 861 864 864 864 864 864 864 864 864 864 867 867 867 867 867 867 867 867 867 867 867 870 870 870 870 870 870 870 870 873 873 876 876 876 876 876 876 876 876 876 879 882 882 882 882 882 882 882 882 882 885 885 885 885 888 885 885 885 891 894 897 897 897 897 894 891 888 888 885 885 885 885 885 882 882 882 885 885 885 888 888 888 888 888 891 891 891 891 894 894 894 894 894 894 894 894 897 897 897 897 900 900 900 903 903 909 915 927 948 972 993 1017 1041 1047 1053 1056 1053 1050 1047 1044 1041 1035 1029 1023 1014 1005 1014 1026 1041 1062 1086 1098 1110 1116 1113 1107 1101 1092 1083 1083 1086 1092 1107 1125 1131 1131 1131 1125 1122 1122 1125 1131 1131 1131 1128 1113 1101 1080 1053 1026 1005 987 975 984 993 1020 1053 1089 1119 1146 1173 1191 1209 1227 1248 1263 1278 1290 1296 1299 1302 1290 1281 1266 1248 1230 1212 1194 1176 1161 1146 1137 1128 1119 1122 1125 1125 1125 1122 1110 1089 1068 1062 1056 1059 1086 1110 1122 1128 1131 1122 1116 1116 1125 1134 1152 1173 1191 1212 1233 1251 1266 1281 1302 1323 1347 1371 1395 1413 1428 1437 1437 1437 1437 1437 1437 1434 1434 1434 1434 1431 1425 1416 1404 1398 1395 1392 1398 1401 1389 1374 1359 1350 1338 1335 1341 1344 1359 1374 1386 1401 1413 1419 1419 1419 1416 1413 1407 1401 1395 1389 1383 1380
1407 861 861 861 861 861 861 861 861 861 861 861 861 861 861 861 861 864 864 864 867 867 867 867 867 867 867 867 867 867 867 867 867 867 867 864 864 864 864 864 864 864 864 861 861 861 861 861 861 864 864 864 867 867 867 867 867 867 867 867 867 867 864 864 864 864 864 870 876 879 879 879 876 873 870 867 864 864 861 861 861 861 861 861 861 864 867 867 870 870 873 873 873 870 864 861 861 861 861 861 861 861 861 861 861 861 861 861 861 861 861 861 861 861 861 861 861 861 861 861 861 861 861 861 861 861 861 861 864 864 864 864 864 864 864 864 864 864 867 867 867 867 867 867 867 867 867 870 870 870 870 870 870 870 870 870 873 873 876 876 876 876 876 879 879 879 879 879 882 882 885 885 882 882 882 882 882 885 885 888 888 891 891 888 888 891 894 894 897 897 894 891 888 888 888 888 885 885 882 882 882 882 882 885 888 891 894 897 900 900 900 900 897 897 897 897 897 897 897 897 897 897 897 900 900 900 903 903 906 906 906 909 915 921 933 951 972 996 1023 1050 1056 1065 1065 1065 1062 1059 1056 1053 1044 1035 1026 1017 1008 1020 1032 1050 1074 1095 1110 1119 1128 1125 1122 1116 1110 1101 1101 1101 1104 1116 1131 1134 1131 1131 1131 1128 1131 1137 1146 1140 1134 1125 1113 1098 1077 1053 1029 1008 990 978 987 993 1020 1053 1086 1116 1146 1170 1194 1215 1233 1254 1272 1281 1293 1299 1302 1302 1290 1281 1266 1248 1230 1215 1197 1182 1170 1161 1152 1140 1131 1122 1119 1113 1113 1113 1101 1083 1068 1059 1050 1053 1077 1101 1110 1113 1116 1104 1095 1095 1110 1122 1143 1161 1182 1200 1221 1233 1248 1260 1284 1308 1332 1359 1389 1404 1416 1428 1425 1425 1425 1425 1425 1431 1434 1437 1443 1446 1443 1434 1428 1422 1416 1413 1416 1422 1410 1395 1383 1377 1368 1365 1368 1368 1377 1389 1401 1413 1428 1434 1437 1443 1443 1443 1440 1434 1428 1419 1413 1410
1440 861 861 861 861 861 861 861 861 861 861 861 861 861 861 864 864 864 864 867 867 867 867 867 867 867 867 867 864 864 864 864 864 864 864 864 864 864 864 864 864 864 861 861 861 861 861 861 861 864 864 864 864 867 867 867 867 867 867 867 867 867 867 867 867 867 867 870 876 876 876 876 873 870 867 867 864 864 864 861 861 861 861 861 861 864 864 867 867 870 870 870 870 867 864 861 861 861 861 861 861 861 861 861 861 861 861 861 861 861 861 861 861 861 861 861 861 861 861 861 861 861 861 861 861 861 864 864 864 864 864 864 864 864 864 864 864 864 864 867 867 867 867 867 867 867 867 867 870 870 870 870 870 870 870 870 870 870 873 873 876 876 879 879 879 879 879 879 879 882 882 885 882 882 882 882 882 882 885 885 885 888 888 888 888 888 891 894 894 897 894 891 888 888 888 885 885 885 885 885 885 885 888 894 900 906 909 915 915 915 912 912 915 915 915 915 912 909 906 903 900 900 903 906 906 906 909 912 918 921 927 933 939 945 954 966 981 1002 1029 1050 1059 1068 1074 1074 1077 1074 1071 1065 1053 1041 1032 1023 1011 1026 1038 1056 1080 1104 1119 1131 1143 1140 1140 1134 1125 1116 1116 1113 1116 1125 1134 1137 1134 1131 1134 1137 1140 1146 1152 1143 1134 1122 1107 1092 1074 1050 1029 1008 990 978 987 993 1017 1047 1080 1110 1140 1167 1191 1218 1239 1257 1275 1287 1296 1302 1302 1302 1293 1281 1269 1251 1233 1218 1203 1191 1185 1179 1170 1158 1146 1131 1119 1107 1104 1101 1092 1080 1065 1053 1041 1044 1065 1089 1095 1101 1101 1086 1071 1071 1089 1104 1125 1149 1173 1188 1206 1221 1236 1248 1272 1296 1323 1350 1380 1392 1401 1407 1404 1401 1401 1404 1407 1413 1422 1431 1440 1449 1449 1446 1443 1440 1437 1440 1443 1449 1437 1425 1416 1407 1398 1392 1395 1395 1401 1407 1416 1431 1443 1452 1461 1470 1473 1476 1473 1467 1461 1455 1446 1443
1449 861 861 861 861 861 861 861 861 861 861 861 861 864 864 864 864 867 867 867 867 867 867 867 864 864 864 864 864 864 864 864 864 864 864 864 864 864 864 864 864 861 861 861 861 861 861 864 864 864 864 864 867 870 870 870 870 867 867 867 867 867 864 864 864 867 867 870 873 873 873 870 870 870 867 867 867 867 864 864 864 861 861 861 864 864 864 864 864 864 864 864 867 864 864 864 861 861 861 861 861 861 861 861 861 861 861 861 861 861 861 861 861 861 861 861 861 861 861 861 861 861 861 861 861 861 864 864 864 864 864 864 864 864 864 864 864 864 864 867 867 864 864 867 867 867 867 867 867 870 870 870 870 870 870 870 870 870 870 873 873 876 876 879 879 879 879 879 879 879 882 882 885 885 882 882 882 882 882 885 885 885 885 888 888 888 888 891 891 894 891 888 888 885 885 885 888 888 891 894 897 903 906 915 924 930 933 936 933 930 927 930 933 939 939 942 936 927 918 912 906 906 909 912 912 915 915 924 930 939 948 960 966 969 975 984 990 1008 1029 1050 1062 1074 1083 1089 1095 1089 1086 1077 1062 1050 1038 1026 1017 1029 1041 1059 1086 1113 1128 1143 1155 1155 1155 1149 1140 1131 1128 1128 1128 1131 1137 1137 1137 1134 1140 1146 1149 1152 1152 1140 1128 1116 1101 1086 1068 1047 1026 1008 987 978 984 993 1014 1041 1068 1098 1128 1158 1188 1218 1239 1260 1278 1287 1299 1302 1302 1305 1296 1284 1272 1257 1239 1227 1218 1206 1200 1194 1185 1173 1161 1143 1128 1113 1104 1095 1083 1071 1059 1047 1035 1038 1059 1080 1086 1086 1086 1071 1056 1059 1074 1092 1110 1128 1146 1167 1188 1212 1233 1257 1284 1308 1329 1347 1368 1368 1368 1368 1368 1368 1371 1380 1386 1395 1407 1416 1425 1434 1437 1440 1443 1446 1452 1455 1458 1461 1455 1449 1443 1437 1428 1425 1425 1422 1425 1428 1434 1443 1452 1458 1464 1470 1473 1479 1479 1476 1473 1464 1455 1449
1452 861 861 861 861 861 861 861 861 861 861 864 864 864 867 867 867 867 867 867 867 864 864 864 864 861 861 861 864 864 864 864 864 864 864 864 864 864 864 864 864 864 861 861 861 861 864 864 864 864 864 864 867 867 867 867 867 867 867 867 867 864 864 864 864 867 870 873 873 873 870 870 870 870 870 870 870 867 867 867 864 864 864 864 864 864 861 861 861 861 861 864 864 864 864 864 864 864 864 861 861 861 861 861 861 861 861 861 861 861 861 861 861 861 861 861 861 861 861 861 861 861 861 861 861 861 864 864 864 861 864 864 864 864 864 864 864 864 864 864 864 864 864 864 867 867 867 867 867 870 870 870 870 870 870 870 870 870 870 870 870 873 876 879 879 882 882 879 879 879 882 882 885 885 885 882 882 882 882 885 885 885 888 888 888 885 885 885 891 894 891 888 885 885 885 888 894 897 909 921 930 939 945 954 963 969 966 966 960 954 945 951 957 963 969 975 966 951 936 927 915 915 918 924 921 921 921 930 942 951 960 972 975 978 984 990 996 1014 1035 1056 1074 1092 1101 1107 1113 1107 1104 1095 1080 1065 1050 1038 1026 1038 1047 1062 1086 1110 1131 1149 1164 1167 1167 1164 1158 1152 1149 1149 1149 1152 1152 1149 1146 1143 1140 1140 1137 1131 1128 1119 1113 1104 1092 1077 1062 1047 1029 1011 996 987 987 987 1005 1026 1050 1080 1110 1140 1167 1197 1224 1248 1272 1284 1296 1299 1302 1302 1293 1287 1275 1263 1251 1242 1233 1224 1215 1206 1197 1182 1170 1149 1131 1113 1098 1086 1074 1065 1056 1044 1032 1032 1053 1071 1074 1074 1071 1056 1044 1047 1062 1080 1095 1110 1128 1152 1176 1203 1233 1263 1287 1314 1332 1344 1353 1350 1347 1341 1344 1347 1353 1359 1365 1377 1389 1398 1407 1416 1425 1431 1440 1446 1452 1455 1458 1461 1461 1461 1461 1458 1458 1455 1452 1452 1449 1449 1449 1455 1458 1461 1464 1467 1470 1476 1479 1479 1479 1470 1458 1452
1458 861 861 861 861 861 861 861 861 861 861 864 864 867 867 867 867 867 867 867 864 864 864 861 861 861 861 861 861 861 864 864 864 864 864 864 864 864 864 864 864 864 861 861 861 861 861 864 864 861 861 864 864 864 864 867 867 867 867 867 867 864 864 864 867 870 873 873 876 876 870 867 870 870 870 870 870 870 867 867 867 864 864 864 864 864 861 861 861 861 861 861 864 861 861 864 864 864 864 864 864 864 861 861 861 861 861 861 861 861 861 861 861 861 861 861 861 861 861 861 861 861 861 861 864 864 864 864 864 864 864 864 864 864 864 864 864 864 864 864 864 864 864 864 867 867 867 867 867 867 870 870 870 870 870 870 870 870 870 870 870 873 876 879 879 882 882 879 879 879 876 876 879 879 882 879 879 882 882 882 885 888 888 888 888 885 882 882 885 888 885 885 885 888 888 900 915 930 939 951 960 966 972 978 987 993 990 990 984 975 966 972 978 984 990 999 990 975 963 948 936 930 933 936 936 939 939 948 960 966 975 984 987 990 993 999 1005 1023 1044 1065 1086 1104 1116 1122 1128 1122 1116 1104 1089 1074 1059 1047 1035 1044 1053 1068 1089 1110 1131 1152 1170 1176 1179 1179 1176 1173 1173 1170 1167 1164 1161 1155 1152 1149 1143 1137 1128 1119 1110 1104 1101 1098 1086 1077 1065 1053 1041 1026 1011 999 990 984 996 1011 1029 1059 1089 1116 1143 1173 1203 1233 1257 1275 1290 1296 1299 1299 1293 1287 1281 1272 1263 1254 1245 1236 1227 1215 1203 1188 1173 1152 1128 1110 1092 1074 1065 1056 1050 1038 1026 1026 1047 1065 1065 1062 1056 1044 1032 1035 1053 1068 1083 1095 1113 1140 1164 1197 1233 1266 1290 1317 1332 1338 1341 1338 1332 1326 1332 1335 1338 1341 1347 1356 1365 1377 1386 1395 1407 1422 1434 1437 1440 1440 1443 1443 1449 1458 1464 1473 1479 1482 1479 1479 1473 1470 1464 1464 1461 1461 1461 1461 1467 1470 1473 1476 1479 1473 1464 1458
1455 861 861 861 861 861 861 861 861 861 861 861 864 864 864 867 867 864 864 864 864 861 861 861 861 861 861 861 861 861 861 864 864 864 864 864 864 861 864 864 864 861 861 861 861 861 861 861 861 861 861 864 864 864 864 864 864 864 867 864 864 864 864 864 867 870 873 879 882 885 879 876 873 870 867 867 867 867 867 867 867 867 867 867 864 864 864 861 861 861 861 861 861 861 861 861 861 861 864 864 864 864 864 861 861 861 861 861 861 861 861 861 861 861 861 861 861 861 861 861 861 861 861 861 864 864 864 864 864 864 864 864 864 864 864 864 864 864 864 864 864 864 864 864 867 867 867 867 867 867 870 870 870 870 870 870 870 870 870 870 870 873 876 879 879 882 882 879 879 879 876 876 876 876 876 879 879 879 882 882 885 888 888 885 885 885 882 882 882 882 882 882 885 894 900 918 936 957 966 975 984 987 990 999 1008 1014 1014 1011 1005 996 987 990 993 999 1008 1017 1011 999 987 972 954 948 951 951 954 957 963 972 978 987 993 999 999 1002 1005 1011 1014 1032 1053 1074 1095 1113 1125 1131 1137 1131 1122 1113 1098 1083 1068 1056 1044 1053 1059 1074 1092 1110 1131 1155 1173 1182 1191 1197 1197 1197 1194 1188 1182 1173 1161 1155 1152 1149 1143 1137 1128 1116 1104 1101 1101 1101 1095 1086 1080 1074 1065 1050 1032 1017 1002 987 990 999 1011 1038 1068 1095 1122 1149 1176 1206 1236 1257 1281 1293 1296 1302 1293 1287 1281 1275 1272 1263 1254 1245 1236 1224 1209 1191 1173 1146 1122 1095 1077 1056 1047 1041 1038 1029 1020 1020 1038 1056 1053 1047 1041 1032 1023 1029 1044 1059 1074 1089 1107 1134 1161 1194 1230 1266 1290 1317 1332 1335 1338 1332 1326 1320 1323 1326 1326 1329 1329 1341 1350 1362 1374 1389 1401 1416 1428 1428 1431 1434 1437 1437 1446 1458 1467 1476 1482 1488 1494 1497 1491 1485 1479 1470 1464 1461 1458 1455 1458 1458 1461 1461 1464 1461 1458 1455
1446 861 861 861 861 861 861 861 861 861 861 861 861 864 864 864 867 864 864 864 864 861 861 861 861 861 861 861 861 861 864 864 864 864 864 864 861 861 861 864 864 864 864 861 861 861 861 861 861 861 861 864 864 864 864 864 864 864 864 864 864 864 864 864 867 870 873 879 885 885 882 879 873 870 867 864 864 864 864 864 867 867 867 867 864 864 864 861 861 861 861 861 861 861 861 861 861 861 861 861 861 864 864 864 861 861 861 861 861 861 861 861 861 861 861 861 861 861 861 861 861 861 861 864 864 864 864 864 864 864 864 864 864 864 864 864 864 864 864 864 864 864 864 864 864 867 867 867 867 867 870 870 870 870 870 870 870 870 870 870 873 873 876 879 879 882 882 882 879 879 876 873 873 873 876 876 879 879 882 882 885 885 885 885 885 885 885 885 882 882 885 885 891 903 918 936 957 975 981 984 990 999 1005 1017 1029 1035 1035 1032 1026 1014 1005 1008 1011 1014 1023 1029 1023 1011 999 984 969 963 963 966 969 975 984 990 996 1002 1008 1014 1017 1020 1020 1023 1026 1041 1059 1077 1095 1113 1128 1137 1143 1140 1134 1125 1107 1092 1080 1065 1053 1056 1059 1071 1095 1119 1140 1164 1185 1194 1206 1212 1215 1218 1212 1206 1197 1188 1176 1170 1167 1161 1155 1149 1137 1122 1107 1107 1107 1104 1104 1101 1095 1086 1080 1059 1041 1023 1005 990 990 993 999 1023 1044 1068 1098 1125 1155 1185 1212 1239 1266 1281 1290 1299 1293 1290 1284 1281 1278 1269 1260 1251 1239 1227 1212 1194 1173 1143 1110 1080 1059 1035 1029 1026 1026 1020 1014 1017 1032 1047 1044 1038 1032 1023 1014 1020 1035 1050 1068 1086 1104 1128 1155 1188 1224 1257 1284 1311 1326 1329 1335 1329 1320 1314 1314 1314 1314 1314 1314 1323 1335 1347 1365 1380 1395 1410 1422 1422 1422 1422 1428 1431 1443 1452 1464 1473 1479 1488 1497 1506 1500 1494 1485 1476 1464 1458 1455 1449 1449 1446 1446 1446 1446 1446 1446 1446
1431 861 861 861 861 861 861 861 861 861 861 861 861 864 864 867 867 867 867 864 864 861 861 861 861 861 861 861 864 864 864 861 861 864 864 864 861 861 861 864 864 864 864 864 864 861 861 861 861 861 861 864 864 864 864 864 864 864 864 864 861 864 864 864 867 870 873 876 879 879 876 876 870 867 864 864 864 864 864 864 864 867 867 864 864 861 861 861 861 861 861 861 861 861 861 861 861 861 861 861 861 861 864 861 861 861 861 861 861 861 861 861 861 861 861 861 861 861 861 861 861 861 864 864 864 864 864 864 864 861 864 864 864 864 864 864 864 864 864 864 864 864 864 864 864 867 867 867 867 867 867 867 870 870 870 870 870 870 870 873 873 876 876 876 879 879 879 876 876 873 873 873 873 873 876 876 879 879 879 882 882 882 882 885 885 885 885 885 885 882 885 888 894 912 930 948 966 984 987 993 1002 1014 1029 1038 1047 1053 1053 1053 1047 1038 1032 1032 1032 1035 1038 1041 1032 1017 1005 990 975 972 975 981 984 990 993 1002 1008 1014 1023 1029 1032 1035 1038 1038 1041 1053 1065 1083 1101 1119 1134 1143 1152 1149 1143 1134 1119 1104 1092 1080 1068 1068 1068 1077 1101 1125 1146 1170 1191 1203 1215 1224 1230 1236 1230 1224 1215 1203 1191 1185 1179 1173 1167 1158 1146 1131 1116 1113 1113 1110 1113 1113 1107 1098 1089 1065 1044 1026 1011 996 993 993 993 1008 1023 1044 1074 1101 1131 1158 1188 1218 1248 1266 1278 1293 1290 1290 1290 1287 1284 1275 1263 1254 1242 1230 1215 1194 1176 1140 1101 1068 1041 1017 1011 1011 1014 1011 1008 1014 1026 1041 1038 1032 1026 1017 1008 1011 1029 1044 1062 1080 1101 1125 1146 1179 1212 1245 1272 1299 1317 1323 1332 1326 1317 1311 1305 1302 1299 1296 1296 1308 1320 1335 1356 1374 1389 1404 1416 1413 1410 1410 1416 1422 1434 1446 1458 1464 1470 1479 1491 1503 1497 1491 1482 1470 1458 1455 1452 1446 1440 1434 1431 1428 1425 1428 1428 1431
1410 861 861 861 861 861 861 861 861 861 861 864 864 864 867 870 873 870 867 867 864 861 861 861 861 864 864 864 864 864 861 861 861 861 864 864 861 861 861 864 864 864 864 864 864 864 864 861 861 861 861 861 861 864 864 864 864 864 861 861 861 861 864 864 867 873 876 876 876 876 873 870 870 870 870 867 867 864 864 864 864 867 867 864 861 861 861 861 861 861 864 861 861 861 861 861 861 861 861 861 861 864 864 864 861 861 861 861 861 861 861 861 861 861 861 861 861 861 864 864 864 864 864 864 864 864 861 861 861 861 864 864 864 864 864 864 864 864 864 864 864 864 864 864 864 864 867 867 867 867 867 867 867 870 870 870 870 870 870 873 873 873 873 876 876 879 876 876 873 873 873 873 873 873 876 876 879 879 879 879 879 882 882 882 885 885 888 888 885 882 885 888 897 915 933 951 966 981 990 996 1008 1026 1044 1053 1059 1065 1065 1068 1065 1062 1059 1056 1056 1056 1053 1053 1041 1023 1005 993 981 981 987 996 996 999 1002 1008 1014 1023 1035 1047 1050 1056 1056 1059 1059 1068 1077 1092 1110 1131 1143 1152 1161 1158 1149 1140 1128 1113 1104 1095 1089 1086 1086 1095 1113 1131 1152 1173 1194 1209 1224 1236 1245 1254 1251 1248 1239 1224 1209 1200 1191 1182 1173 1164 1155 1143 1128 1122 1119 1116 1119 1122 1116 1101 1089 1068 1044 1026 1017 1005 1002 999 996 1002 1005 1020 1047 1074 1101 1131 1158 1188 1215 1239 1260 1281 1287 1293 1293 1290 1287 1278 1266 1254 1242 1230 1215 1197 1179 1146 1110 1077 1047 1020 1008 1005 1002 999 996 999 1008 1020 1020 1020 1017 1008 1002 1005 1020 1032 1050 1065 1083 1104 1125 1155 1191 1227 1257 1287 1305 1317 1326 1323 1314 1308 1296 1284 1278 1278 1278 1293 1311 1329 1350 1368 1383 1392 1401 1398 1392 1392 1398 1404 1413 1425 1437 1446 1455 1467 1479 1491 1485 1479 1470 1461 1452 1449 1443 1437 1425 1413 1407 1404 1404 1404 1410 1410
1389 861 861 861 861 861 861 861 861 861 861 861 864 864 867 870 873 870 870 867 864 864 864 864 864 864 864 864 864 864 861 861 861 861 861 861 861 861 861 864 864 864 864 864 864 861 861 861 861 861 861 861 864 864 864 864 864 864 861 861 861 861 864 864 867 873 873 873 873 873 870 867 867 870 870 870 867 864 864 864 864 867 867 864 861 861 861 861 861 861 861 861 861 861 861 861 861 861 861 861 864 864 864 864 861 861 861 861 861 861 861 861 861 861 861 861 861 864 864 864 864 864 864 864 861 861 861 861 861 861 864 864 864 864 864 864 864 864 864 864 864 864 864 864 864 864 867 867 867 867 867 867 870 870 870 870 870 870 870 873 873 873 873 873 873 873 876 876 876 873 873 873 873 873 876 876 879 879 879 879 879 879 882 882 882 885 888 888 888 885 888 891 897 912 927 939 951 963 975 984 999 1020 1041 1047 1053 1059 1062 1068 1074 1077 1080 1080 1080 1077 1074 1071 1056 1038 1020 1011 1002 999 1002 1008 1008 1008 1008 1017 1026 1035 1047 1059 1065 1068 1071 1071 1074 1083 1092 1104 1119 1137 1149 1155 1164 1161 1155 1149 1140 1131 1125 1119 1113 1113 1113 1119 1131 1146 1164 1182 1200 1218 1236 1248 1260 1272 1269 1263 1254 1236 1221 1209 1197 1188 1179 1167 1158 1146 1131 1125 1119 1116 1119 1122 1113 1101 1086 1065 1041 1026 1023 1020 1017 1014 1008 1005 999 1005 1026 1047 1074 1101 1128 1155 1182 1209 1236 1266 1275 1287 1293 1290 1287 1278 1269 1257 1242 1227 1209 1191 1176 1146 1116 1086 1053 1023 1008 999 990 987 987 987 993 1002 1002 1005 1005 999 993 999 1008 1020 1035 1050 1068 1092 1116 1149 1185 1221 1251 1278 1299 1308 1320 1317 1311 1302 1284 1269 1263 1263 1263 1284 1302 1323 1344 1362 1374 1383 1389 1383 1377 1377 1380 1386 1395 1404 1416 1428 1440 1452 1464 1476 1470 1461 1455 1446 1440 1434 1428 1419 1407 1392 1383 1380 1380 1383 1386 1389
1371 861 861 861 861 861 861 861 861 861 861 861 861 864 864 867 870 870 867 867 867 864 864 864 864 864 864 864 864 861 861 861 861 861 861 861 861 861 861 864 864 864 864 864 864 861 861 861 861 861 861 864 864 864 867 867 867 864 864 861 861 861 864 864 867 870 873 873 870 870 867 864 867 867 870 867 867 867 864 864 864 867 867 864 864 861 861 861 861 861 861 861 861 861 861 861 861 861 861 864 864 864 864 864 864 861 861 861 861 861 861 861 861 861 861 861 861 864 864 864 864 864 864 864 861 861 861 861 861 861 864 864 864 864 864 864 864 864 864 864 864 864 864 864 864 864 867 867 867 867 867 867 867 870 870 870 870 870 870 870 870 870 870 870 873 873 873 873 873 873 873 873 873 873 876 876 879 879 879 879 879 879 882 882 885 885 885 885 885 885 888 891 897 906 918 927 939 951 963 975 993 1014 1038 1047 1053 1059 1065 1071 1077 1080 1086 1089 1089 1089 1083 1080 1068 1056 1044 1038 1032 1029 1023 1020 1017 1017 1017 1026 1035 1044 1056 1068 1074 1080 1086 1089 1092 1098 1107 1116 1131 1143 1155 1161 1170 1167 1164 1161 1152 1146 1143 1140 1137 1137 1137 1140 1149 1155 1173 1191 1209 1230 1251 1266 1278 1290 1284 1281 1269 1251 1230 1215 1203 1191 1179 1167 1155 1146 1134 1128 1122 1119 1119 1122 1113 1098 1080 1059 1041 1029 1032 1038 1038 1035 1029 1014 999 999 1011 1023 1047 1071 1098 1122 1149 1179 1212 1245 1263 1278 1290 1290 1287 1281 1272 1260 1242 1227 1206 1188 1167 1140 1116 1089 1059 1026 1008 993 978 978 978 978 981 984 987 990 990 990 987 990 996 1002 1020 1038 1062 1092 1122 1158 1194 1227 1251 1275 1293 1302 1311 1308 1302 1296 1278 1260 1254 1254 1254 1275 1296 1317 1335 1356 1362 1368 1374 1368 1362 1362 1365 1368 1374 1380 1389 1407 1422 1434 1446 1455 1446 1440 1431 1422 1413 1404 1395 1386 1374 1365 1356 1356 1353 1359 1365 1371
1341 861 861 861 861 861 861 861 861 861 861 861 864 864 867 867 870 867 867 864 864 864 864 864 864 864 864 864 861 861 861 861 861 861 861 861 861 861 864 864 864 864 864 864 864 864 864 861 861 861 861 864 864 864 867 870 870 867 867 864 864 864 864 864 867 867 870 870 870 870 867 864 864 867 867 867 867 864 864 864 864 867 864 864 864 864 864 861 861 861 861 861 861 861 861 861 861 861 861 864 864 864 864 864 864 861 861 861 861 861 861 861 861 861 861 861 861 861 864 864 864 861 861 861 861 861 861 861 861 861 864 864 864 864 864 864 864 864 864 864 864 864 864 864 864 864 864 867 867 867 867 867 867 867 870 870 870 870 870 870 870 870 870 870 870 873 873 873 873 873 873 873 873 873 876 879 879 879 879 879 879 879 882 882 882 885 885 885 885 888 888 891 897 903 909 918 930 939 954 966 987 1011 1035 1047 1056 1065 1068 1071 1074 1080 1083 1086 1089 1089 1086 1080 1077 1074 1071 1068 1065 1059 1047 1035 1032 1029 1029 1035 1041 1053 1065 1077 1086 1095 1101 1104 1110 1116 1122 1128 1140 1152 1161 1170 1179 1179 1179 1173 1167 1161 1161 1161 1161 1158 1155 1155 1158 1161 1179 1200 1224 1245 1269 1284 1293 1305 1302 1299 1290 1266 1245 1227 1206 1188 1176 1161 1149 1140 1131 1131 1128 1125 1125 1122 1113 1095 1077 1062 1044 1038 1050 1059 1062 1065 1062 1038 1014 1002 1002 1002 1023 1044 1068 1092 1119 1149 1182 1215 1236 1260 1278 1281 1287 1281 1275 1266 1254 1239 1218 1194 1170 1143 1113 1086 1056 1023 1005 987 975 975 975 975 975 975 978 978 978 981 981 987 996 1005 1032 1056 1083 1116 1146 1179 1212 1245 1263 1284 1299 1305 1314 1308 1302 1293 1275 1257 1248 1242 1239 1263 1287 1308 1326 1341 1347 1347 1347 1344 1344 1344 1347 1353 1359 1368 1377 1395 1413 1425 1434 1443 1434 1428 1419 1404 1389 1380 1371 1362 1356 1353 1347 1341 1335 1335 1338 1338
1311 861 861 861 861 861 861 861 861 861 861 861 861 864 864 867 870 867 864 864 864 864 864 864 867 864 864 861 861 861 861 864 864 864 864 864 864 864 864 864 864 864 864 864 864 864 864 864 861 861 861 864 864 864 867 867 870 870 867 867 864 864 864 864 867 867 870 870 870 867 867 864 864 867 867 867 867 867 867 864 867 867 867 864 864 864 864 864 864 864 861 861 861 861 861 861 861 861 864 864 867 867 864 864 864 861 861 861 861 861 861 861 861 861 861 861 861 861 864 864 861 861 861 861 861 861 861 861 861 861 864 864 864 864 864 864 864 864 864 864 864 864 864 864 864 864 867 867 867 867 867 867 867 867 870 870 870 870 870 870 867 870 870 870 870 873 873 873 873 873 873 873 873 873 876 876 879 879 882 882 882 879 879 879 879 882 882 885 885 888 891 891 894 900 903 909 918 927 945 963 987 1014 1041 1050 1059 1065 1068 1068 1071 1071 1071 1071 1071 1074 1077 1080 1086 1092 1095 1092 1086 1080 1068 1056 1050 1044 1041 1047 1053 1062 1077 1092 1101 1110 1116 1116 1119 1122 1128 1134 1146 1158 1167 1179 1188 1188 1191 1188 1182 1179 1176 1173 1173 1173 1173 1173 1176 1176 1197 1218 1239 1263 1284 1299 1308 1317 1314 1311 1302 1284 1266 1239 1215 1188 1173 1158 1146 1140 1131 1131 1131 1131 1125 1119 1110 1098 1083 1077 1071 1071 1077 1083 1086 1086 1080 1059 1038 1023 1011 996 1008 1023 1041 1065 1089 1119 1149 1182 1209 1239 1260 1269 1278 1278 1275 1269 1257 1242 1224 1200 1176 1149 1119 1089 1056 1026 1005 987 972 972 972 972 969 969 969 969 969 972 975 984 996 1011 1041 1074 1104 1134 1167 1197 1227 1257 1275 1293 1305 1314 1320 1314 1305 1293 1275 1260 1248 1239 1230 1254 1278 1299 1311 1323 1326 1326 1323 1323 1323 1326 1332 1338 1347 1356 1368 1386 1404 1416 1422 1431 1425 1422 1410 1395 1377 1365 1353 1344 1344 1344 1338 1329 1320 1314 1314 1311
1314 861 861 861 861 861 861 861 861 861 861 861 861 864 864 867 867 867 864 864 864 864 864 867 867 867 864 861 861 861 864 864 864 864 864 864 864 864 864 864 864 864 867 867 864 864 864 864 861 861 861 861 861 864 864 867 867 867 870 867 864 864 864 864 867 867 870 870 870 867 867 864 864 867 870 870 867 867 867 867 867 867 867 867 867 867 864 864 864 864 861 861 861 861 861 861 861 861 864 864 867 864 864 864 864 861 861 861 861 861 861 861 861 861 861 861 861 861 861 861 861 861 861 861 861 861 861 861 861 861 864 864 864 864 864 864 864 864 864 864 864 864 864 864 864 864 867 867 867 867 867 867 867 870 870 870 870 870 870 870 867 870 870 870 870 873 873 873 873 873 873 873 873 876 876 879 879 879 879 882 879 879 879 879 879 879 879 882 885 885 888 888 891 894 897 903 909 921 942 963 987 1011 1035 1044 1050 1056 1056 1056 1053 1050 1047 1050 1050 1053 1065 1074 1086 1098 1107 1107 1107 1101 1092 1083 1074 1065 1062 1062 1065 1077 1092 1107 1116 1125 1131 1134 1134 1137 1143 1149 1158 1170 1179 1185 1191 1194 1194 1194 1191 1188 1188 1188 1185 1188 1188 1191 1194 1194 1212 1233 1254 1275 1296 1311 1317 1326 1323 1320 1311 1296 1278 1251 1218 1191 1173 1158 1146 1140 1134 1137 1137 1137 1128 1116 1110 1104 1098 1098 1101 1101 1104 1104 1101 1098 1095 1080 1065 1047 1023 1002 1002 1005 1017 1038 1062 1089 1119 1149 1182 1215 1239 1254 1266 1269 1269 1266 1254 1245 1227 1209 1188 1158 1128 1095 1062 1029 1005 987 969 969 969 966 966 966 963 963 963 966 972 984 999 1017 1053 1089 1125 1152 1182 1212 1239 1266 1284 1305 1317 1323 1332 1323 1311 1299 1284 1269 1254 1242 1230 1251 1269 1284 1293 1302 1302 1302 1302 1305 1308 1311 1320 1326 1338 1350 1362 1380 1395 1404 1413 1419 1419 1416 1410 1392 1377 1362 1347 1335 1329 1326 1320 1317 1311 1314 1314 1314
1317 861 861 861 861 861 861 861 861 861 861 861 861 864 864 864 864 864 864 864 864 864 864 864 867 864 864 864 864 864 864 864 867 864 864 864 864 864 864 864 864 864 867 867 864 864 864 864 861 861 861 861 861 861 864 864 864 864 864 864 864 864 864 864 867 870 870 870 867 867 867 864 867 867 867 867 867 867 864 864 867 867 867 867 867 867 867 864 864 864 864 861 861 861 861 861 861 861 864 864 864 864 864 864 861 861 861 861 861 861 861 861 861 861 861 861 861 861 864 861 861 861 861 861 861 861 861 861 861 861 861 864 864 864 864 864 864 864 864 864 864 864 864 864 864 864 867 867 867 867 867 867 867 870 870 870 870 870 870 870 867 870 870 870 870 873 873 873 873 873 873 876 876 876 876 879 879 879 879 879 879 882 879 876 876 876 879 879 882 882 885 885 885 888 891 897 906 915 939 963 984 1005 1026 1032 1038 1041 1038 1035 1032 1026 1023 1023 1026 1035 1050 1068 1083 1098 1113 1116 1122 1122 1116 1110 1101 1092 1083 1083 1080 1092 1110 1125 1134 1143 1149 1152 1155 1161 1167 1173 1182 1191 1194 1191 1191 1191 1188 1191 1191 1194 1197 1197 1200 1203 1206 1209 1209 1212 1227 1245 1263 1281 1302 1314 1320 1326 1323 1320 1311 1293 1278 1251 1218 1188 1176 1164 1155 1152 1149 1149 1146 1143 1134 1125 1122 1119 1119 1119 1119 1119 1113 1110 1104 1101 1098 1092 1086 1071 1044 1020 1008 1002 999 1017 1035 1059 1086 1113 1146 1179 1206 1227 1245 1251 1257 1257 1248 1242 1227 1212 1197 1167 1140 1107 1071 1035 1011 987 969 966 963 963 960 960 960 960 960 963 969 981 999 1017 1053 1089 1122 1149 1176 1200 1227 1251 1275 1296 1311 1320 1326 1320 1311 1299 1287 1272 1257 1242 1227 1242 1257 1269 1278 1287 1287 1287 1290 1293 1293 1299 1305 1314 1329 1341 1356 1371 1383 1392 1401 1407 1407 1410 1404 1395 1383 1368 1350 1335 1329 1323 1317 1317 1314 1314 1317 1317
1317 861 861 861 861 861 861 861 861 861 861 861 861 861 864 864 864 861 861 861 864 864 864 864 864 864 864 864 864 864 864 864 867 864 864 864 864 864 864 864 864 864 864 864 864 864 864 864 861 861 861 861 861 861 861 861 861 864 864 864 864 864 867 867 867 870 870 870 867 867 864 864 867 867 867 864 864 864 864 864 864 867 867 867 867 867 867 867 867 864 864 864 861 861 861 861 861 861 861 864 864 864 861 861 861 861 861 861 861 861 861 861 861 861 861 864 864 864 864 864 861 861 861 861 861 861 861 861 861 861 861 864 864 864 864 864 864 864 864 864 864 864 864 864 864 864 864 867 867 867 867 867 867 870 870 870 870 867 867 867 867 870 870 870 870 873 873 873 873 873 876 876 876 876 876 879 879 879 879 882 882 882 882 879 876 876 876 876 879 879 882 882 885 888 891 897 903 912 933 951 972 990 1008 1014 1020 1023 1023 1020 1014 1008 1002 1008 1014 1026 1047 1065 1080 1092 1104 1116 1125 1128 1128 1125 1116 1107 1101 1101 1101 1110 1125 1140 1149 1158 1164 1164 1167 1173 1179 1185 1191 1194 1191 1185 1179 1179 1176 1176 1182 1188 1191 1197 1203 1209 1212 1215 1215 1218 1230 1242 1260 1278 1296 1311 1320 1329 1323 1320 1311 1296 1281 1254 1224 1197 1191 1182 1179 1176 1176 1170 1164 1158 1152 1143 1140 1140 1140 1137 1134 1131 1119 1110 1107 1101 1098 1098 1098 1086 1065 1047 1026 1008 999 1005 1014 1032 1056 1080 1110 1140 1170 1194 1221 1230 1239 1245 1239 1236 1227 1215 1200 1176 1149 1119 1080 1044 1017 993 969 966 960 957 957 957 957 957 957 963 966 978 996 1014 1047 1080 1110 1134 1161 1185 1206 1230 1257 1281 1299 1311 1323 1317 1311 1302 1290 1278 1260 1242 1221 1230 1242 1251 1260 1269 1272 1272 1275 1278 1281 1287 1296 1305 1320 1335 1350 1362 1371 1380 1389 1395 1398 1401 1401 1395 1389 1374 1359 1344 1335 1326 1323 1320 1320 1320 1317 1317
1305 861 861 861 861 861 861 861 861 861 861 861 861 861 861 861 861 861 861 861 861 861 861 861 864 864 864 864 864 864 864 864 864 864 864 861 861 861 864 864 864 864 864 864 864 864 864 864 864 864 861 861 861 861 861 861 861 861 861 864 864 864 867 867 870 870 870 870 867 864 864 864 864 864 864 864 861 861 864 864 864 867 867 864 864 864 864 864 864 867 864 864 864 864 861 861 861 861 861 861 861 861 861 861 861 861 861 861 861 864 864 864 864 864 864 864 864 864 864 864 864 861 861 861 861 861 861 861 861 861 861 861 864 864 864 864 864 864 864 864 864 864 864 864 864 864 867 867 867 867 867 867 867 867 870 870 867 867 867 867 867 867 870 870 870 870 870 873 873 873 873 876 876 876 876 876 879 879 879 882 882 885 882 882 879 879 876 876 876 879 879 882 882 885 888 891 900 906 924 939 954 969 984 990 993 996 996 996 993 987 981 993 1002 1017 1038 1056 1071 1083 1098 1110 1122 1131 1134 1137 1131 1128 1122 1125 1125 1134 1143 1155 1161 1170 1173 1176 1176 1179 1185 1188 1188 1191 1185 1176 1167 1164 1161 1161 1167 1176 1185 1194 1203 1209 1212 1215 1215 1215 1227 1239 1254 1272 1293 1305 1317 1326 1323 1320 1314 1299 1284 1260 1230 1206 1203 1197 1197 1197 1197 1191 1182 1176 1170 1167 1164 1161 1158 1152 1143 1134 1122 1110 1104 1104 1101 1101 1101 1095 1086 1074 1050 1023 1005 1002 999 1011 1029 1047 1077 1104 1131 1161 1191 1206 1218 1230 1227 1227 1221 1212 1203 1179 1155 1125 1092 1056 1026 999 972 966 960 954 954 954 954 954 954 960 966 978 990 1005 1035 1062 1089 1113 1134 1158 1182 1206 1233 1263 1287 1302 1320 1317 1314 1311 1299 1284 1266 1239 1215 1218 1218 1224 1236 1245 1248 1251 1254 1260 1269 1278 1293 1305 1317 1329 1341 1350 1356 1365 1374 1380 1386 1392 1395 1392 1389 1380 1365 1356 1350 1344 1338 1332 1329 1320 1311 1305
1296 861 861 861 861 861 861 861 861 861 861 861 861 861 861 861 861 861 861 861 861 861 861 861 861 861 861 861 861 864 864 864 864 864 861 861 861 861 864 864 864 864 864 864 864 864 864 864 864 864 864 864 864 864 861 861 861 861 861 864 864 864 867 870 870 873 873 870 867 864 864 864 864 864 864 864 861 864 864 864 864 867 867 864 861 864 864 864 864 864 864 864 864 864 864 864 864 864 864 864 864 864 861 861 861 861 861 861 861 864 864 864 864 864 864 864 864 864 867 864 864 861 861 864 864 861 861 861 861 861 861 861 861 864 864 864 864 864 864 864 864 864 864 864 864 864 867 867 867 867 867 867 867 867 867 867 867 867 867 867 867 867 867 870 870 870 870 870 870 873 873 873 873 876 876 876 876 879 879 882 882 885 885 882 882 879 876 876 876 876 879 879 879 882 885 888 894 900 912 927 936 948 957 960 963 966 966 966 966 963 960 975 990 1008 1026 1044 1059 1074 1089 1104 1119 1131 1137 1146 1149 1152 1152 1155 1155 1158 1164 1170 1176 1182 1182 1182 1179 1179 1179 1179 1179 1182 1176 1164 1155 1149 1143 1143 1149 1158 1170 1182 1194 1197 1203 1206 1206 1209 1224 1236 1254 1269 1287 1299 1311 1320 1323 1323 1317 1299 1284 1260 1236 1215 1206 1200 1197 1203 1206 1203 1197 1191 1185 1182 1176 1170 1164 1152 1137 1125 1116 1107 1104 1104 1104 1101 1101 1098 1095 1092 1074 1053 1032 1017 1002 1002 1014 1026 1050 1074 1101 1131 1161 1182 1200 1218 1218 1221 1218 1212 1203 1185 1164 1140 1110 1083 1053 1023 996 981 966 957 954 951 951 951 954 960 963 975 987 999 1020 1041 1065 1086 1107 1131 1158 1185 1218 1251 1278 1299 1320 1323 1326 1323 1308 1293 1269 1239 1212 1203 1197 1197 1209 1218 1224 1230 1236 1245 1257 1269 1284 1296 1308 1320 1329 1335 1344 1350 1359 1368 1374 1383 1386 1386 1389 1380 1371 1365 1362 1356 1350 1341 1335 1320 1305 1296
1290 861 861 861 861 861 861 861 861 861 861 861 861 861 861 861 861 861 861 861 861 861 861 861 861 861 861 861 861 861 861 861 861 861 861 861 861 861 861 864 864 864 864 864 864 864 864 864 864 864 864 864 864 864 864 864 864 864 864 864 864 864 867 870 870 870 870 870 867 867 864 864 864 864 864 864 861 864 864 864 864 864 864 864 861 864 864 864 864 864 864 864 864 864 864 864 864 864 864 867 867 864 864 861 861 861 861 861 861 864 864 864 864 861 864 864 864 864 867 864 864 861 864 864 864 864 861 861 861 861 861 861 861 864 864 864 864 864 864 864 864 864 864 864 864 864 867 867 867 867 867 867 867 867 867 867 867 867 867 867 867 867 867 870 870 870 870 870 870 870 870 873 873 876 876 876 879 879 879 882 882 882 882 882 879 879 876 876 876 876 876 876 879 882 882 885 891 894 903 915 924 930 939 939 942 942 939 939 942 948 954 972 990 1005 1020 1032 1047 1062 1077 1092 1110 1122 1131 1143 1149 1155 1161 1167 1170 1176 1182 1188 1191 1191 1191 1188 1185 1182 1179 1176 1173 1170 1164 1152 1143 1134 1128 1128 1134 1143 1152 1161 1170 1170 1173 1176 1182 1188 1206 1224 1242 1257 1272 1287 1299 1311 1314 1317 1314 1296 1281 1263 1242 1224 1212 1203 1200 1206 1209 1206 1203 1200 1194 1191 1182 1170 1161 1146 1134 1122 1116 1110 1107 1104 1104 1101 1098 1098 1101 1104 1089 1077 1059 1038 1014 1008 1008 1008 1029 1050 1074 1104 1131 1158 1182 1200 1206 1212 1209 1206 1203 1188 1173 1155 1131 1107 1080 1053 1023 1002 978 963 957 951 951 951 951 957 963 969 981 990 1005 1023 1041 1062 1086 1113 1143 1173 1206 1242 1272 1296 1320 1329 1332 1332 1317 1299 1272 1239 1206 1191 1176 1173 1182 1194 1203 1212 1224 1236 1248 1260 1272 1284 1296 1305 1314 1323 1329 1338 1344 1353 1362 1371 1377 1380 1386 1383 1377 1374 1371 1368 1362 1350 1341 1320 1299 1290
1290 861 861 861 861 861 861 861 861 861 864 864 864 861 861 864 864 864 864 864 864 861 861 861 861 861 861 861 861 861 861 861 861 861 861 861 861 861 861 861 864 864 864 864 864 864 864 864 864 864 864 864 864 864 864 864 864 864 864 864 864 864 864 867 867 867 864 867 867 867 867 867 864 864 861 861 861 864 864 864 864 864 864 864 861 864 864 864 864 864 864 864 861 864 864 864 867 870 870 870 867 867 864 861 861 861 861 861 861 864 864 864 864 861 864 864 864 864 864 864 864 861 864 864 864 864 861 861 861 861 861 861 861 861 864 864 864 864 864 864 864 864 864 864 864 864 864 867 867 867 867 867 867 867 867 867 867 867 867 867 867 867 867 867 867 870 870 870 870 870 873 873 876 876 876 876 876 879 879 879 882 882 882 882 879 879 879 876 876 876 876 876 879 879 882 885 888 891 897 906 912 918 924 924 927 927 924 924 933 945 957 972 990 1002 1014 1023 1038 1050 1065 1080 1095 1110 1122 1134 1146 1155 1164 1173 1179 1185 1188 1194 1194 1194 1194 1188 1185 1182 1176 1173 1167 1161 1152 1140 1131 1122 1113 1113 1119 1128 1134 1140 1143 1143 1146 1149 1161 1170 1191 1212 1230 1245 1257 1272 1284 1296 1302 1311 1308 1296 1284 1269 1251 1233 1224 1212 1206 1206 1206 1206 1206 1203 1200 1194 1182 1167 1152 1140 1131 1122 1119 1116 1110 1107 1104 1098 1092 1095 1098 1104 1101 1095 1083 1059 1035 1020 1008 999 1014 1029 1050 1077 1104 1131 1158 1182 1191 1197 1200 1200 1197 1188 1182 1170 1149 1131 1107 1086 1062 1029 999 978 966 951 951 951 951 957 960 966 972 981 993 1002 1020 1047 1074 1104 1134 1167 1203 1236 1266 1293 1317 1326 1335 1335 1317 1299 1269 1233 1200 1179 1158 1152 1164 1176 1191 1209 1224 1233 1245 1254 1263 1275 1281 1290 1299 1308 1314 1323 1332 1341 1350 1359 1371 1377 1383 1383 1383 1380 1374 1368 1362 1353 1344 1323 1302 1290
1296 861 861 861 861 861 861 861 861 861 864 864 864 864 864 864 864 864 864 864 864 861 861 861 861 864 864 864 864 861 864 864 864 864 864 861 861 861 861 861 864 864 864 864 864 864 867 867 867 864 864 864 864 864 864 864 864 864 861 864 864 864 864 864 867 867 867 867 867 867 864 864 864 861 861 861 864 864 864 867 864 864 864 864 861 864 864 864 864 864 861 861 861 861 864 864 867 867 867 867 867 867 864 864 864 861 864 864 864 864 864 864 864 864 864 864 864 864 864 864 864 864 864 864 864 864 861 861 861 861 861 861 861 861 864 864 864 864 864 864 864 864 864 864 864 864 864 867 867 867 867 867 867 867 867 867 867 867 867 867 867 867 867 867 867 867 867 867 870 870 873 873 876 879 876 876 876 876 879 879 879 882 882 882 882 879 879 879 876 876 876 876 879 879 879 882 885 888 891 897 903 906 912 915 915 918 918 921 933 948 966 978 990 999 1008 1017 1032 1044 1056 1068 1080 1092 1107 1122 1134 1149 1161 1170 1179 1182 1185 1188 1188 1188 1185 1182 1179 1173 1170 1164 1158 1149 1140 1131 1119 1110 1104 1098 1104 1110 1113 1116 1119 1122 1125 1134 1149 1164 1185 1203 1221 1233 1248 1257 1269 1278 1290 1302 1308 1305 1302 1290 1272 1257 1242 1227 1218 1212 1209 1206 1203 1197 1188 1179 1170 1158 1146 1140 1134 1131 1125 1119 1116 1110 1104 1098 1089 1089 1092 1095 1098 1098 1095 1074 1056 1038 1017 1002 1008 1014 1029 1053 1077 1104 1131 1155 1167 1176 1182 1185 1185 1182 1179 1170 1155 1140 1122 1104 1083 1056 1026 1002 981 960 954 951 951 954 957 960 966 972 987 1002 1026 1059 1095 1125 1149 1179 1209 1239 1266 1293 1317 1326 1329 1329 1311 1293 1266 1230 1197 1173 1152 1146 1164 1179 1194 1209 1224 1233 1242 1248 1257 1263 1269 1278 1284 1290 1299 1308 1320 1329 1341 1353 1362 1371 1380 1383 1383 1383 1377 1371 1365 1359 1353 1332 1308 1296
1305 861 861 861 861 861 861 861 861 864 864 864 864 864 864 864 864 864 864 864 864 861 861 861 864 864 864 864 864 864 864 864 864 864 864 864 861 861 861 861 861 864 864 864 864 864 864 867 867 867 864 864 864 861 861 861 861 861 861 864 864 864 864 864 867 867 867 867 864 864 864 864 864 861 861 864 864 864 867 867 864 864 864 864 864 864 864 864 864 861 861 861 861 861 861 861 864 864 867 867 867 864 864 864 864 864 864 864 864 864 864 864 864 864 864 864 867 867 864 864 864 864 864 867 864 864 861 861 861 861 861 861 861 864 864 864 864 864 864 864 864 864 864 864 864 864 864 864 867 867 867 867 867 867 867 867 867 867 867 867 867 867 867 867 867 867 867 867 867 870 870 873 876 879 879 879 876 879 879 879 879 879 879 882 882 879 879 879 879 876 876 876 879 879 879 882 885 885 888 891 894 900 903 906 909 912 921 927 939 954 969 975 981 990 1002 1014 1026 1038 1050 1062 1071 1086 1101 1116 1131 1143 1155 1164 1173 1176 1179 1179 1179 1179 1176 1170 1164 1161 1155 1149 1143 1137 1128 1116 1104 1098 1089 1086 1092 1098 1104 1107 1113 1125 1134 1146 1161 1173 1188 1203 1215 1227 1242 1254 1263 1275 1284 1293 1299 1299 1302 1299 1293 1287 1275 1263 1251 1239 1227 1215 1206 1197 1188 1176 1170 1161 1155 1149 1143 1137 1131 1125 1119 1113 1104 1095 1086 1083 1086 1086 1092 1095 1095 1083 1071 1053 1029 1011 1008 1005 1014 1032 1050 1077 1104 1131 1143 1158 1167 1173 1179 1176 1173 1170 1161 1149 1134 1116 1098 1074 1050 1026 1002 975 963 954 948 951 954 957 960 966 984 1002 1032 1071 1113 1140 1167 1191 1218 1245 1269 1293 1317 1323 1323 1320 1302 1287 1257 1224 1191 1170 1149 1146 1164 1182 1194 1209 1221 1230 1236 1242 1248 1254 1257 1263 1269 1275 1284 1296 1308 1323 1335 1347 1356 1365 1374 1380 1383 1383 1380 1377 1374 1368 1362 1341 1320 1305
1326 861 861 861 861 861 861 861 861 864 864 864 864 864 864 861 861 861 861 861 861 861 861 864 864 864 864 864 864 861 864 864 864 864 864 861 861 861 861 861 861 861 864 864 864 864 864 864 864 864 864 864 864 864 861 861 861 861 864 864 864 864 864 864 864 867 867 867 864 864 864 864 864 861 864 864 867 867 867 867 864 864 861 864 864 864 864 864 864 861 861 861 861 861 861 861 864 864 864 864 864 864 864 861 864 864 864 864 864 864 864 864 864 864 864 864 864 864 864 864 867 867 867 867 864 864 861 861 861 861 861 861 861 864 864 864 864 864 864 864 864 864 864 864 864 864 864 867 867 867 867 867 867 867 867 867 867 867 867 867 867 867 867 867 867 867 867 867 867 870 870 873 873 876 876 876 876 876 879 879 879 879 879 879 882 879 879 879 879 876 876 876 876 879 879 882 882 885 888 888 891 894 897 903 906 915 927 939 951 963 975 978 984 993 1008 1020 1032 1041 1053 1062 1071 1083 1098 1110 1125 1137 1146 1155 1164 1167 1170 1170 1170 1167 1164 1158 1152 1143 1137 1131 1128 1122 1113 1104 1092 1083 1077 1074 1080 1086 1095 1101 1113 1128 1146 1158 1170 1182 1191 1203 1212 1227 1239 1251 1266 1278 1281 1284 1290 1293 1296 1302 1308 1311 1305 1299 1287 1266 1248 1230 1215 1200 1191 1179 1176 1170 1167 1161 1152 1143 1137 1128 1122 1113 1104 1095 1086 1080 1080 1077 1083 1089 1089 1086 1080 1062 1041 1020 1011 999 1002 1014 1026 1053 1080 1104 1125 1143 1155 1164 1173 1170 1167 1164 1161 1155 1140 1122 1104 1086 1071 1047 1020 996 978 963 951 951 948 954 957 963 984 1005 1032 1074 1116 1146 1179 1206 1233 1257 1278 1296 1314 1314 1314 1308 1290 1272 1245 1215 1182 1161 1140 1134 1149 1164 1182 1203 1218 1224 1233 1236 1239 1239 1242 1248 1254 1263 1275 1290 1305 1320 1329 1338 1347 1356 1362 1371 1377 1383 1383 1383 1383 1377 1371 1353 1335 1326
1344 861 861 861 861 861 861 861 861 861 861 864 864 864 864 861 861 861 861 861 861 861 861 861 864 864 864 864 864 864 864 864 864 864 864 861 861 861 861 861 861 861 861 864 864 864 864 864 864 864 864 864 864 864 864 861 861 861 864 864 864 864 864 864 864 864 867 867 864 864 864 864 861 861 864 867 867 867 867 867 864 864 861 864 864 864 864 864 864 864 861 861 861 861 861 861 861 864 864 861 861 861 861 861 864 864 864 864 864 864 864 864 864 864 864 864 867 867 867 867 867 867 867 864 864 864 864 864 864 864 861 861 861 864 864 864 864 864 864 864 864 864 864 864 864 864 864 867 867 867 867 867 867 867 867 867 867 867 867 867 867 867 867 867 867 867 867 867 867 870 870 870 870 873 873 873 876 876 879 879 879 879 879 879 882 879 879 879 876 876 876 876 876 879 879 882 885 885 885 888 888 891 894 900 909 918 936 954 963 972 981 993 1002 1011 1026 1038 1047 1056 1065 1071 1077 1086 1095 1104 1116 1128 1140 1146 1155 1158 1158 1158 1158 1155 1149 1143 1134 1128 1122 1116 1113 1107 1101 1092 1083 1074 1068 1065 1068 1071 1083 1098 1110 1128 1143 1158 1167 1176 1188 1200 1215 1230 1245 1260 1272 1287 1287 1287 1290 1293 1296 1302 1308 1314 1311 1308 1296 1275 1254 1236 1218 1203 1194 1185 1182 1179 1176 1167 1155 1146 1140 1131 1122 1113 1107 1095 1086 1080 1077 1074 1074 1074 1077 1077 1077 1068 1053 1038 1023 1011 1005 1008 1014 1032 1056 1077 1101 1122 1140 1155 1167 1167 1164 1161 1155 1146 1134 1119 1104 1089 1077 1056 1035 1011 990 969 954 951 948 954 960 966 984 1005 1032 1071 1110 1143 1176 1209 1236 1263 1281 1296 1311 1308 1305 1296 1278 1260 1233 1200 1170 1149 1125 1122 1140 1155 1176 1200 1218 1221 1224 1227 1227 1227 1233 1239 1248 1260 1275 1290 1305 1317 1326 1335 1341 1347 1353 1362 1371 1380 1383 1386 1386 1383 1380 1368 1353 1344
1356 861 861 861 861 861 861 861 861 861 861 861 861 864 864 864 864 864 864 864 861 861 861 864 864 864 864 864 864 864 864 864 864 864 864 864 861 861 861 861 861 861 861 861 864 864 864 864 864 864 864 864 864 864 864 864 861 864 864 864 864 864 861 861 864 864 864 867 867 864 864 861 861 861 864 867 867 867 867 867 864 864 864 864 864 864 864 864 864 864 864 861 861 864 864 864 864 864 864 861 861 861 861 861 864 864 864 864 864 864 864 864 864 864 864 864 867 867 867 867 867 864 864 864 864 864 864 864 864 864 864 864 864 864 864 864 864 864 864 864 864 864 864 864 864 864 867 867 867 867 867 867 867 867 867 867 867 867 867 867 867 867 867 867 867 867 867 867 867 870 870 870 870 873 873 876 876 876 879 879 879 879 879 879 879 879 879 876 876 876 876 876 876 879 882 882 885 885 885 885 888 891 891 900 912 924 942 960 972 978 987 1002 1014 1026 1041 1056 1062 1068 1071 1074 1074 1077 1086 1092 1104 1116 1125 1134 1146 1146 1146 1146 1146 1143 1137 1131 1122 1113 1107 1098 1095 1092 1086 1080 1071 1065 1059 1056 1059 1062 1077 1092 1110 1122 1137 1146 1158 1167 1182 1200 1215 1230 1248 1260 1275 1287 1293 1296 1299 1296 1296 1302 1308 1311 1311 1308 1299 1278 1257 1236 1215 1200 1191 1185 1182 1179 1176 1167 1158 1149 1140 1134 1125 1116 1107 1095 1086 1080 1074 1071 1065 1062 1062 1065 1068 1065 1059 1050 1035 1017 1008 1008 1005 1020 1038 1056 1083 1110 1128 1146 1164 1161 1158 1155 1146 1137 1128 1113 1101 1089 1077 1062 1044 1023 999 975 957 954 948 954 960 969 990 1011 1038 1071 1107 1143 1176 1212 1236 1263 1281 1293 1305 1302 1299 1290 1272 1251 1224 1191 1158 1137 1113 1110 1131 1152 1173 1197 1215 1215 1215 1215 1215 1215 1224 1233 1245 1263 1278 1293 1305 1314 1323 1329 1335 1341 1344 1353 1362 1371 1377 1383 1386 1389 1392 1377 1365 1356
1359 861 861 861 861 861 861 861 861 861 861 861 861 861 864 864 864 864 864 864 864 864 864 864 864 864 864 864 864 864 864 864 864 864 864 864 864 861 861 861 861 861 861 861 861 864 864 864 864 864 864 864 864 864 864 864 864 864 864 864 864 864 861 861 864 864 864 867 867 867 864 861 861 861 861 864 864 864 864 864 864 864 864 864 867 867 864 864 864 864 861 861 861 864 864 864 864 864 864 864 864 861 861 861 864 864 864 864 864 864 864 864 864 864 864 867 867 867 867 867 867 867 864 864 864 864 864 864 864 864 864 864 861 864 864 864 864 864 864 864 864 864 864 864 864 864 867 867 867 867 867 867 867 867 867 867 867 867 867 867 867 867 867 867 867 867 867 867 870 870 873 873 873 873 876 876 876 879 879 879 879 879 879 879 882 879 879 879 876 876 876 876 876 879 882 882 882 882 885 885 888 888 891 900 906 918 939 957 972 984 999 1014 1026 1041 1053 1065 1068 1071 1074 1071 1068 1071 1074 1077 1092 1104 1116 1125 1134 1137 1134 1134 1131 1128 1122 1116 1107 1098 1089 1080 1077 1074 1071 1065 1062 1056 1050 1047 1053 1059 1074 1092 1107 1116 1125 1137 1149 1161 1179 1197 1215 1230 1245 1257 1272 1287 1296 1302 1308 1302 1299 1299 1302 1305 1305 1305 1296 1278 1260 1239 1215 1194 1188 1179 1176 1173 1170 1164 1155 1149 1143 1137 1128 1116 1107 1095 1086 1077 1071 1068 1059 1050 1047 1050 1053 1053 1056 1056 1038 1023 1011 1005 999 1011 1029 1047 1074 1101 1122 1140 1158 1152 1149 1143 1137 1131 1119 1107 1095 1083 1071 1059 1047 1035 1008 981 960 954 948 951 963 975 1002 1029 1056 1089 1119 1152 1185 1218 1239 1263 1278 1287 1299 1299 1296 1290 1272 1257 1227 1191 1158 1137 1113 1110 1134 1155 1173 1194 1209 1206 1203 1206 1209 1212 1224 1239 1251 1269 1284 1293 1302 1311 1317 1323 1329 1332 1335 1344 1350 1356 1362 1368 1374 1377 1380 1374 1365 1359
1353 861 861 861 861 861 861 861 861 861 861 861 861 861 861 864 864 864 864 864 861 861 861 861 861 861 861 864 864 864 864 864 864 864 864 864 861 861 861 861 861 861 861 861 864 864 864 864 864 864 864 864 867 867 864 864 864 864 864 864 864 864 864 861 864 864 864 867 867 867 864 861 861 861 861 861 861 861 861 861 864 864 864 867 870 870 870 867 864 864 861 861 861 864 864 864 864 864 864 864 861 861 861 861 861 864 864 864 864 864 864 864 864 864 864 864 867 867 870 870 867 867 864 864 861 864 864 864 864 864 864 864 861 861 861 864 864 864 864 864 864 864 864 864 864 864 864 867 867 867 867 867 867 867 867 867 867 867 867 867 867 867 867 867 867 867 867 870 870 873 873 876 876 876 876 876 876 879 879 879 879 879 879 882 882 879 879 879 876 876 876 876 876 876 879 879 879 879 882 882 885 888 891 894 897 906 927 945 966 990 1014 1029 1044 1056 1062 1068 1071 1071 1071 1068 1065 1065 1065 1065 1080 1095 1107 1116 1125 1125 1122 1122 1116 1110 1101 1092 1083 1077 1071 1065 1062 1062 1059 1056 1053 1047 1041 1041 1053 1065 1077 1092 1104 1113 1119 1131 1143 1158 1176 1194 1209 1224 1236 1251 1263 1275 1287 1299 1305 1302 1299 1296 1296 1293 1293 1293 1287 1275 1263 1239 1218 1197 1185 1173 1164 1158 1152 1152 1149 1143 1140 1134 1125 1116 1104 1095 1083 1077 1068 1062 1056 1050 1044 1041 1041 1041 1044 1044 1032 1020 1011 1002 993 1008 1023 1044 1071 1101 1122 1140 1155 1152 1149 1143 1134 1128 1116 1104 1092 1080 1068 1056 1047 1035 1011 987 966 957 945 951 966 978 1011 1041 1071 1101 1128 1158 1188 1215 1236 1257 1272 1281 1293 1296 1296 1293 1278 1263 1230 1194 1158 1134 1107 1101 1119 1137 1158 1179 1197 1197 1197 1200 1206 1212 1227 1239 1254 1269 1281 1293 1299 1308 1311 1317 1320 1323 1326 1329 1338 1344 1350 1356 1359 1365 1368 1362 1356 1353
1341 861 861 861 861 861 861 861 861 861 861 861 861 861 861 861 861 861 861 861 861 861 861 861 861 861 864 864 864 864 864 864 861 861 861 861 861 861 861 861 861 861 861 861 864 864 864 864 864 864 864 864 867 867 867 864 864 864 864 864 864 864 864 864 864 864 864 867 867 867 864 861 861 861 861 861 864 861 861 861 864 864 867 873 879 876 873 870 867 864 864 864 864 864 864 864 864 864 864 861 861 861 861 861 861 861 864 864 864 864 864 864 864 864 864 864 867 867 870 870 870 870 867 864 864 864 864 864 864 864 864 864 864 861 861 861 861 864 864 864 864 864 864 864 864 864 864 867 867 867 867 867 867 867 867 867 867 867 867 867 867 867 867 867 867 867 867 867 870 870 873 873 873 873 876 876 879 879 879 879 879 879 879 879 882 879 879 879 876 876 876 876 876 876 876 879 879 879 882 882 885 888 888 891 897 903 921 936 963 990 1017 1029 1044 1053 1056 1062 1062 1065 1065 1062 1056 1056 1059 1062 1077 1092 1104 1113 1119 1119 1113 1110 1104 1095 1086 1077 1068 1059 1053 1047 1047 1047 1044 1044 1041 1038 1035 1038 1050 1065 1074 1086 1095 1101 1107 1119 1134 1152 1170 1188 1206 1218 1233 1248 1260 1275 1290 1305 1311 1308 1305 1296 1290 1281 1281 1281 1278 1275 1269 1248 1227 1209 1188 1167 1152 1143 1134 1134 1137 1137 1131 1128 1119 1110 1101 1092 1080 1071 1065 1056 1050 1044 1041 1035 1029 1029 1029 1029 1020 1014 1005 999 993 1005 1017 1035 1065 1095 1119 1137 1155 1152 1149 1146 1134 1125 1113 1101 1089 1074 1062 1050 1041 1032 1011 990 972 957 945 951 966 981 1014 1050 1080 1107 1137 1161 1188 1212 1233 1254 1269 1281 1290 1296 1299 1296 1281 1266 1233 1194 1158 1128 1098 1089 1104 1116 1137 1164 1182 1185 1188 1194 1203 1212 1224 1239 1254 1266 1278 1287 1296 1302 1305 1308 1311 1311 1311 1317 1323 1329 1335 1341 1344 1350 1353 1347 1341 1338
1323 861 861 861 861 861 861 861 861 861 861 861 861 861 861 861 861 861 861 861 861 861 861 861 864 864 864 864 864 864 864 861 861 861 861 861 861 861 861 861 861 861 861 861 861 864 864 864 864 864 864 867 867 867 867 867 867 867 867 867 867 867 864 864 864 864 864 864 867 864 864 861 861 864 864 861 861 861 861 861 864 867 870 876 882 879 873 870 867 864 864 864 864 864 864 864 864 861 861 861 861 861 861 861 864 864 864 864 864 864 864 864 864 864 864 864 867 867 870 870 870 870 867 864 864 864 864 864 864 864 864 864 864 864 861 861 861 864 864 864 864 864 864 864 864 864 864 867 867 867 867 867 867 867 867 867 867 867 867 867 867 867 867 867 867 867 867 867 867 870 870 873 873 873 876 876 879 879 879 879 879 879 879 879 879 879 879 876 876 876 876 876 876 876 876 876 879 879 882 882 885 885 888 891 894 903 918 933 960 990 1017 1029 1038 1047 1050 1053 1056 1056 1056 1053 1050 1050 1053 1056 1074 1089 1104 1110 1116 1113 1107 1101 1092 1083 1071 1062 1053 1044 1038 1032 1032 1032 1032 1029 1029 1029 1029 1035 1047 1059 1068 1074 1083 1089 1095 1107 1125 1143 1161 1182 1200 1215 1230 1245 1263 1281 1299 1317 1323 1317 1311 1299 1284 1272 1269 1266 1269 1272 1275 1260 1242 1221 1191 1161 1143 1125 1113 1119 1122 1125 1122 1119 1113 1104 1095 1086 1077 1068 1059 1050 1044 1038 1032 1026 1020 1014 1011 1008 1005 1002 999 996 993 1002 1011 1026 1053 1083 1110 1131 1155 1155 1155 1152 1137 1122 1110 1095 1077 1062 1047 1035 1026 1020 1005 987 969 957 942 948 963 981 1014 1044 1077 1110 1143 1170 1197 1221 1242 1263 1278 1287 1299 1299 1299 1293 1275 1257 1221 1185 1146 1122 1095 1086 1098 1110 1131 1155 1173 1179 1182 1191 1200 1209 1221 1236 1248 1260 1272 1281 1290 1299 1302 1302 1305 1302 1302 1305 1311 1314 1320 1326 1329 1332 1335 1329 1326 1323
1305 861 861 861 861 861 861 861 861 861 864 864 864 864 861 861 861 861 861 861 861 861 861 861 864 864 864 864 864 864 861 861 861 861 861 861 861 861 861 861 861 861 861 861 861 861 864 864 864 864 864 864 867 867 867 867 867 867 870 870 870 870 867 864 864 864 864 864 867 864 864 861 861 861 861 861 861 861 861 864 867 870 873 879 882 876 870 867 867 867 867 867 867 864 864 864 864 861 861 861 861 861 861 861 864 864 864 864 864 864 861 861 861 864 864 867 867 867 870 870 873 870 867 864 861 864 864 864 864 864 864 864 864 864 861 864 864 864 864 864 864 864 864 864 864 864 867 867 867 867 867 867 867 867 867 867 867 867 867 867 867 867 867 867 867 867 867 867 867 870 870 873 873 873 876 876 879 879 879 879 879 879 879 879 879 879 879 876 876 873 873 873 876 876 876 876 876 879 882 885 885 885 888 891 894 903 918 936 960 990 1014 1023 1032 1041 1044 1047 1050 1050 1050 1047 1041 1044 1047 1050 1068 1086 1098 1104 1113 1110 1101 1095 1083 1068 1059 1047 1035 1029 1020 1017 1017 1017 1017 1017 1017 1020 1023 1029 1038 1050 1056 1062 1068 1077 1086 1098 1116 1131 1152 1170 1191 1209 1230 1248 1269 1290 1308 1323 1332 1329 1326 1305 1281 1263 1257 1251 1248 1251 1254 1242 1230 1212 1182 1155 1137 1122 1110 1113 1116 1116 1113 1107 1101 1095 1089 1080 1071 1062 1053 1041 1035 1029 1020 1014 1005 996 990 984 987 990 996 1002 1008 1008 1011 1017 1044 1068 1095 1122 1149 1152 1155 1152 1137 1125 1107 1092 1077 1059 1041 1026 1014 1002 990 975 960 948 939 945 960 975 1008 1044 1077 1110 1140 1170 1197 1224 1245 1266 1281 1293 1305 1302 1302 1293 1272 1251 1218 1179 1140 1116 1092 1083 1095 1110 1131 1155 1176 1179 1185 1191 1197 1206 1218 1233 1245 1257 1269 1278 1284 1293 1293 1296 1296 1296 1293 1296 1299 1302 1305 1311 1314 1314 1317 1311 1308 1305
1287 861 861 861 861 861 861 861 861 861 864 864 864 861 861 861 861 861 861 861 861 861 861 861 861 864 864 864 864 861 861 861 861 861 861 861 861 861 861 861 861 861 861 861 861 861 861 864 864 864 864 864 867 867 867 864 867 867 867 870 870 870 867 864 864 864 864 867 867 867 864 864 861 861 861 861 861 861 861 864 867 870 876 879 882 876 867 864 867 867 867 867 870 867 867 864 864 864 861 861 861 861 861 861 864 864 864 864 864 861 861 861 861 864 864 867 867 870 870 870 870 870 867 864 861 861 861 864 864 864 864 864 864 864 861 861 861 861 864 864 864 864 864 864 864 864 867 867 867 867 867 867 867 867 867 867 867 867 867 867 867 867 867 867 867 867 867 867 867 870 870 870 873 873 873 876 879 879 879 879 879 879 879 882 882 879 879 876 876 873 873 873 873 873 873 876 876 879 882 885 888 888 888 891 894 903 921 936 960 987 1011 1020 1029 1035 1038 1041 1041 1038 1038 1032 1029 1035 1041 1050 1065 1083 1095 1101 1110 1107 1101 1095 1083 1071 1056 1044 1029 1020 1011 1005 1005 1005 1008 1011 1014 1017 1020 1026 1032 1038 1044 1050 1056 1068 1080 1092 1107 1122 1143 1164 1185 1209 1230 1251 1275 1296 1311 1326 1335 1335 1332 1308 1281 1257 1245 1233 1230 1230 1233 1224 1218 1203 1176 1146 1128 1113 1098 1101 1104 1104 1101 1095 1092 1086 1080 1071 1065 1056 1047 1035 1026 1017 1008 999 990 981 969 963 972 981 990 1005 1020 1017 1011 1014 1035 1056 1083 1113 1143 1146 1152 1152 1140 1128 1113 1098 1080 1062 1041 1023 1005 987 972 960 948 939 933 942 954 969 1005 1041 1074 1107 1140 1167 1197 1224 1245 1266 1281 1293 1308 1305 1302 1290 1269 1245 1212 1176 1140 1113 1086 1080 1095 1110 1134 1161 1179 1182 1185 1191 1194 1200 1215 1230 1242 1254 1266 1272 1278 1284 1287 1287 1290 1287 1287 1287 1287 1290 1293 1299 1299 1299 1299 1296 1290 1287
1272 861 861 861 861 861 861 861 864 861 861 861 861 861 861 861 861 861 861 864 864 864 861 861 861 861 864 864 864 861 861 861 861 861 861 861 861 861 861 861 861 861 861 861 861 861 861 864 864 864 864 864 864 864 864 864 864 864 867 867 867 867 867 867 867 864 864 864 867 867 864 864 864 864 861 861 861 861 861 864 867 873 876 876 876 870 867 864 867 867 870 870 870 870 870 867 867 864 864 861 861 861 861 861 861 861 861 861 861 861 861 861 861 864 864 867 867 870 870 870 870 870 867 864 864 861 861 864 864 864 864 864 864 864 861 861 861 861 861 864 864 864 864 864 864 864 867 867 867 867 867 867 867 867 867 867 867 867 867 867 867 867 867 867 867 867 867 867 867 870 870 870 870 873 873 876 876 879 879 879 879 879 879 882 882 879 879 876 876 873 873 873 873 873 873 876 879 879 882 885 885 888 888 891 894 903 918 936 957 984 1005 1014 1023 1029 1032 1032 1029 1026 1023 1020 1017 1023 1035 1044 1062 1080 1092 1101 1107 1107 1104 1101 1086 1074 1062 1047 1029 1017 1005 996 996 996 999 1005 1011 1014 1020 1023 1026 1032 1038 1044 1053 1065 1077 1092 1107 1119 1140 1161 1185 1209 1233 1254 1275 1296 1311 1326 1335 1335 1335 1311 1284 1257 1239 1218 1212 1212 1212 1209 1203 1191 1167 1143 1119 1098 1080 1083 1086 1086 1086 1083 1080 1077 1071 1065 1059 1050 1041 1029 1020 1008 996 987 975 966 954 948 960 972 987 1005 1023 1020 1014 1017 1032 1047 1071 1104 1134 1143 1152 1152 1143 1134 1125 1110 1098 1077 1056 1032 1005 975 960 945 933 933 930 939 951 963 996 1032 1065 1101 1137 1167 1194 1221 1242 1263 1281 1293 1305 1302 1299 1287 1266 1242 1212 1176 1143 1116 1089 1080 1092 1107 1128 1149 1167 1167 1167 1167 1170 1170 1188 1206 1224 1242 1260 1269 1272 1278 1281 1284 1284 1284 1281 1281 1281 1281 1284 1287 1290 1290 1290 1284 1275 1272
1263 861 861 861 861 861 861 861 861 861 861 861 861 861 861 861 861 861 861 861 861 861 861 861 861 861 864 864 864 864 864 861 861 861 861 861 861 861 861 861 861 861 861 861 861 861 864 864 864 864 864 864 864 864 864 864 864 867 867 867 867 867 867 867 867 864 864 864 864 864 864 864 864 864 864 861 861 861 864 864 867 873 873 873 870 867 864 864 864 867 867 867 870 870 870 867 867 864 864 864 861 861 861 861 864 864 864 864 864 861 861 861 861 861 864 867 867 867 867 867 867 867 867 864 864 861 861 864 864 864 864 864 864 864 864 861 861 861 861 864 864 864 864 864 864 864 867 867 867 867 867 867 867 867 867 867 867 867 867 867 867 867 867 867 867 867 867 867 867 870 870 870 870 873 873 876 876 879 879 879 879 879 879 882 882 879 879 876 876 873 873 873 873 873 873 876 879 879 879 882 882 882 885 888 891 900 915 933 954 975 996 1005 1014 1020 1020 1020 1017 1014 1011 1005 1002 1011 1023 1038 1056 1074 1089 1098 1110 1110 1107 1104 1092 1080 1068 1053 1038 1023 1011 999 996 996 996 1002 1005 1011 1017 1023 1029 1038 1047 1056 1065 1080 1092 1107 1119 1134 1152 1167 1188 1209 1230 1251 1269 1290 1305 1317 1326 1326 1326 1305 1281 1257 1236 1215 1212 1218 1221 1212 1206 1188 1161 1131 1107 1083 1062 1065 1068 1071 1071 1071 1068 1068 1065 1056 1050 1044 1035 1026 1014 1002 990 981 972 960 951 945 957 969 984 999 1017 1014 1008 1008 1020 1032 1056 1089 1119 1134 1146 1152 1146 1140 1131 1119 1104 1083 1065 1038 1005 972 954 939 927 927 927 936 948 960 990 1020 1053 1092 1128 1161 1191 1218 1242 1263 1278 1290 1299 1296 1290 1278 1257 1233 1203 1170 1137 1110 1083 1074 1083 1092 1110 1131 1143 1143 1140 1140 1143 1146 1167 1185 1203 1227 1251 1260 1266 1272 1275 1278 1281 1278 1278 1275 1275 1272 1275 1278 1281 1281 1281 1272 1266 1263
1257 861 861 861 861 861 861 861 861 861 861 861 861 861 861 861 861 861 861 861 861 861 861 861 861 861 864 864 864 864 864 861 861 861 861 861 861 861 861 861 861 861 861 861 861 864 864 864 864 864 864 864 864 864 867 867 867 867 867 864 864 864 867 867 867 867 864 864 864 864 864 864 864 864 864 864 861 864 864 864 867 873 873 870 867 864 864 864 864 864 864 864 864 864 867 867 867 864 864 864 861 861 861 861 864 864 864 864 864 864 861 861 861 861 864 864 867 867 867 867 867 867 864 864 864 861 861 861 864 864 864 864 864 864 864 861 861 861 861 864 864 864 864 864 864 864 867 867 867 867 867 867 867 867 867 867 867 867 867 867 867 867 867 867 867 867 867 867 867 870 870 870 870 873 873 876 876 879 879 879 879 879 879 879 879 879 876 876 876 873 873 873 873 873 873 876 876 879 879 879 879 882 882 885 891 897 912 927 945 966 984 996 1005 1011 1011 1011 1008 1005 999 999 996 1005 1020 1035 1050 1068 1080 1089 1098 1098 1098 1095 1086 1080 1068 1053 1041 1026 1011 1002 999 996 996 1002 1005 1011 1017 1023 1032 1041 1050 1062 1074 1089 1107 1122 1134 1149 1161 1176 1191 1209 1227 1245 1266 1284 1296 1311 1317 1317 1317 1299 1281 1260 1242 1221 1218 1218 1221 1212 1200 1182 1155 1128 1101 1074 1053 1050 1050 1053 1056 1056 1056 1056 1053 1050 1044 1038 1029 1020 1008 996 987 975 966 957 948 942 954 966 978 990 1002 1002 999 999 1008 1017 1041 1071 1104 1122 1140 1149 1146 1143 1134 1122 1107 1089 1071 1041 1005 969 954 936 927 927 927 933 945 957 981 1008 1041 1080 1122 1155 1188 1218 1242 1263 1278 1284 1290 1284 1275 1263 1242 1218 1188 1158 1125 1098 1071 1062 1068 1074 1089 1104 1113 1113 1110 1113 1122 1128 1146 1164 1185 1209 1233 1248 1254 1263 1269 1272 1272 1272 1272 1272 1269 1266 1269 1269 1269 1269 1269 1266 1260 1257
1254 861 861 861 861 861 861 861 864 861 861 861 861 861 861 861 861 861 861 861 861 864 864 861 861 861 864 864 864 864 864 861 861 861 861 861 861 861 861 861 861 861 861 861 861 864 864 864 864 864 864 864 864 864 864 867 867 867 867 864 864 864 864 867 867 864 864 864 864 864 864 864 864 864 864 864 861 864 864 867 870 873 873 867 864 864 864 864 864 864 864 864 864 867 867 867 864 864 864 864 861 861 861 861 864 864 864 864 864 864 861 861 861 861 864 864 864 864 864 864 864 864 864 864 864 861 861 861 861 864 864 864 864 864 864 864 861 861 864 864 864 864 864 864 864 864 867 867 867 867 867 867 867 867 867 867 867 867 867 867 867 867 867 867 867 867 867 867 867 867 870 870 870 873 873 876 876 879 879 882 882 882 882 879 879 879 876 876 876 873 873 873 873 873 876 876 876 876 876 876 879 879 882 885 888 894 906 918 933 951 969 981 996 1002 1002 1005 999 993 990 987 987 996 1011 1029 1044 1059 1071 1077 1083 1083 1086 1083 1080 1074 1065 1053 1041 1026 1011 999 996 996 996 1002 1005 1014 1020 1026 1035 1044 1056 1068 1083 1101 1116 1134 1149 1164 1173 1182 1194 1209 1224 1242 1260 1278 1290 1302 1308 1308 1308 1296 1284 1269 1254 1239 1227 1218 1212 1200 1188 1173 1149 1125 1098 1071 1044 1038 1032 1032 1038 1044 1044 1044 1044 1041 1035 1029 1023 1014 1002 993 981 969 960 951 945 942 948 957 966 975 984 987 993 996 1002 1008 1032 1059 1086 1107 1128 1140 1140 1140 1131 1122 1110 1089 1071 1044 1011 978 960 942 927 927 927 933 942 954 978 1002 1032 1077 1119 1155 1188 1218 1239 1257 1269 1272 1275 1263 1254 1239 1218 1197 1170 1140 1113 1086 1062 1050 1056 1062 1071 1080 1089 1086 1086 1095 1107 1119 1143 1167 1188 1209 1230 1242 1248 1257 1263 1269 1272 1272 1272 1269 1266 1266 1266 1263 1263 1263 1263 1260 1257 1254
1257 861 861 861 861 861 861 861 864 864 861 861 861 861 861 861 861 861 861 861 864 864 864 864 864 864 864 864 864 864 861 861 861 861 861 861 861 861 861 861 861 861 861 861 861 861 864 864 864 864 864 864 864 864 864 867 867 867 864 864 864 864 864 864 867 867 867 864 864 864 864 864 864 864 864 864 864 864 864 867 870 873 870 867 864 864 864 864 864 864 864 864 864 867 867 867 864 864 864 864 861 861 861 864 864 864 864 864 864 864 861 861 861 861 861 864 864 864 861 861 861 861 861 861 861 861 861 861 861 861 864 864 864 864 864 864 864 864 864 864 864 864 864 864 867 867 867 867 867 867 867 867 867 867 867 867 867 867 867 867 867 867 867 867 867 867 867 867 867 867 870 870 870 873 873 876 876 879 882 882 882 882 882 882 879 879 876 876 876 873 873 873 873 873 876 876 876 876 876 876 876 876 879 882 885 888 897 906 918 933 948 966 984 993 996 999 993 987 978 975 972 984 1002 1020 1035 1050 1062 1065 1071 1071 1074 1074 1068 1065 1056 1044 1032 1017 1002 993 990 990 996 1002 1008 1020 1029 1038 1044 1053 1062 1074 1089 1107 1122 1140 1155 1173 1182 1194 1206 1218 1230 1245 1263 1278 1290 1302 1305 1305 1302 1293 1281 1269 1254 1239 1227 1215 1200 1191 1182 1170 1149 1128 1104 1080 1056 1038 1023 1017 1023 1029 1032 1035 1035 1032 1029 1023 1017 1008 999 987 978 969 960 951 942 933 936 939 948 960 972 981 993 999 1002 1005 1023 1047 1071 1098 1125 1140 1140 1140 1134 1122 1110 1092 1074 1047 1017 987 966 942 927 927 924 930 942 954 981 1008 1044 1083 1125 1158 1188 1218 1233 1248 1254 1254 1254 1242 1230 1215 1194 1176 1152 1125 1098 1074 1047 1035 1038 1041 1047 1056 1062 1062 1065 1080 1098 1116 1143 1167 1191 1206 1224 1233 1242 1251 1260 1266 1272 1272 1272 1272 1269 1266 1266 1263 1263 1263 1263 1260 1257 1257
1263 861 861 861 861 861 861 864 864 864 861 861 861 861 861 861 864 864 864 864 864 864 864 864 864 864 864 864 864 864 864 861 861 861 861 861 861 861 861 861 861 861 861 861 861 861 861 864 864 864 864 864 864 864 864 864 864 864 864 864 864 864 864 864 867 867 867 867 864 864 864 864 864 864 864 864 864 864 867 867 870 870 870 867 864 864 864 864 864 864 864 864 864 867 867 867 867 864 864 864 864 864 864 864 864 864 864 864 864 864 861 861 861 861 861 861 861 861 861 861 861 861 861 861 861 861 861 861 861 861 861 864 861 861 861 861 861 864 864 864 864 864 864 864 867 867 867 867 867 867 867 867 867 867 867 867 867 867 867 867 867 867 867 867 867 870 870 870 870 870 870 870 873 873 873 876 876 879 879 882 882 882 882 882 882 879 876 876 876 873 873 873 873 873 873 873 876 876 876 876 876 876 876 879 882 885 891 897 909 924 942 960 981 990 990 990 981 969 963 960 960 972 990 1008 1023 1038 1050 1056 1059 1062 1059 1059 1056 1053 1044 1029 1017 1005 993 987 990 990 999 1008 1017 1029 1038 1047 1053 1062 1071 1083 1095 1110 1128 1143 1158 1173 1188 1203 1215 1227 1236 1251 1266 1281 1293 1302 1305 1302 1299 1290 1281 1269 1257 1242 1227 1212 1194 1185 1173 1161 1146 1131 1110 1089 1068 1044 1020 1008 1011 1014 1017 1023 1026 1023 1020 1014 1008 1002 993 984 975 969 963 951 936 927 924 924 933 948 963 978 993 1005 1005 1005 1017 1038 1056 1086 1119 1137 1140 1140 1134 1122 1110 1092 1074 1047 1020 993 966 942 924 924 924 930 939 951 987 1020 1056 1095 1134 1164 1191 1212 1224 1236 1239 1233 1230 1218 1203 1188 1170 1155 1131 1107 1083 1056 1029 1014 1014 1014 1020 1026 1032 1041 1053 1071 1092 1116 1140 1164 1185 1200 1215 1227 1236 1248 1257 1266 1272 1272 1275 1275 1275 1275 1272 1269 1269 1269 1269 1266 1263 1263
1239 861 861 861 861 861 861 864 864 861 861 861 861 861 861 864 864 864 864 864 867 867 867 867 867 867 864 864 864 864 864 864 861 861 861 861 861 861 861 861 861 861 861 861 861 861 864 864 864 864 864 864 864 864 864 864 864 864 864 864 864 864 864 864 864 864 864 864 864 864 864 864 864 864 864 864 864 864 867 867 867 870 867 864 864 864 864 864 864 864 864 864 867 867 870 870 867 864 864 864 864 864 864 864 864 864 864 864 864 864 861 861 861 861 861 861 861 861 861 861 861 861 861 861 861 861 861 861 864 864 864 864 864 864 864 864 864 864 864 864 864 864 864 864 867 867 867 867 867 867 867 867 867 867 867 867 867 867 867 867 867 867 867 867 867 870 870 870 873 873 873 873 873 873 876 876 879 879 879 882 882 882 882 882 882 879 876 876 873 873 873 873 873 873 873 873 876 876 876 876 876 876 876 879 879 882 888 891 903 918 933 954 972 981 981 981 966 954 945 948 948 960 978 996 1011 1026 1035 1041 1047 1047 1047 1044 1041 1038 1029 1014 1002 993 984 981 987 996 1005 1020 1029 1041 1050 1056 1062 1068 1080 1089 1101 1113 1128 1143 1158 1173 1191 1206 1218 1230 1242 1257 1275 1290 1296 1305 1308 1302 1299 1290 1281 1269 1257 1242 1227 1212 1194 1179 1164 1152 1140 1128 1116 1101 1083 1056 1029 1011 1005 999 1005 1014 1017 1014 1008 1005 999 993 987 984 978 969 960 945 927 915 918 918 927 945 960 975 993 1002 1002 1002 1011 1026 1041 1071 1101 1122 1128 1137 1131 1122 1110 1089 1068 1038 1008 975 954 933 921 921 921 927 939 951 984 1017 1053 1095 1134 1158 1182 1200 1209 1215 1215 1209 1200 1191 1179 1167 1149 1131 1110 1089 1068 1038 1008 993 993 990 993 999 1005 1020 1035 1056 1080 1104 1131 1155 1176 1191 1209 1221 1233 1245 1257 1266 1272 1278 1284 1284 1287 1284 1278 1275 1269 1260 1254 1248 1242 1239
1215 861 861 861 861 861 861 861 861 861 861 861 861 861 861 864 864 864 864 864 864 864 864 867 867 867 867 867 864 864 864 864 864 861 861 861 861 861 861 861 861 861 861 861 861 861 864 864 864 864 864 864 864 864 864 867 864 864 864 864 864 867 867 867 867 864 864 864 864 864 864 864 864 864 864 864 867 867 867 867 867 867 864 864 864 864 864 864 864 864 864 864 867 867 870 870 867 864 864 864 864 864 864 864 864 864 864 864 864 864 864 861 861 861 861 861 861 861 861 861 861 861 861 861 861 861 861 861 864 864 864 864 864 864 864 864 864 864 864 864 864 864 864 864 864 864 864 864 864 867 867 867 864 864 864 864 864 864 864 864 867 867 867 867 867 867 870 870 870 873 873 873 876 876 876 879 879 882 882 882 885 885 885 882 882 879 876 876 873 873 873 873 873 873 873 876 879 879 876 876 876 876 876 876 879 879 882 885 894 906 918 939 960 969 969 969 954 939 933 939 945 960 975 993 1002 1014 1020 1023 1026 1026 1026 1026 1026 1023 1017 1008 996 990 987 984 993 1002 1014 1026 1038 1047 1056 1065 1068 1074 1083 1089 1098 1113 1125 1140 1155 1170 1188 1203 1218 1233 1245 1260 1275 1287 1296 1305 1305 1302 1296 1287 1278 1269 1254 1239 1224 1209 1194 1179 1167 1152 1140 1128 1113 1101 1083 1056 1029 1011 999 990 990 993 993 990 987 987 984 984 978 975 966 954 942 930 921 912 915 918 924 939 951 966 981 993 996 999 1008 1017 1029 1059 1086 1107 1119 1131 1128 1119 1110 1089 1068 1038 1002 969 948 930 918 918 918 924 936 948 978 1011 1044 1086 1125 1149 1167 1182 1188 1191 1188 1182 1173 1164 1155 1143 1128 1110 1089 1068 1047 1020 993 981 978 978 981 984 993 1008 1026 1050 1080 1107 1131 1158 1179 1194 1212 1224 1236 1248 1257 1269 1278 1287 1296 1296 1296 1296 1287 1278 1266 1254 1242 1230 1221 1215
1203 861 861 861 861 861 861 861 861 861 861 861 861 861 861 861 864 864 864 864 864 864 864 867 867 867 867 867 867 867 864 864 864 864 861 861 861 861 861 861 861 861 861 861 861 861 864 864 864 864 864 864 864 864 864 867 867 864 864 864 864 867 867 867 867 864 864 864 864 864 864 864 864 864 864 864 864 867 867 867 864 864 864 864 864 864 864 864 864 864 864 864 867 867 867 867 867 864 864 864 864 864 861 864 864 867 867 864 864 864 864 864 861 861 861 861 861 861 861 861 861 861 861 861 861 861 861 864 864 864 864 864 864 864 864 864 864 864 864 864 864 864 864 864 864 864 864 864 864 864 864 864 864 864 864 864 864 864 864 867 867 867 867 867 867 867 870 870 873 873 873 876 876 876 879 879 879 882 882 882 885 885 885 882 882 879 876 876 873 873 873 873 873 873 873 876 876 879 876 876 876 876 876 876 879 879 882 885 891 897 906 921 936 942 945 948 939 930 924 936 945 960 981 999 1005 1011 1014 1014 1014 1014 1014 1014 1011 1008 1002 993 984 981 975 978 990 1005 1014 1026 1038 1044 1053 1059 1065 1068 1074 1080 1089 1104 1116 1131 1149 1164 1182 1197 1215 1230 1248 1263 1275 1290 1296 1302 1305 1299 1296 1287 1278 1269 1254 1239 1227 1212 1197 1182 1170 1155 1140 1128 1113 1098 1083 1056 1026 1008 996 984 978 975 972 972 972 972 972 975 969 963 954 939 927 918 912 909 912 915 924 933 942 954 969 981 987 996 1005 1011 1023 1047 1074 1095 1110 1125 1122 1116 1107 1089 1071 1041 1005 972 948 927 915 915 915 921 933 945 972 999 1032 1074 1113 1134 1149 1161 1164 1167 1161 1155 1149 1140 1131 1119 1104 1089 1068 1047 1023 1002 981 972 975 981 981 984 990 1011 1029 1059 1092 1125 1149 1176 1197 1212 1227 1236 1245 1254 1263 1272 1284 1296 1305 1308 1308 1305 1293 1281 1266 1251 1236 1224 1212 1203
1206 861 861 861 861 861 861 861 861 861 861 861 861 861 861 861 861 861 861 864 864 864 867 867 870 870 870 867 867 867 867 864 864 864 861 861 861 861 861 861 861 861 861 861 861 861 861 864 864 864 864 864 864 864 864 864 864 864 864 864 864 864 864 864 864 864 864 864 864 864 864 864 864 864 864 864 864 864 864 864 864 864 864 864 864 864 864 864 864 864 864 864 867 867 867 867 864 864 864 864 864 864 864 864 864 867 867 867 864 864 864 864 861 861 861 861 861 861 861 861 861 861 861 861 861 861 861 864 864 864 864 864 864 864 864 864 864 864 864 864 864 864 864 864 864 864 864 864 864 864 864 864 864 864 864 864 864 864 867 867 867 867 867 867 867 870 870 870 873 873 876 876 876 879 879 879 882 882 882 885 885 885 885 885 882 879 876 876 873 873 873 873 873 873 873 873 876 876 876 876 876 876 876 876 876 879 879 882 885 891 894 903 912 921 924 927 924 921 921 933 942 963 987 1008 1014 1017 1017 1014 1008 1008 1005 1005 999 993 984 975 963 963 960 966 984 999 1011 1020 1029 1035 1044 1047 1050 1053 1059 1065 1074 1089 1104 1119 1137 1155 1173 1191 1209 1227 1245 1263 1278 1293 1299 1305 1305 1299 1296 1287 1281 1269 1260 1248 1233 1218 1200 1188 1173 1158 1146 1131 1113 1098 1080 1053 1026 1008 993 981 975 966 963 966 966 966 966 963 954 945 936 924 912 909 909 906 909 912 918 927 936 948 957 969 981 993 1002 1008 1017 1038 1059 1080 1095 1110 1110 1107 1101 1089 1077 1050 1020 987 960 933 915 915 912 918 927 939 963 990 1020 1059 1098 1116 1131 1143 1143 1146 1143 1137 1131 1122 1113 1098 1083 1065 1044 1020 996 990 981 984 993 1005 1005 1002 1005 1020 1032 1062 1098 1134 1161 1188 1209 1221 1236 1245 1254 1263 1272 1281 1293 1302 1314 1314 1314 1308 1296 1281 1269 1254 1239 1227 1215 1206
1215 861 861 861 861 861 861 861 864 861 861 861 861 861 861 861 861 861 861 864 864 864 867 867 867 867 867 867 864 864 864 864 864 861 861 861 861 861 861 861 861 861 861 861 861 861 861 861 864 864 864 864 864 864 864 864 864 864 864 864 864 864 864 864 864 864 864 864 864 867 867 867 864 864 864 864 864 864 864 864 864 864 864 864 864 864 864 864 864 864 864 864 864 867 867 864 864 864 864 864 864 864 864 864 864 867 867 867 864 864 864 864 864 861 861 861 861 861 861 861 861 861 861 861 861 861 864 864 864 864 864 864 864 864 864 864 864 864 864 864 864 864 864 864 864 864 864 864 864 864 864 864 864 864 864 864 864 864 867 867 867 867 867 867 867 870 870 873 873 873 876 876 876 879 879 879 882 882 885 885 885 885 885 885 882 879 876 873 873 873 873 873 873 873 873 873 873 876 876 873 873 876 876 876 876 876 879 879 885 888 891 897 903 909 912 915 912 912 915 930 942 963 990 1014 1023 1029 1029 1023 1014 1005 999 990 984 978 966 954 939 939 942 948 966 984 996 1005 1014 1020 1026 1032 1038 1041 1050 1059 1068 1083 1095 1113 1131 1149 1170 1188 1209 1227 1245 1260 1275 1287 1290 1296 1296 1296 1293 1287 1278 1272 1260 1248 1233 1218 1203 1185 1170 1155 1137 1122 1101 1080 1059 1041 1023 1008 996 984 975 966 960 957 957 957 954 951 942 936 927 918 912 912 912 915 912 912 915 924 930 939 948 960 972 987 996 1002 1011 1029 1050 1065 1080 1098 1098 1098 1095 1083 1074 1053 1026 996 969 939 918 915 912 918 927 936 957 978 1008 1044 1080 1095 1110 1122 1125 1128 1125 1119 1110 1098 1086 1071 1053 1035 1014 993 975 978 978 987 999 1014 1014 1011 1011 1020 1029 1056 1095 1131 1161 1191 1215 1227 1239 1251 1260 1272 1281 1290 1302 1311 1320 1320 1317 1314 1299 1284 1272 1257 1245 1233 1221 1215
1224 861 861 861 861 861 864 864 864 864 861 861 861 861 861 861 861 861 861 864 864 864 864 867 867 864 864 864 864 864 861 861 861 861 861 861 861 861 861 861 861 861 861 861 861 864 861 861 864 864 864 864 864 864 864 864 864 864 864 864 864 864 864 864 864 864 864 864 864 867 867 867 864 864 864 864 864 864 864 864 864 864 864 864 864 864 864 864 864 864 864 864 864 864 864 864 864 864 864 864 864 864 864 864 864 867 864 864 864 864 864 864 864 861 861 861 861 861 861 861 861 864 861 861 861 861 861 864 864 864 864 864 864 864 864 864 864 864 864 864 864 864 864 864 864 864 864 864 864 864 864 864 864 864 864 864 864 867 867 867 867 867 867 870 870 870 873 873 873 876 876 876 879 879 879 882 882 885 885 885 885 885 885 885 882 879 876 873 873 873 873 873 873 873 873 873 873 873 873 873 873 873 876 876 876 876 879 879 882 885 888 894 897 903 906 909 906 906 909 921 933 957 987 1014 1026 1035 1035 1026 1014 1002 990 978 969 957 948 936 924 927 930 939 954 969 981 993 1002 1008 1014 1020 1029 1035 1047 1059 1071 1086 1098 1113 1131 1152 1170 1191 1209 1224 1239 1254 1266 1278 1281 1284 1287 1290 1290 1284 1278 1269 1257 1242 1230 1215 1200 1182 1164 1146 1125 1104 1083 1062 1041 1029 1017 1005 996 984 975 966 957 951 948 945 942 939 933 927 921 915 912 915 918 921 915 912 912 918 924 930 939 948 963 978 987 996 1005 1023 1038 1053 1068 1083 1086 1086 1083 1077 1068 1050 1026 1002 972 942 921 915 912 915 924 933 951 966 993 1023 1056 1074 1092 1107 1107 1110 1104 1095 1086 1071 1053 1035 1014 993 981 969 960 966 969 981 993 1008 1005 1002 1002 1008 1017 1044 1080 1116 1152 1185 1212 1227 1242 1254 1269 1281 1293 1302 1311 1314 1320 1323 1323 1320 1305 1293 1281 1266 1251 1242 1230 1224
1206 861 861 861 861 864 864 864 864 864 864 861 861 861 861 861 861 861 861 861 864 864 864 864 861 861 861 861 861 861 861 861 861 861 861 861 861 861 861 861 861 861 861 861 864 864 864 864 864 864 864 864 864 864 864 864 864 864 864 864 864 864 864 864 864 864 864 867 867 867 867 867 867 864 864 864 864 864 864 864 864 864 864 864 864 864 864 864 864 864 864 864 864 864 864 864 864 864 864 864 864 864 864 864 864 864 864 864 864 864 864 864 864 861 861 861 861 861 861 861 864 864 864 861 861 861 861 864 864 864 864 864 864 864 864 864 864 864 864 864 864 864 864 864 864 864 864 864 864 864 864 864 864 864 864 864 864 867 867 867 867 867 870 870 870 873 873 873 876 876 876 879 879 879 882 882 885 885 885 885 885 885 885 882 879 876 873 873 873 873 873 873 873 873 873 873 873 873 873 873 873 873 873 876 876 876 879 879 882 885 888 891 894 897 900 903 903 903 906 915 921 948 981 1011 1023 1032 1035 1023 1014 996 981 966 951 939 930 924 918 921 927 933 945 957 969 984 996 999 1002 1011 1023 1035 1050 1068 1083 1095 1107 1122 1140 1158 1176 1194 1209 1224 1236 1245 1254 1263 1266 1272 1275 1281 1287 1281 1275 1263 1248 1233 1218 1206 1194 1173 1155 1131 1107 1083 1062 1044 1029 1020 1008 999 990 981 972 963 954 948 942 936 933 930 924 918 912 912 909 912 915 915 912 906 909 912 915 921 930 939 954 969 981 990 999 1011 1023 1038 1053 1068 1074 1077 1077 1068 1059 1041 1017 996 969 945 927 918 909 912 918 927 942 957 975 1002 1026 1047 1065 1080 1077 1074 1062 1047 1035 1020 1005 990 978 969 963 963 960 960 963 966 975 984 987 987 993 1002 1011 1038 1071 1104 1140 1179 1206 1224 1242 1260 1278 1296 1305 1317 1323 1323 1323 1326 1326 1323 1308 1296 1275 1257 1236 1224 1212 1206
1167 861 861 861 861 864 864 864 864 864 864 861 861 861 861 861 861 861 861 861 861 861 861 861 861 861 861 861 861 861 861 861 861 861 861 861 861 861 861 861 861 861 861 861 861 864 864 864 864 864 864 864 864 864 864 864 864 864 864 864 864 864 864 864 864 864 867 870 870 870 870 867 867 864 864 864 864 864 864 864 864 864 864 864 864 864 864 864 864 864 864 864 864 864 864 864 864 864 864 864 864 864 864 864 864 867 864 864 864 864 864 864 864 861 864 864 864 861 861 861 864 864 864 864 864 864 864 864 864 864 864 864 864 864 864 864 864 864 864 864 864 864 864 864 864 864 864 864 864 864 864 864 864 864 864 864 864 864 867 867 867 867 867 870 873 873 876 876 876 876 879 879 879 879 879 882 885 885 885 885 885 885 882 879 876 876 873 873 873 873 873 873 873 873 873 873 873 873 873 873 873 873 876 876 876 876 879 879 882 885 885 888 891 894 897 897 900 903 906 912 921 945 975 1002 1014 1026 1026 1014 1005 987 969 954 939 927 921 918 915 921 924 930 939 948 960 975 990 999 1008 1020 1032 1047 1062 1077 1092 1104 1116 1131 1146 1164 1179 1194 1206 1218 1227 1236 1242 1248 1254 1260 1266 1275 1281 1278 1269 1260 1245 1230 1215 1200 1185 1161 1134 1107 1080 1050 1038 1026 1017 1011 1002 993 984 975 966 957 948 942 936 930 927 924 918 915 909 909 906 909 909 909 906 903 903 906 909 915 921 930 945 957 972 981 993 1005 1014 1026 1038 1050 1056 1065 1068 1059 1050 1032 1011 987 966 945 930 918 909 909 915 921 933 948 963 981 999 1017 1032 1044 1038 1032 1023 1008 993 981 969 960 957 951 954 957 960 957 954 957 960 966 972 978 984 999 1014 1041 1071 1101 1140 1179 1209 1230 1251 1272 1293 1311 1320 1332 1335 1332 1326 1326 1323 1317 1302 1287 1263 1236 1212 1200 1188 1182
861 861 861 861 861 864 864 864 864 864 864 861 864 864 864 861 861 861 861 861 861 861 861 861 861 861 861 861 861 861 861 861 861 861 861 861 861 861 861 861 861 861 861 861 861 864 864 864 864 864 864 864 864 864 864 864 864 864 864 864 864 864 864 864 864 867 870 870 873 873 870 867 867 864 864 864 864 864 864 864 864 864 864 864 864 864 864 864 864 864 864 864 864 864 864 864 864 864 864 864 864 864 864 864 867 867 867 864 864 864 864 864 864 864 864 864 864 864 864 864 864 864 864 864 864 864 864 864 864 864 864 864 864 864 864 864 864 864 864 867 867 867 867 864 864 864 864 864 864 864 864 864 864 864 864 864 864 867 867 867 867 867 870 870 873 876 876 876 879 879 879 882 882 882 882 885 885 885 885 885 885 882 879 879 876 876 873 873 873 873 873 873 873 873 873 873 873 873 873 873 876 876 876 876 876 876 879 879 882 885 885 888 891 894 894 894 897 900 900 909 918 939 963 990 999 1008 1008 993 981 966 951 936 927 918 915 915 915 918 924 930 936 945 957 975 990 1002 1017 1029 1044 1059 1074 1089 1104 1116 1128 1140 1155 1170 1179 1191 1203 1209 1215 1221 1230 1236 1242 1248 1257 1266 1275 1269 1263 1254 1242 1227 1212 1197 1179 1149 1119 1089 1056 1026 1017 1011 1008 1002 996 987 978 972 963 954 945 939 930 927 924 918 915 912 909 906 906 903 903 903 903 900 900 900 903 909 915 921 936 948 960 975 987 996 1005 1014 1023 1032 1041 1050 1056 1047 1038 1023 1002 981 963 945 930 918 909 909 912 915 927 939 951 960 972 981 990 999 996 993 984 972 963 957 951 948 948 951 954 957 957 954 951 951 954 957 963 972 984 1005 1029 1056 1086 1119 1155 1194 1224 1251 1275 1296 1314 1332 1338 1344 1341 1338 1332 1320 1308 1293 1275 1254 1233 1212 1191 1179 1167 1161
861 861 861 861 861 864 864 864 864 864 864 864 864 864 864 864 864 864 861 861 861 861 861 861 861 861 861 861 861 861 861 861 861 861 861 861 861 861 861 861 861 861 861 861 861 864 864 864 864 864 864 864 864 864 864 861 864 864 864 864 864 864 864 864 867 867 867 870 870 867 867 864 864 864 864 864 864 864 864 864 864 864 864 864 864 864 864 864 864 864 864 864 864 864 864 864 864 864 864 867 867 870 870 870 870 870 867 867 864 864 864 864 864 864 864 864 864 864 864 864 864 864 864 864 864 864 864 864 867 867 864 864 864 864 864 864 864 864 864 867 867 867 867 867 864 864 864 864 864 864 864 864 864 864 867 867 867 867 867 867 867 867 870 873 876 879 879 882 882 882 882 882 885 885 885 888 888 888 885 885 882 879 879 876 876 876 873 873 873 873 873 873 873 873 873 873 873 873 873 876 876 876 876 876 876 876 879 882 882 885 885 888 891 891 891 894 894 894 897 906 912 930 951 972 978 987 981 966 948 936 927 918 915 912 912 912 915 918 924 930 939 948 963 981 999 1014 1029 1044 1059 1074 1086 1101 1113 1125 1137 1149 1161 1173 1179 1188 1194 1197 1203 1206 1215 1221 1227 1236 1245 1254 1263 1257 1254 1245 1236 1224 1209 1191 1173 1146 1116 1083 1050 1017 1005 999 996 993 990 984 975 966 960 951 942 936 930 927 921 918 915 912 909 906 903 903 903 900 900 900 900 900 900 903 909 915 927 939 954 966 981 990 999 1008 1014 1020 1029 1035 1038 1032 1026 1011 993 972 957 939 927 918 909 909 912 918 924 930 936 942 948 957 966 972 969 969 963 954 945 945 945 945 951 957 957 957 954 954 951 951 954 957 969 981 996 1023 1047 1077 1107 1140 1176 1215 1248 1272 1296 1314 1332 1347 1350 1353 1353 1350 1347 1329 1311 1293 1269 1248 1227 1203 1182 1167 1152 1146
861 861 861 861 861 861 864 864 864 864 864 864 864 864 864 864 864 864 864 864 864 864 864 864 861 861 861 861 861 861 861 861 861 861 861 861 861 861 861 861 861 861 861 861 861 864 864 864 864 864 864 864 864 861 861 861 861 864 864 864 864 864 864 864 867 867 867 867 864 864 864 864 864 864 864 864 864 864 864 864 864 864 864 864 864 864 864 864 864 864 864 864 864 864 864 864 864 864 867 873 876 879 879 879 876 873 870 867 867 864 864 864 864 864 864 864 864 864 864 864 864 864 864 864 864 864 864 867 867 867 867 864 864 864 864 864 864 864 864 864 864 864 864 864 867 867 867 867 864 864 864 864 867 867 867 867 867 867 867 867 867 870 870 873 879 885 888 888 891 888 885 885 888 888 888 888 888 888 885 885 882 879 876 876 876 873 873 873 873 873 873 873 873 873 873 873 873 873 873 873 876 876 876 876 876 879 882 882 885 885 885 888 888 891 894 894 894 894 894 903 909 921 939 951 954 954 948 936 921 918 912 909 909 909 912 918 921 936 948 963 972 981 993 1008 1020 1032 1044 1056 1068 1080 1095 1107 1119 1131 1143 1152 1161 1170 1173 1176 1179 1182 1185 1188 1194 1197 1209 1218 1230 1242 1254 1251 1248 1242 1233 1221 1206 1191 1173 1146 1119 1089 1056 1020 1008 996 987 987 984 981 975 969 960 951 945 939 933 927 924 918 915 912 909 906 903 903 900 900 897 897 897 897 897 900 903 912 921 933 945 960 972 981 990 999 1005 1011 1017 1023 1023 1017 1014 999 981 966 948 933 921 918 912 912 912 915 918 921 924 927 930 936 945 948 948 948 945 939 936 939 945 951 957 963 960 957 951 951 951 954 957 960 978 996 1017 1044 1074 1101 1131 1158 1200 1239 1272 1293 1317 1335 1350 1365 1365 1368 1368 1365 1365 1344 1323 1302 1281 1257 1233 1206 1182 1164 1149 1149
861 861 861 861 861 861 864 864 864 864 864 864 864 864 864 864 864 864 864 864 864 864 864 864 864 861 861 861 861 861 861 861 861 861 861 861 861 861 861 861 861 861 861 861 861 861 861 861 861 861 861 861 861 861 861 861 864 864 864 864 864 864 867 867 867 864 864 864 864 864 864 864 864 864 864 864 864 864 864 864 864 864 864 864 864 864 864 864 864 864 864 864 864 864 864 864 864 864 870 879 885 888 894 891 888 882 879 873 870 867 864 864 864 864 864 864 864 864 864 864 864 864 864 864 864 864 864 864 867 867 864 864 864 864 864 864 864 864 864 864 864 864 864 864 864 867 867 867 867 867 867 867 867 867 867 867 867 867 867 867 867 870 873 879 888 900 903 903 903 897 891 888 888 891 888 888 888 885 885 882 879 876 876 876 873 873 873 873 873 873 873 873 873 873 873 873 873 873 873 873 876 876 876 879 879 879 882 882 882 885 885 885 885 888 891 894 894 894 894 900 903 912 921 930 927 927 921 915 906 906 906 906 906 909 915 924 930 951 972 987 999 1008 1020 1029 1038 1050 1062 1071 1080 1089 1101 1113 1125 1134 1146 1152 1158 1161 1164 1164 1167 1167 1167 1170 1173 1179 1191 1203 1218 1233 1245 1245 1242 1239 1227 1218 1203 1188 1173 1146 1122 1095 1062 1029 1011 996 981 981 981 978 972 969 963 954 945 942 936 933 927 924 918 915 912 909 906 903 900 900 897 897 894 894 894 897 903 909 918 930 939 951 963 972 981 990 996 1002 1008 1011 1011 1005 999 987 972 957 942 927 918 915 912 909 909 906 909 912 915 918 921 924 927 930 930 933 933 930 930 942 954 963 963 966 963 957 951 951 951 954 963 969 996 1023 1050 1077 1104 1131 1155 1182 1224 1263 1296 1320 1344 1362 1374 1386 1386 1386 1386 1383 1383 1362 1344 1326 1305 1287 1260 1230 1203 1182 1164 1164
861 861 861 861 861 864 864 864 864 864 864 864 864 864 864 864 864 864 864 864 864 864 864 864 861 861 861 861 861 861 861 861 861 861 861 861 861 861 861 861 861 861 861 861 861 861 861 861 861 861 864 861 861 861 864 864 864 864 864 864 864 864 864 864 864 864 864 864 864 864 864 864 864 864 864 864 864 864 864 864 864 864 864 864 864 864 864 864 864 864 864 864 864 864 864 864 864 864 873 882 888 894 900 900 897 891 885 879 873 870 867 867 864 864 864 864 864 864 864 864 864 864 864 864 864 864 864 864 864 864 864 864 864 864 867 867 867 864 864 864 864 867 867 867 867 867 867 870 867 867 867 867 867 867 864 864 867 867 867 867 867 873 879 888 903 918 918 915 912 903 894 891 891 891 891 888 885 882 882 879 876 876 876 873 873 873 873 873 873 873 873 873 873 873 873 873 873 873 873 873 873 876 876 879 879 882 882 882 882 882 885 885 885 885 888 891 891 891 894 897 897 900 903 906 906 903 903 903 903 903 903 906 909 909 918 933 945 966 990 1005 1017 1026 1035 1044 1053 1065 1077 1086 1092 1098 1110 1122 1131 1137 1146 1149 1149 1149 1152 1152 1152 1152 1152 1155 1161 1167 1182 1197 1212 1227 1242 1239 1236 1233 1221 1212 1200 1185 1173 1149 1125 1098 1065 1035 1014 996 978 978 975 972 969 966 960 951 945 942 936 933 930 927 924 921 918 915 909 906 903 900 897 897 894 894 894 897 900 906 915 927 936 942 951 960 969 978 984 990 993 999 999 996 993 981 966 951 939 924 915 912 909 906 903 903 906 906 909 912 915 915 918 921 924 927 927 930 930 945 960 969 969 972 966 960 954 954 954 960 972 984 1017 1050 1080 1113 1143 1167 1191 1212 1248 1284 1314 1338 1362 1377 1389 1401 1398 1398 1395 1392 1389 1374 1359 1344 1323 1305 1278 1251 1224 1203 1185 1185
861 861 861 861 864 864 864 864 864 864 864 864 864 864 864 864 864 864 864 864 864 864 864 864 864 861 861 861 861 861 861 861 861 861 861 861 861 861 861 861 861 861 861 861 861 861 861 861 861 861 864 864 861 864 864 864 864 864 864 864 864 864 864 864 864 864 864 864 864 864 864 864 864 864 864 864 864 864 864 864 864 864 864 864 864 864 864 864 864 864 864 864 864 864 864 864 864 864 873 882 888 897 906 906 903 900 891 882 876 873 870 870 870 870 867 867 867 867 864 864 864 864 864 864 864 864 864 864 864 864 864 867 867 867 867 867 867 867 867 864 867 867 867 867 867 867 870 870 870 870 867 867 867 867 867 867 867 867 867 867 870 882 894 909 924 939 933 921 912 903 897 894 891 891 891 888 885 882 882 879 876 876 873 873 873 873 873 873 873 870 870 870 870 873 873 873 873 873 873 873 873 876 876 876 879 879 879 882 882 882 882 882 882 882 885 888 891 894 894 897 900 900 900 903 900 900 900 900 900 903 906 909 912 915 924 936 951 969 990 1008 1017 1029 1038 1047 1059 1068 1080 1089 1098 1107 1116 1125 1134 1137 1140 1140 1137 1134 1134 1134 1134 1134 1134 1140 1146 1152 1170 1188 1203 1218 1233 1233 1230 1227 1218 1206 1194 1182 1167 1146 1125 1101 1068 1038 1014 993 978 975 972 966 963 960 954 948 945 939 936 933 933 930 930 927 927 927 927 921 912 906 903 897 894 894 891 897 900 906 915 924 930 936 942 951 960 966 975 981 984 990 990 987 984 972 957 945 933 921 912 909 906 903 903 900 903 903 906 909 909 912 912 915 918 921 924 927 930 945 960 969 975 978 972 966 960 960 957 966 984 999 1035 1074 1110 1146 1185 1209 1230 1251 1281 1311 1335 1356 1380 1392 1401 1407 1404 1401 1398 1392 1386 1377 1368 1353 1335 1317 1293 1269 1242 1221 1206 1206
861 861 861 864 864 864 864 864 864 864 864 864 864 864 864 864 864 864 864 864 864 864 864 864 864 861 861 861 861 861 861 861 861 861 861 861 861 861 861 861 861 861 861 861 861 861 861 861 861 861 861 864 864 864 864 864 864 864 864 864 864 864 864 864 864 864 864 864 864 864 864 864 864 864 864 864 864 864 864 864 864 864 864 864 864 864 864 864 864 864 864 864 864 864 864 864 864 864 873 882 888 897 906 906 903 897 891 882 879 879 879 882 885 885 879 876 873 870 867 867 867 867 864 864 864 864 864 864 864 864 864 864 864 864 864 864 864 864 864 864 867 867 867 867 867 867 867 867 867 870 867 867 867 867 867 867 867 867 867 867 867 882 894 909 930 948 948 942 936 930 924 918 912 903 897 891 885 882 879 879 876 873 873 873 873 873 873 873 873 873 873 870 870 873 873 873 870 873 873 873 873 873 873 876 876 879 879 879 879 882 882 882 882 882 885 885 888 891 894 897 897 900 900 900 897 897 897 900 900 903 909 912 918 924 933 945 957 969 984 996 1008 1020 1029 1038 1047 1059 1071 1080 1089 1101 1110 1119 1125 1128 1128 1128 1122 1119 1116 1113 1113 1113 1116 1122 1131 1140 1158 1179 1194 1209 1221 1221 1221 1218 1209 1200 1188 1173 1161 1143 1122 1098 1068 1038 1017 993 975 972 966 963 960 957 951 945 942 939 933 933 933 933 933 936 939 942 948 939 927 918 909 897 894 894 891 894 897 903 912 921 927 930 936 942 951 957 966 975 978 981 981 978 972 963 948 933 924 915 909 906 906 903 903 903 903 903 903 906 906 909 909 909 912 915 918 924 927 939 951 963 975 984 981 972 966 966 963 975 990 1008 1047 1089 1134 1182 1230 1260 1284 1305 1329 1353 1371 1383 1398 1401 1404 1407 1398 1389 1383 1377 1371 1362 1356 1347 1332 1317 1296 1272 1248 1224 1203 1203
861 861 861 864 864 864 864 864 864 864 864 864 864 864 864 864 864 864 864 864 864 864 864 864 864 861 861 861 861 861 861 861 861 861 861 861 861 861 861 861 861 861 861 861 861 861 861 861 864 864 864 864 861 861 864 864 864 864 864 864 864 864 864 864 864 864 864 864 864 864 864 864 864 864 864 864 864 864 864 864 864 864 864 864 864 864 864 864 864 864 864 864 864 864 864 864 864 864 870 879 885 897 906 903 900 894 888 882 885 894 903 912 918 921 912 900 891 882 870 870 867 867 867 867 867 867 867 867 867 867 867 867 864 864 864 864 864 864 864 864 864 867 867 867 864 867 867 867 867 867 867 867 867 867 864 864 867 867 867 867 867 882 894 912 933 954 960 960 960 960 957 948 936 921 909 897 888 882 879 876 876 873 873 873 873 873 873 873 873 873 873 873 873 873 873 873 870 870 873 873 873 873 873 876 876 879 879 879 879 879 879 882 882 882 885 885 888 888 891 894 897 897 897 897 897 894 897 900 903 906 912 918 927 939 945 954 960 966 969 975 987 999 1005 1014 1023 1032 1041 1050 1062 1074 1086 1095 1104 1107 1113 1110 1104 1101 1095 1092 1089 1092 1095 1104 1113 1128 1149 1170 1185 1194 1206 1200 1197 1191 1188 1182 1173 1164 1152 1134 1113 1089 1059 1032 1008 990 972 969 966 960 957 951 948 942 939 936 933 933 933 933 939 942 948 957 966 960 948 936 921 903 897 894 891 891 894 897 906 912 918 924 930 936 942 948 957 966 969 969 972 966 963 954 939 927 918 912 906 906 906 903 903 903 903 903 903 906 906 906 906 909 912 915 918 921 924 933 942 951 966 978 975 972 969 972 972 987 1005 1026 1065 1107 1152 1200 1251 1287 1314 1341 1359 1377 1392 1401 1413 1413 1410 1404 1392 1377 1365 1356 1347 1341 1338 1332 1320 1311 1293 1272 1251 1227 1206 1206
861 861 864 864 864 864 864 864 864 864 864 864 864 864 864 864 864 864 864 864 864 864 864 864 864 864 861 861 861 861 861 861 861 861 861 861 861 861 861 861 861 861 861 861 861 861 861 861 864 864 864 864 864 864 864 864 864 864 864 864 864 864 864 864 864 864 864 864 864 864 864 864 864 864 864 864 864 864 864 864 864 864 864 864 864 864 864 864 864 864 864 864 864 864 864 864 864 864 870 876 882 891 900 900 897 891 888 882 891 912 930 945 960 969 951 936 915 897 876 873 870 870 870 867 867 867 867 867 867 867 867 867 867 867 867 864 864 864 864 864 864 867 867 867 867 867 867 867 867 867 867 867 864 864 864 864 864 864 867 867 870 882 897 915 936 957 966 975 984 984 987 978 963 951 930 906 891 885 879 876 873 873 873 873 873 873 873 873 873 873 873 870 870 870 873 870 870 870 870 873 873 873 873 876 879 879 876 876 876 879 879 882 882 885 885 888 888 891 891 894 897 897 897 897 897 897 900 906 912 924 936 948 960 969 975 975 978 975 972 975 984 993 1002 1011 1017 1023 1026 1035 1041 1050 1059 1068 1077 1083 1089 1089 1086 1083 1080 1077 1074 1077 1080 1092 1104 1119 1137 1158 1170 1173 1176 1173 1167 1161 1155 1149 1143 1134 1125 1110 1092 1071 1047 1023 1002 984 966 963 960 957 951 948 942 939 936 933 930 930 930 933 942 948 960 969 981 975 963 951 930 909 900 897 891 891 891 894 900 903 909 918 924 930 933 939 948 954 957 960 963 957 954 945 933 921 915 909 906 903 903 903 903 903 903 903 903 903 903 906 906 909 912 915 918 921 924 930 933 942 957 969 972 972 972 981 987 1002 1026 1047 1086 1125 1167 1215 1266 1302 1335 1365 1380 1395 1407 1413 1419 1416 1413 1404 1386 1365 1350 1335 1317 1317 1314 1311 1305 1299 1284 1269 1251 1230 1212 1212
861 864 864 864 864 864 864 864 864 864 864 864 864 864 864 864 864 864 864 864 864 864 864 864 864 864 864 864 864 861 861 861 861 861 861 861 861 861 861 861 861 861 861 861 861 861 861 861 861 864 864 864 864 864 864 864 864 864 864 864 864 864 864 864 864 864 861 861 861 861 861 861 864 864 864 864 864 864 864 864 864 864 864 864 864 864 864 864 864 864 864 864 864 864 864 864 864 864 867 870 873 882 891 894 891 891 888 885 894 918 939 957 978 987 969 954 933 912 888 882 876 873 873 870 870 870 867 867 867 867 867 867 867 867 867 867 867 867 867 867 867 867 867 867 864 867 867 867 867 867 867 867 867 867 867 864 867 867 867 867 870 891 909 927 945 966 975 981 987 987 990 984 972 957 936 912 894 885 879 876 873 873 873 873 873 873 873 873 873 873 873 870 870 870 870 870 870 870 870 870 873 873 873 876 876 876 876 876 876 879 879 882 882 885 888 888 888 891 891 894 897 897 897 897 903 906 915 927 939 954 966 978 987 996 996 993 993 984 978 978 987 993 999 1008 1014 1017 1020 1023 1029 1032 1038 1044 1053 1062 1071 1074 1074 1071 1068 1062 1062 1068 1071 1083 1095 1107 1125 1143 1149 1149 1149 1143 1134 1128 1122 1113 1107 1101 1092 1080 1068 1050 1032 1014 996 978 963 957 954 948 945 942 939 936 933 930 927 927 930 930 942 954 966 978 990 981 975 960 939 918 906 900 894 894 891 891 894 897 903 909 912 918 924 930 936 945 948 954 957 951 942 933 924 915 909 903 900 900 900 900 903 903 900 900 900 900 900 903 906 909 912 915 918 921 924 930 936 945 954 966 972 978 984 996 1008 1029 1053 1077 1110 1146 1185 1227 1272 1311 1347 1383 1395 1407 1413 1413 1413 1410 1404 1398 1380 1359 1338 1317 1293 1290 1287 1284 1281 1278 1269 1254 1242 1221 1206 1206
864 864 864 864 864 864 864 864 864 864 864 864 864 864 864 864 864 864 864 864 864 864 867 867 867 867 864 864 864 861 861 861 861 861 861 861 861 861 861 861 861 861 861 861 861 861 861 864 864 864 864 864 864 864 864 864 864 864 864 864 864 864 864 864 864 861 861 861 861 861 861 864 864 864 864 864 864 864 864 864 864 864 864 864 864 864 864 864 864 864 864 864 864 864 864 864 864 864 864 867 870 876 885 888 888 891 891 888 900 927 951 969 984 993 975 960 942 924 903 897 888 882 879 876 873 870 870 870 867 867 867 867 867 867 867 867 867 867 867 867 867 867 867 867 864 867 867 867 867 867 867 867 867 867 867 867 867 867 867 870 873 897 918 939 957 975 981 984 984 987 990 984 972 960 936 912 894 888 879 876 876 873 873 873 873 873 873 873 873 873 873 870 870 870 870 870 870 870 870 870 873 873 876 876 876 876 876 876 876 876 879 882 885 885 888 888 888 888 888 891 894 894 894 897 909 921 939 963 984 993 1002 1008 1008 1011 1008 1005 1005 996 990 987 990 996 999 1005 1011 1011 1014 1017 1020 1023 1029 1035 1041 1053 1065 1068 1065 1065 1059 1053 1050 1056 1062 1074 1083 1095 1104 1116 1119 1122 1122 1119 1113 1107 1101 1092 1083 1074 1065 1056 1047 1032 1017 1002 987 969 954 951 948 945 942 939 936 933 930 927 924 924 924 927 939 951 960 969 978 975 972 963 942 924 912 906 900 897 894 891 891 894 897 903 906 909 915 921 924 930 936 942 945 939 933 927 921 912 909 903 900 900 900 900 900 900 900 900 900 900 900 903 906 909 912 912 915 921 924 930 939 945 957 969 981 993 1008 1026 1041 1065 1092 1119 1149 1182 1215 1257 1296 1332 1365 1395 1404 1413 1416 1413 1407 1401 1392 1383 1368 1350 1329 1305 1278 1272 1263 1260 1260 1257 1251 1242 1233 1215 1203 1203
864 864 864 864 864 864 864 864 864 864 864 864 864 861 864 864 864 864 864 864 864 864 864 867 867 864 864 864 864 861 861 861 861 861 861 861 861 861 861 861 861 861 861 861 861 864 864 864 864 864 864 864 864 864 864 864 864 864 864 864 864 864 864 864 864 864 861 861 861 861 864 864 864 864 864 864 864 864 864 864 864 864 864 864 864 864 864 864 864 864 864 864 864 864 867 864 864 864 864 864 867 873 879 882 885 888 891 891 906 933 963 975 984 987 972 957 942 930 918 912 903 897 891 885 879 876 870 870 870 870 870 870 870 867 867 867 867 867 867 867 867 867 867 867 867 867 867 867 867 867 867 867 867 867 867 867 867 867 867 870 873 897 921 942 960 978 981 984 984 987 990 984 972 957 936 915 897 888 879 876 876 873 873 873 873 873 873 873 873 870 870 870 870 870 870 870 870 870 870 870 873 873 873 873 876 876 876 876 876 879 879 882 885 885 888 888 888 888 891 891 891 894 900 906 921 936 957 981 1002 1011 1014 1017 1011 1005 1002 1002 1002 999 996 996 993 993 996 999 1002 1002 1002 1005 1008 1011 1017 1023 1032 1047 1059 1062 1059 1059 1050 1041 1038 1041 1047 1053 1059 1068 1080 1092 1098 1101 1107 1104 1098 1092 1086 1077 1068 1059 1047 1038 1029 1020 1008 996 981 963 951 948 942 939 939 936 933 930 927 924 921 921 921 924 933 945 954 963 972 972 975 969 951 933 921 912 906 900 894 891 891 891 894 897 900 903 906 909 915 918 924 930 933 927 924 921 915 912 906 903 900 897 897 900 900 900 900 897 897 900 900 903 906 909 909 912 915 921 927 933 939 951 963 975 993 1017 1038 1062 1083 1107 1134 1161 1191 1218 1251 1284 1320 1350 1380 1407 1413 1422 1419 1410 1401 1389 1377 1365 1350 1335 1317 1293 1269 1257 1242 1236 1236 1239 1236 1230 1224 1212 1200 1200
864 864 864 864 864 864 864 864 864 864 864 864 864 861 861 861 864 864 864 864 864 864 861 861 861 861 861 861 861 861 861 861 861 861 861 861 861 861 861 861 861 861 861 861 864 864 864 864 864 864 864 864 864 864 864 864 864 864 864 864 864 864 864 864 864 864 864 864 861 861 864 864 864 864 864 864 864 864 864 864 864 864 864 864 864 864 864 864 864 864 864 867 867 867 867 867 864 864 864 864 867 873 876 879 882 882 885 888 900 924 948 957 966 966 948 930 921 912 906 909 912 915 912 909 900 891 882 879 873 870 870 873 870 870 870 870 870 870 870 870 870 867 867 867 867 867 867 867 867 867 867 867 867 867 867 867 867 867 867 867 870 894 915 936 957 981 984 984 984 990 993 984 972 960 936 915 897 888 879 876 876 873 873 873 873 873 873 873 873 873 873 873 870 870 870 870 870 870 870 870 870 873 873 873 873 876 876 876 876 879 879 882 885 885 888 888 888 891 891 891 891 897 903 912 933 951 972 993 1011 1014 1017 1014 1008 999 996 996 996 996 999 996 993 987 987 990 990 990 990 993 996 999 1005 1011 1020 1032 1044 1047 1047 1047 1035 1026 1023 1023 1023 1026 1032 1041 1056 1074 1083 1089 1095 1092 1086 1080 1074 1065 1056 1044 1035 1026 1017 1011 999 990 975 963 948 945 939 936 936 933 930 927 924 921 918 918 918 918 927 933 942 954 966 975 981 984 966 948 933 921 909 900 894 891 891 888 891 894 897 897 900 903 906 906 912 918 921 918 918 915 915 912 906 903 900 897 897 897 900 900 897 897 897 900 900 903 906 909 909 912 918 921 927 936 945 957 972 987 1017 1050 1080 1107 1134 1155 1176 1197 1221 1245 1272 1302 1335 1362 1389 1416 1422 1428 1425 1410 1398 1380 1362 1344 1329 1314 1296 1278 1260 1245 1233 1221 1218 1212 1209 1203 1200 1191 1185 1185
864 864 864 864 864 864 864 864 864 864 864 864 864 864 864 864 861 861 861 864 864 864 864 861 861 861 861 861 861 861 861 861 861 861 861 861 861 861 861 861 861 861 861 861 864 864 864 864 864 864 864 864 864 864 864 864 864 864 864 864 864 864 864 864 864 864 864 864 864 864 864 864 864 864 864 864 864 864 864 864 864 864 864 864 864 864 864 864 864 864 864 864 864 864 867 864 864 864 864 864 867 870 873 873 876 876 879 879 888 906 921 933 939 942 930 918 909 909 906 915 924 927 927 927 918 909 897 888 879 873 873 873 873 873 873 870 870 870 870 870 870 870 870 867 867 867 867 867 867 867 867 867 867 867 867 867 867 867 867 867 870 885 903 924 951 978 984 987 990 993 996 990 975 960 936 912 894 885 879 876 873 873 873 873 873 873 873 873 873 873 873 873 873 870 870 870 870 870 870 870 870 870 873 873 873 876 876 876 879 879 882 882 885 885 885 888 888 891 891 891 891 897 906 918 942 966 984 996 1011 1008 1005 999 993 987 987 987 987 990 993 990 984 975 975 975 978 978 978 978 984 987 990 993 999 1005 1008 1014 1017 1020 1011 999 993 990 987 1002 1017 1032 1053 1074 1083 1086 1089 1083 1077 1068 1062 1056 1044 1035 1026 1017 1011 1002 993 984 969 957 945 939 936 933 933 930 927 927 924 921 915 915 915 915 918 924 930 939 948 960 975 981 969 957 942 930 915 906 897 894 891 888 888 891 894 894 897 900 903 903 909 912 915 915 915 912 909 909 906 903 900 900 903 903 903 906 903 900 900 900 900 903 903 906 909 912 918 924 930 939 948 963 984 1005 1038 1068 1098 1125 1149 1173 1194 1212 1236 1260 1284 1317 1350 1374 1398 1419 1425 1428 1425 1413 1401 1383 1362 1344 1329 1311 1296 1278 1260 1242 1227 1212 1203 1194 1191 1185 1182 1176 1170 1170
861 864 864 864 864 864 864 864 864 864 864 864 864 864 864 864 864 864 864 864 864 864 864 861 861 861 861 861 861 861 861 861 861 861 861 861 861 861 861 861 861 861 861 861 864 864 864 864 864 864 864 864 864 864 864 864 864 864 864 864 861 861 864 864 864 864 864 864 864 864 864 864 864 864 864 864 864 864 864 864 864 864 864 864 864 864 864 864 864 864 864 864 864 864 864 864 864 864 864 864 867 867 870 870 870 867 867 867 870 879 885 900 912 921 915 912 912 912 915 924 936 942 942 942 936 927 915 900 882 876 873 870 870 870 870 870 870 870 870 873 873 873 873 870 867 867 867 867 867 867 867 867 867 867 867 867 867 867 867 867 867 876 885 906 936 963 981 996 1005 1005 1005 996 978 960 936 912 894 885 876 876 873 873 873 873 873 873 870 873 873 873 873 873 873 873 870 870 870 870 870 870 870 870 873 873 873 876 876 876 879 882 885 885 888 885 885 885 885 888 888 888 888 894 900 909 924 942 954 969 981 984 984 984 981 981 978 978 978 981 981 981 972 963 963 963 966 966 966 966 972 975 978 981 987 987 990 996 999 1002 990 981 975 975 978 993 1014 1035 1053 1071 1080 1080 1080 1074 1065 1059 1050 1044 1035 1026 1017 1008 999 990 978 969 957 948 939 936 933 930 930 930 927 924 921 918 915 912 912 909 912 915 918 927 936 951 966 975 966 960 945 933 918 909 900 894 894 891 891 891 894 894 897 897 900 900 903 906 906 909 909 909 906 903 903 903 903 903 903 906 909 909 906 903 900 900 900 900 903 903 909 912 918 924 930 939 948 966 996 1023 1053 1083 1110 1134 1155 1179 1200 1221 1245 1269 1296 1329 1365 1386 1407 1425 1425 1428 1425 1419 1410 1392 1374 1356 1338 1323 1305 1284 1266 1245 1224 1209 1197 1185 1179 1173 1167 1161 1152 1152
861 864 864 864 864 864 864 864 864 864 864 864 864 864 864 864 864 864 864 864 864 864 861 861 861 861 861 861 861 861 861 861 861 861 861 861 861 861 861 861 861 861 861 861 864 864 864 864 864 864 864 864 864 864 864 864 864 864 861 861 864 864 864 864 864 864 864 864 864 864 864 864 864 864 864 864 864 864 864 864 864 864 864 864 864 864 864 864 864 864 864 864 864 864 867 864 864 864 867 867 870 870 870 867 867 867 867 867 867 873 876 882 891 897 903 906 912 915 921 927 936 939 939 936 927 918 906 894 879 873 873 870 870 870 867 867 867 870 870 873 873 876 873 870 870 867 867 867 867 867 867 867 867 867 867 867 867 867 867 867 867 870 876 888 912 936 957 972 987 987 987 981 969 957 936 912 894 885 876 876 876 876 873 873 873 873 870 873 873 873 873 876 876 873 873 870 870 870 870 870 870 870 873 873 873 873 876 876 879 882 885 885 885 885 885 885 885 885 885 888 888 891 894 897 909 918 930 942 957 963 969 972 972 972 972 969 969 969 972 969 960 951 951 954 954 954 954 957 960 963 969 972 975 978 978 981 984 984 975 966 963 969 975 996 1017 1038 1053 1068 1074 1071 1071 1062 1056 1050 1041 1032 1026 1017 1008 996 984 972 960 948 942 936 933 930 930 930 930 930 927 924 921 918 915 912 909 906 906 906 912 921 930 942 957 963 957 951 942 930 918 912 903 900 897 894 894 897 897 897 897 897 897 897 900 900 900 900 900 900 900 900 900 900 900 900 900 900 903 903 903 906 906 906 906 903 903 903 909 912 918 924 930 939 948 966 996 1026 1059 1092 1122 1143 1164 1188 1209 1233 1260 1287 1314 1344 1374 1395 1413 1428 1434 1437 1437 1434 1431 1416 1401 1383 1362 1344 1323 1302 1281 1257 1236 1215 1197 1182 1170 1164 1155 1149 1143 1143
861 861 861 861 864 864 864 864 864 864 864 864 864 864 864 864 864 864 864 864 864 864 861 861 861 861 861 861 861 861 861 861 861 861 861 861 861 861 861 861 861 861 861 861 861 864 864 864 864 864 864 864 864 864 864 864 864 864 861 864 864 864 864 864 864 864 864 864 864 864 864 864 864 864 864 864 864 864 864 864 864 864 864 864 864 864 867 867 867 864 864 864 864 864 867 864 864 864 867 867 867 867 867 867 867 867 867 867 867 867 870 876 882 888 897 906 909 912 912 918 924 927 924 924 915 903 894 885 876 870 870 870 867 867 867 867 867 867 870 870 873 873 873 870 870 867 867 867 867 867 867 867 867 867 867 867 867 867 867 867 867 867 870 876 891 906 924 939 954 957 960 960 957 954 936 915 897 888 876 876 876 876 873 873 873 873 873 873 873 876 876 879 879 876 873 873 870 870 870 870 870 870 873 873 873 873 876 876 879 879 879 879 879 882 882 882 885 885 888 888 888 891 891 894 900 906 918 930 942 951 960 966 966 966 963 960 960 960 960 957 951 942 942 942 945 942 942 945 951 957 960 963 966 966 966 966 966 966 963 957 960 969 981 1002 1026 1047 1056 1068 1068 1065 1062 1053 1047 1038 1032 1023 1017 1008 1002 987 975 963 951 939 933 930 924 927 927 930 933 936 933 927 921 918 915 912 909 906 903 903 906 909 915 924 933 939 936 930 924 915 906 903 900 897 894 891 891 891 891 891 891 891 891 894 894 897 897 897 897 897 897 897 897 894 894 897 897 897 897 900 900 900 903 906 909 906 906 903 906 909 915 921 930 939 948 966 996 1026 1059 1095 1125 1146 1167 1188 1212 1236 1263 1290 1317 1347 1374 1395 1413 1428 1434 1443 1446 1446 1446 1431 1416 1401 1380 1359 1338 1317 1293 1272 1248 1224 1203 1182 1167 1155 1146 1140 1137 1137
861 861 861 861 864 864 864 864 864 864 864 864 864 864 864 864 864 864 864 864 864 864 861 861 861 861 861 861 861 861 861 861 861 861 861 861 861 861 861 861 861 861 861 861 861 861 864 864 864 864 864 864 864 864 861 861 864 864 864 864 864 864 864 864 864 864 864 864 864 864 864 861 861 861 864 864 864 864 864 864 864 864 864 864 864 867 867 867 867 864 864 864 864 864 864 864 864 864 864 864 867 864 864 864 864 867 867 867 867 870 870 876 882 888 897 906 903 897 894 897 900 903 903 900 891 882 876 873 870 867 867 867 867 867 867 867 867 867 867 867 867 867 867 867 867 867 867 867 867 867 867 867 867 867 867 867 867 867 867 867 867 867 867 870 876 882 894 909 921 933 945 951 951 954 936 918 903 891 879 876 876 873 873 873 873 873 873 873 876 876 879 879 879 876 876 873 873 870 870 870 870 870 873 873 873 873 876 876 876 876 879 879 882 882 885 885 885 885 888 888 888 888 888 888 891 894 903 912 924 933 945 951 951 954 951 948 945 945 942 942 936 933 933 936 936 936 936 939 945 951 954 957 957 954 951 951 951 954 954 954 963 978 993 1014 1035 1053 1059 1065 1065 1059 1053 1044 1035 1026 1020 1011 1005 999 990 978 966 954 942 933 927 924 921 921 924 927 933 936 933 927 924 918 915 912 909 906 903 900 900 903 903 909 915 918 915 909 906 900 897 894 894 891 891 891 888 888 888 888 885 888 888 888 891 894 894 894 894 894 894 894 894 891 891 894 894 894 894 894 897 897 903 909 915 912 909 906 906 909 912 921 927 939 951 969 996 1023 1056 1092 1122 1143 1164 1188 1212 1236 1260 1287 1314 1341 1368 1389 1407 1425 1434 1443 1449 1452 1452 1440 1428 1413 1392 1371 1350 1329 1305 1284 1263 1239 1212 1188 1170 1152 1140 1134 1131 1131
861 861 861 861 864 864 864 864 864 864 864 864 864 864 864 864 864 864 864 864 864 864 864 861 861 861 861 861 861 861 861 861 861 861 861 861 861 861 861 861 861 861 861 861 861 861 864 864 864 864 864 864 864 861 861 861 864 864 864 864 864 864 864 864 864 864 864 864 864 864 864 864 864 864 864 864 864 864 864 864 864 864 864 864 867 867 867 867 867 864 864 864 864 864 864 864 864 864 864 864 864 864 864 864 864 867 867 870 873 873 876 879 879 882 888 894 891 888 882 882 882 882 882 882 879 873 870 870 870 867 867 867 867 867 867 867 867 867 867 867 867 867 867 867 867 867 867 867 867 867 867 867 867 867 867 867 867 867 867 867 867 867 867 867 870 873 879 885 897 909 924 936 945 951 939 927 912 897 882 879 876 876 873 873 873 873 873 876 876 879 879 879 879 879 876 873 873 870 870 870 870 870 870 873 873 873 873 873 876 876 876 879 882 885 885 885 885 885 885 885 885 885 882 882 885 885 891 897 906 915 924 933 936 936 936 933 933 930 927 924 924 924 924 927 927 927 927 930 939 945 945 948 948 942 939 939 939 942 948 957 972 993 1011 1029 1047 1059 1062 1062 1059 1053 1047 1035 1026 1014 1008 999 993 987 981 969 957 948 939 927 924 918 915 918 918 924 930 936 933 930 924 918 912 909 909 906 903 900 900 900 897 900 900 900 897 894 894 891 891 888 888 888 888 888 888 885 885 885 885 888 888 888 888 891 891 894 894 894 894 894 891 891 891 891 894 894 894 894 897 897 903 912 918 918 915 912 909 906 909 915 921 936 951 975 1005 1038 1065 1092 1116 1140 1161 1185 1212 1236 1257 1281 1302 1329 1353 1374 1392 1407 1419 1431 1440 1446 1452 1440 1428 1413 1395 1377 1353 1329 1305 1281 1254 1230 1206 1179 1167 1155 1143 1134 1128 1128
861 861 861 864 864 864 864 864 864 864 864 864 864 864 864 864 864 864 864 864 864 864 864 861 861 861 861 861 861 861 861 861 861 861 861 861 861 861 861 861 861 861 861 861 861 864 864 864 864 864 861 861 861 861 861 861 864 864 864 864 864 864 864 864 864 864 864 864 864 864 861 861 864 864 864 864 864 864 864 864 864 864 864 864 867 867 867 867 867 867 867 867 867 864 864 864 864 864 864 864 864 864 864 867 867 867 870 876 876 879 879 879 882 882 885 885 885 882 879 876 873 873 870 870 870 870 870 870 870 867 867 867 867 867 867 867 867 867 867 867 867 867 867 867 867 867 867 867 867 867 867 867 867 867 867 867 867 867 867 867 867 867 867 867 867 867 870 870 876 888 903 918 933 948 942 936 924 906 888 882 879 876 876 873 873 873 876 876 879 879 879 882 879 879 876 873 873 870 870 870 870 870 870 873 873 873 873 873 873 876 876 879 882 882 885 885 882 882 882 879 879 879 879 879 879 882 885 888 891 897 903 909 912 915 918 918 918 915 915 915 915 915 918 918 921 921 921 924 930 936 939 939 939 936 933 933 933 936 951 966 984 1005 1026 1038 1047 1056 1056 1059 1056 1047 1041 1029 1017 1005 993 984 978 972 966 960 951 942 933 927 921 915 912 912 915 918 924 927 927 924 921 915 909 906 903 903 900 900 900 897 897 897 894 894 891 891 888 888 888 888 888 888 888 885 885 885 885 885 885 885 888 888 888 891 891 891 894 894 894 894 891 891 891 891 894 894 894 897 897 900 906 912 921 918 915 912 909 906 906 912 915 933 948 972 1005 1035 1062 1086 1113 1137 1161 1185 1212 1236 1254 1272 1290 1311 1332 1350 1371 1389 1401 1416 1425 1431 1440 1431 1422 1410 1392 1374 1350 1320 1293 1269 1248 1224 1203 1182 1170 1161 1149 1137 1125 1125
861 861 864 864 864 864 864 864 864 864 864 864 864 864 864 864 864 864 864 864 864 864 864 861 861 861 861 861 861 861 861 861 861 861 861 861 861 861 861 861 861 861 861 861 861 864 864 864 864 864 861 861 861 861 861 861 861 864 864 864 864 864 864 864 864 864 864 864 864 864 861 861 861 864 864 864 864 864 864 864 864 864 864 864 864 864 867 867 867 867 867 867 867 867 864 864 864 864 864 867 867 867 867 867 867 870 873 879 882 882 882 885 885 885 885 885 885 882 882 879 876 873 870 867 867 867 867 867 870 870 870 867 867 867 867 867 867 867 867 867 867 867 867 867 867 867 867 867 867 867 867 867 867 867 867 867 867 867 867 867 867 867 867 867 867 867 867 867 870 879 885 900 918 933 933 936 927 912 894 888 882 876 876 873 876 876 879 879 879 879 879 879 879 876 873 873 873 870 870 870 870 870 873 873 873 873 873 873 873 873 876 876 879 879 879 879 879 879 876 876 876 876 876 879 879 879 882 882 885 888 891 894 897 900 903 903 903 903 903 903 906 909 912 912 915 915 915 918 924 930 930 930 930 927 927 927 930 936 954 972 990 1011 1032 1041 1047 1053 1053 1053 1050 1041 1035 1023 1008 996 984 969 963 960 957 951 945 939 930 924 918 915 909 912 912 915 918 921 921 921 918 912 909 903 900 900 900 900 900 897 897 894 894 891 891 888 888 888 888 888 888 885 885 885 885 885 885 885 885 885 888 888 888 888 891 891 894 894 894 894 891 891 891 891 894 894 897 897 900 903 909 912 918 915 912 909 906 906 906 909 915 933 951 972 999 1023 1053 1080 1107 1134 1161 1185 1209 1230 1245 1260 1275 1290 1305 1323 1344 1365 1380 1395 1407 1410 1416 1413 1407 1398 1383 1365 1335 1302 1266 1254 1239 1227 1212 1197 1182 1170 1155 1137 1125 1125
861 861 864 864 864 864 864 864 864 864 864 864 864 864 864 864 864 864 864 864 864 861 861 861 861 861 861 861 861 861 861 861 861 861 861 861 861 861 861 861 861 861 861 861 861 861 864 864 864 864 861 861 861 861 861 861 861 864 864 864 864 864 864 864 864 864 864 864 861 861 861 861 864 864 864 864 864 864 864 864 864 864 864 864 864 867 867 867 867 867 867 867 867 867 864 864 864 864 864 867 867 867 867 867 867 870 873 879 882 885 885 888 888 888 888 888 885 885 882 879 876 873 870 867 867 867 867 867 867 867 867 867 867 867 867 867 867 867 867 867 867 867 867 867 867 867 867 867 867 867 867 867 867 867 867 867 867 867 867 867 867 867 867 867 867 867 867 867 867 873 876 885 900 912 918 924 921 909 897 888 885 879 879 876 876 879 882 882 882 879 879 879 876 876 873 873 873 870 870 870 870 873 873 873 873 873 873 873 873 873 873 873 873 876 876 876 876 873 873 873 876 876 876 876 879 879 879 879 879 882 882 885 888 891 891 891 891 891 894 894 897 903 903 906 909 909 909 912 915 921 921 921 921 921 921 924 930 936 957 978 996 1017 1035 1041 1044 1047 1047 1047 1041 1035 1029 1017 1002 990 975 963 954 951 945 942 939 933 927 924 918 912 909 909 912 912 915 918 918 918 915 909 903 903 900 897 897 900 900 897 897 894 891 891 888 888 888 888 888 885 885 885 888 888 888 888 888 885 885 885 888 888 888 888 891 891 894 894 894 894 894 891 891 894 894 897 897 897 900 903 906 906 906 906 903 903 903 903 909 915 921 939 957 978 1002 1026 1050 1077 1101 1125 1149 1173 1194 1215 1227 1236 1251 1269 1287 1311 1335 1359 1374 1386 1395 1398 1401 1398 1392 1386 1374 1359 1332 1299 1269 1251 1233 1218 1206 1194 1179 1164 1149 1131 1116 1116
861 861 861 861 864 864 864 864 864 864 864 864 864 864 864 864 864 864 864 864 864 861 861 861 861 861 861 861 864 864 861 861 861 861 861 861 861 861 861 861 861 861 861 861 861 861 864 864 864 861 861 861 861 861 861 861 861 864 864 864 864 864 864 864 864 864 864 864 861 861 864 864 864 864 864 864 864 864 864 864 864 864 864 864 867 867 867 867 867 867 867 867 867 867 864 864 864 864 864 867 867 864 864 864 867 867 870 873 876 882 885 885 885 888 888 885 885 882 882 879 873 870 867 867 867 867 867 867 867 867 867 867 867 867 867 867 867 867 867 867 867 867 867 867 867 867 867 867 867 867 867 867 867 867 867 867 867 867 867 867 867 867 867 867 867 867 867 867 867 870 870 876 882 891 897 903 903 897 891 888 885 882 882 879 879 879 882 882 882 882 879 876 876 873 873 873 873 873 873 873 873 873 873 873 873 873 873 873 873 873 873 873 873 873 873 873 873 873 873 873 876 876 876 876 879 879 879 879 879 879 879 882 885 888 888 888 888 888 891 891 894 897 900 903 903 906 906 909 909 912 912 912 912 912 912 921 933 942 963 981 999 1014 1032 1038 1041 1041 1038 1038 1032 1026 1020 1008 996 984 969 957 948 942 936 933 930 927 924 921 918 912 909 909 909 909 912 912 912 912 909 903 900 897 897 897 900 900 900 897 894 894 891 891 888 888 888 888 888 885 885 885 888 888 888 888 888 888 888 888 888 888 888 888 891 891 894 894 894 897 894 894 894 894 897 897 897 900 900 903 903 903 900 903 903 903 906 909 915 921 930 945 960 975 996 1017 1038 1062 1086 1110 1137 1155 1170 1188 1200 1215 1233 1254 1275 1302 1329 1353 1365 1377 1383 1383 1386 1380 1377 1371 1362 1350 1329 1299 1269 1248 1227 1212 1200 1188 1176 1161 1143 1125 1110 1110
861 861 861 861 864 864 864 864 864 864 864 864 864 864 864 864 864 864 864 864 864 861 861 861 861 861 861 861 864 864 864 861 861 861 861 861 861 861 861 861 861 861 861 861 861 861 861 861 861 861 861 861 861 864 864 864 864 864 864 864 864 864 861 861 864 864 864 864 864 864 864 864 864 864 864 864 864 864 864 864 864 864 864 867 867 867 867 867 864 864 864 864 864 864 867 867 864 864 864 864 864 864 864 864 864 864 864 867 870 873 876 879 882 882 882 882 882 882 879 876 870 867 867 867 867 867 867 867 867 867 867 867 867 867 867 867 867 867 867 867 867 867 867 867 867 867 867 867 867 867 867 867 867 867 867 867 867 867 867 867 867 867 867 867 867 867 867 867 867 867 870 870 873 876 879 882 885 885 885 885 885 882 882 879 879 879 882 879 879 879 879 876 876 873 873 873 873 873 873 873 873 873 873 873 873 873 873 873 873 873 873 873 873 873 873 873 873 873 873 876 876 876 876 876 879 879 879 879 879 879 879 879 882 885 885 885 885 888 888 891 891 894 897 900 900 900 903 903 903 903 906 906 906 909 912 921 933 945 963 978 996 1011 1029 1032 1035 1035 1032 1026 1020 1014 1005 996 987 975 963 951 942 936 927 924 924 921 918 918 915 912 909 909 906 906 906 906 906 906 903 900 894 897 897 900 900 903 900 897 894 894 891 888 888 888 888 888 888 888 885 888 888 888 888 888 888 888 888 888 888 888 891 891 894 894 894 897 897 900 900 897 897 897 897 897 897 900 900 900 900 900 900 903 903 906 912 915 921 930 939 948 957 969 984 999 1020 1044 1068 1092 1119 1134 1143 1155 1173 1191 1215 1245 1275 1302 1326 1347 1359 1368 1371 1371 1371 1365 1362 1353 1347 1338 1320 1296 1275 1251 1227 1209 1197 1188 1173 1158 1140 1119 1104 1104
861 861 861 861 864 864 864 864 864 864 864 864 864 864 864 864 864 864 864 864 861 861 861 861 861 861 861 861 861 864 861 861 861 861 861 861 861 861 861 861 861 861 861 861 861 861 861 861 861 861 861 861 864 864 864 864 864 864 861 861 861 861 864 864 864 864 864 864 864 864 864 864 864 864 864 864 864 864 864 864 864 864 864 867 867 864 864 864 864 864 864 864 864 864 867 867 864 864 864 864 864 864 864 864 864 864 864 864 867 867 870 870 873 876 876 879 879 876 876 873 870 867 867 867 867 867 867 867 867 867 867 867 867 867 867 867 867 867 867 867 867 867 867 867 867 867 867 867 867 867 867 867 867 867 867 867 867 867 867 867 867 867 867 867 867 867 867 867 867 867 867 867 870 870 870 873 876 879 882 882 882 882 882 879 879 879 879 879 879 879 876 876 876 873 873 873 876 876 876 876 873 873 873 873 873 873 873 873 873 873 873 873 873 873 873 873 873 873 876 876 876 876 876 876 879 879 879 879 879 879 879 879 879 879 882 882 885 885 888 891 891 891 894 894 897 897 897 897 897 897 900 903 909 912 918 927 939 948 963 978 993 1008 1023 1026 1029 1029 1023 1017 1008 999 990 981 975 966 957 948 939 930 924 921 918 915 912 912 909 906 906 903 900 900 900 900 900 900 897 897 894 897 900 900 903 906 906 900 897 894 891 888 888 888 888 888 888 888 888 888 888 891 891 888 888 888 888 888 891 894 897 900 903 903 903 906 909 909 909 909 906 903 900 897 897 897 900 900 900 900 900 903 906 912 921 930 936 942 948 948 951 957 969 981 999 1017 1038 1059 1080 1098 1113 1128 1155 1182 1212 1245 1278 1305 1326 1347 1356 1362 1365 1362 1356 1350 1341 1332 1323 1314 1299 1281 1263 1248 1230 1215 1203 1191 1173 1158 1140 1122 1107 1107
861 861 861 861 864 864 864 864 864 864 864 864 864 864 864 864 864 864 864 861 861 861 861 861 861 861 861 861 861 861 861 861 861 861 861 861 861 861 861 861 861 861 861 861 861 861 861 861 861 861 861 864 864 864 864 864 864 864 861 861 861 864 864 864 864 864 864 864 864 864 864 864 864 864 864 864 864 864 864 864 864 864 864 864 864 864 864 864 864 864 864 864 864 864 867 867 864 864 864 864 864 864 864 864 864 864 864 864 864 864 864 867 867 870 870 873 873 873 870 870 870 870 867 867 867 867 867 867 867 867 867 867 867 867 867 867 867 867 867 867 867 867 867 867 867 867 867 867 867 867 867 867 867 867 867 867 867 867 867 867 867 867 867 867 867 867 867 867 867 867 867 867 867 867 870 870 873 876 879 879 879 879 879 879 879 879 879 879 879 876 876 876 876 873 873 876 876 876 876 876 873 873 873 873 870 870 870 870 870 873 873 873 873 873 873 873 876 876 879 876 876 876 876 876 876 876 879 879 882 882 882 882 879 879 879 882 882 885 888 891 894 894 894 894 894 894 894 894 897 897 906 912 921 930 939 948 957 966 981 993 1005 1017 1026 1026 1026 1023 1014 1008 996 987 975 969 963 954 948 942 936 927 921 918 912 912 909 909 906 903 900 897 897 894 894 894 894 894 894 891 891 894 897 900 900 903 903 900 897 894 891 888 888 888 888 888 888 888 888 888 891 891 891 888 888 888 888 891 897 903 909 915 921 921 924 927 927 927 927 924 921 912 906 903 903 900 900 900 900 900 903 903 906 915 927 939 945 951 954 951 948 957 972 987 1002 1017 1035 1050 1065 1083 1101 1122 1152 1182 1215 1248 1281 1302 1323 1338 1347 1353 1353 1350 1344 1335 1326 1317 1305 1293 1281 1266 1254 1242 1230 1218 1203 1188 1170 1152 1134 1119 1104 1104
861 861 861 861 864 864 864 864 864 864 864 864 864 864 864 864 864 864 861 861 861 861 861 861 861 861 861 861 861 861 861 861 861 861 861 861 861 861 861 861 861 861 861 861 861 861 861 861 861 861 864 864 864 864 864 864 864 864 864 864 864 864 864 864 864 864 864 864 864 864 864 864 864 864 864 864 864 864 864 864 864 864 864 864 864 864 864 864 864 864 864 864 864 864 864 864 864 864 864 864 864 864 864 864 864 864 864 864 864 864 864 864 864 864 867 867 867 867 867 867 867 870 870 870 870 870 867 867 867 867 867 867 867 867 867 867 867 867 867 867 867 867 867 867 867 867 867 867 867 867 867 867 867 867 867 867 867 867 867 867 867 867 867 867 867 867 867 867 867 867 867 867 867 867 867 870 870 873 876 876 876 873 873 873 876 876 876 876 876 873 873 873 873 873 873 873 873 873 873 873 873 870 870 870 870 870 870 870 870 870 873 873 873 873 873 873 876 876 879 879 879 876 876 876 876 879 879 879 879 879 879 879 879 879 879 879 882 885 888 888 891 894 894 894 894 894 891 897 903 909 924 939 951 960 969 978 984 993 1002 1011 1017 1023 1029 1026 1023 1020 1011 1002 990 975 963 957 951 945 939 936 930 921 915 912 909 906 906 903 903 900 897 894 891 891 891 888 888 888 888 888 888 891 891 894 897 900 900 900 897 894 891 888 888 888 888 888 888 888 888 888 888 891 888 888 885 888 888 894 906 915 924 933 939 945 948 948 951 951 945 942 936 924 915 912 909 906 903 900 900 900 900 906 909 915 930 945 951 957 960 957 954 963 984 1008 1023 1035 1050 1059 1068 1089 1113 1137 1164 1194 1221 1251 1284 1299 1311 1320 1329 1338 1341 1338 1335 1326 1317 1308 1296 1284 1272 1257 1245 1233 1218 1206 1194 1182 1164 1143 1125 1110 1095 1095
861 861 861 864 864 864 864 864 864 864 864 864 864 864 864 864 864 864 861 861 861 861 861 861 861 861 861 861 861 861 861 861 861 861 861 861 861 861 861 861 861 861 861 861 861 861 861 861 861 861 864 861 861 861 861 861 861 864 864 864 864 864 864 864 864 864 864 864 864 864 864 864 864 864 864 864 864 864 864 864 864 864 864 864 864 864 864 864 864 864 864 864 864 864 864 864 864 864 864 864 864 867 867 870 870 870 870 867 867 867 867 864 864 864 864 864 867 867 867 867 867 867 867 867 870 870 870 870 867 867 867 867 867 867 867 867 867 867 867 867 867 867 867 867 867 867 867 867 867 867 867 867 867 867 867 867 867 867 867 867 867 867 867 867 867 867 867 867 867 867 867 867 867 867 867 870 870 870 870 870 870 870 870 870 870 873 873 873 873 873 873 870 870 873 873 870 870 870 870 870 870 870 870 870 870 870 870 870 870 870 870 873 873 873 873 873 873 876 876 879 879 879 876 876 876 879 879 879 879 879 879 879 879 882 882 882 879 882 885 888 891 894 894 894 894 894 894 903 915 927 951 975 990 999 1008 1011 1014 1020 1023 1026 1029 1029 1026 1023 1020 1014 1005 996 984 969 957 951 942 936 933 927 921 915 912 909 906 903 900 900 897 894 894 891 888 888 888 885 885 885 885 882 882 885 885 888 891 894 894 897 897 894 891 888 888 888 888 888 888 888 888 885 885 885 885 885 885 888 891 897 909 921 933 942 951 957 963 966 972 972 969 966 954 939 924 918 912 906 903 903 900 900 900 909 918 930 948 963 972 975 978 972 963 972 993 1014 1032 1053 1071 1083 1092 1107 1125 1143 1173 1203 1230 1254 1281 1293 1302 1311 1320 1326 1329 1329 1329 1320 1311 1302 1290 1278 1263 1251 1236 1224 1209 1197 1188 1179 1161 1140 1122 1101 1083 1083
861 861 864 864 864 864 864 864 864 864 864 864 864 864 864 864 864 864 864 861 861 861 861 861 861 861 861 861 861 861 861 861 861 861 861 861 861 861 861 861 861 861 861 861 861 861 861 861 861 861 861 861 861 861 861 861 861 864 864 864 864 864 864 864 864 864 864 864 864 864 864 864 864 864 864 864 864 864 864 864 864 864 864 864 864 864 864 864 867 867 867 867 867 867 864 864 864 864 864 864 864 867 870 870 873 873 873 873 870 870 867 867 867 867 867 864 864 864 864 864 864 864 867 867 867 867 870 870 870 867 867 867 867 867 867 867 870 867 867 867 867 867 867 867 867 867 867 867 867 867 867 867 867 867 867 867 867 867 867 867 867 867 867 867 867 867 867 867 867 867 867 867 867 867 867 867 870 870 870 870 870 870 870 870 870 870 870 870 870 870 870 870 870 870 870 870 870 870 870 870 870 870 870 870 870 870 870 870 870 870 870 870 873 873 873 873 873 873 873 876 876 876 876 876 879 879 879 879 879 879 879 879 879 882 882 882 882 882 882 882 885 888 891 894 897 900 906 921 942 963 984 1002 1017 1020 1023 1023 1026 1029 1032 1035 1032 1029 1026 1020 1017 1011 1002 993 981 969 957 948 936 930 924 921 915 912 909 903 900 897 894 894 891 891 888 888 885 885 885 885 882 882 882 882 882 882 882 885 888 888 891 891 894 891 888 885 885 885 885 885 885 885 885 885 885 885 885 885 885 888 891 903 915 927 939 951 963 969 978 984 990 996 990 987 978 963 948 936 924 915 912 909 906 909 909 921 933 948 969 987 996 999 1002 993 984 987 1005 1020 1044 1068 1089 1101 1116 1128 1140 1155 1182 1209 1236 1257 1278 1287 1296 1305 1311 1317 1320 1320 1320 1314 1305 1293 1281 1266 1254 1242 1227 1215 1203 1191 1182 1173 1155 1137 1116 1092 1074 1074
861 861 864 864 864 864 864 864 864 864 864 864 864 864 864 864 864 864 864 864 864 864 864 861 861 861 861 861 861 861 861 861 861 861 861 861 861 861 861 861 861 861 861 861 861 861 861 861 861 861 861 861 861 861 861 861 864 864 864 864 864 864 864 864 864 864 864 864 864 864 864 864 864 864 864 864 864 864 864 864 864 864 864 864 864 864 864 867 867 867 867 867 867 867 867 867 867 864 864 864 864 867 867 870 873 873 876 876 876 873 873 870 870 867 867 867 867 864 864 864 864 864 864 864 864 867 867 867 867 867 867 867 867 870 870 870 870 870 870 870 870 870 870 870 867 867 867 867 867 867 867 867 867 867 867 867 867 867 867 867 867 867 867 867 867 867 867 867 867 867 867 867 867 867 867 867 867 867 867 867 867 870 870 870 870 870 870 870 870 870 870 870 870 870 870 870 870 870 870 870 870 870 870 870 870 870 870 870 870 870 870 870 870 870 870 870 870 870 870 873 873 876 876 876 876 876 876 876 876 876 879 879 879 882 882 882 882 882 879 882 882 885 888 891 897 906 915 936 963 990 1005 1023 1035 1035 1035 1035 1035 1035 1035 1035 1032 1026 1020 1014 1008 1002 996 987 978 966 957 945 933 924 918 915 912 909 903 900 897 894 891 888 888 888 885 885 885 882 882 882 882 882 882 879 879 882 882 882 885 885 888 888 891 888 885 885 882 882 882 882 885 882 882 882 882 882 885 885 885 891 894 906 918 930 945 957 969 981 993 1002 1008 1014 1011 1008 999 990 981 963 942 927 924 918 918 921 921 936 951 966 990 1014 1020 1026 1026 1020 1014 1014 1023 1032 1056 1080 1104 1119 1134 1146 1158 1167 1191 1215 1236 1257 1275 1287 1293 1299 1308 1314 1317 1314 1314 1305 1296 1284 1266 1248 1236 1227 1218 1209 1200 1191 1179 1167 1149 1131 1110 1086 1068 1068
861 864 864 864 864 867 867 867 867 867 867 864 864 864 864 864 864 864 864 864 864 864 864 861 864 864 864 864 861 861 861 861 861 861 861 861 861 861 861 861 861 861 861 861 861 861 861 861 861 861 861 861 861 864 864 864 864 864 864 864 864 864 864 864 864 864 864 864 864 864 864 864 864 864 864 864 864 864 864 864 864 864 864 864 864 864 867 867 867 867 867 867 867 867 864 864 864 864 864 864 864 864 867 867 867 870 870 873 873 873 873 873 873 873 870 870 870 867 867 867 867 867 867 864 864 867 867 867 867 867 867 867 867 870 870 870 873 873 873 873 873 876 873 873 870 870 867 867 867 867 867 867 867 867 867 867 867 867 867 867 867 867 867 867 867 867 867 867 867 867 867 867 867 867 867 867 867 867 867 867 867 867 867 867 870 870 870 870 870 870 870 870 870 870 870 870 870 870 870 870 870 870 870 870 870 870 870 870 870 870 870 870 870 870 870 870 870 870 870 870 873 873 873 876 876 876 876 876 876 876 879 879 879 879 882 882 882 882 879 879 882 882 885 888 894 906 921 948 978 1005 1023 1038 1047 1047 1050 1047 1041 1038 1032 1029 1023 1020 1014 1008 999 993 984 978 969 960 954 942 930 921 915 909 906 903 900 897 894 891 888 888 888 885 885 882 882 882 879 879 879 879 879 879 879 879 879 882 882 882 885 888 891 888 885 885 882 882 882 882 882 882 882 882 882 882 882 885 885 891 897 909 924 936 951 963 978 993 1005 1017 1026 1035 1032 1029 1023 1014 1005 990 972 960 951 942 939 942 948 963 978 996 1017 1038 1044 1047 1047 1044 1038 1038 1044 1050 1071 1092 1113 1131 1152 1167 1179 1194 1212 1230 1245 1260 1275 1284 1290 1299 1305 1314 1314 1311 1308 1299 1287 1275 1257 1239 1230 1221 1215 1206 1197 1185 1170 1155 1137 1116 1098 1077 1059 1059
861 861 864 864 864 864 867 867 867 867 867 864 864 864 864 864 864 864 864 864 864 864 861 861 861 861 864 861 861 861 861 861 861 861 861 861 861 861 861 861 861 861 861 861 861 861 861 861 861 864 864 861 861 861 864 864 864 864 864 864 864 864 864 864 864 864 864 864 864 864 864 864 864 864 864 864 864 864 864 864 864 864 864 864 864 867 867 867 867 867 867 867 867 864 864 864 864 864 864 864 864 864 864 867 867 867 867 870 870 870 873 873 873 873 873 873 870 870 870 870 870 870 867 867 867 867 864 867 867 867 867 867 867 870 870 873 876 876 873 873 876 879 876 873 870 870 867 867 867 867 867 867 867 867 867 867 867 867 867 867 867 867 867 867 867 867 867 867 867 867 867 867 867 870 870 867 867 867 867 867 867 867 867 867 867 867 870 870 870 870 870 870 870 870 870 870 870 870 870 870 870 870 870 870 870 870 870 873 873 873 870 870 870 870 870 870 870 870 870 870 870 873 873 873 876 876 879 879 879 879 879 879 882 882 882 882 882 882 879 879 879 879 882 885 888 900 909 936 969 999 1017 1032 1041 1041 1041 1035 1032 1026 1023 1020 1017 1014 1008 999 990 981 972 966 960 951 945 936 927 918 912 906 903 900 894 891 888 888 888 885 885 882 882 882 879 879 879 879 879 879 879 879 879 879 879 879 882 882 885 888 894 891 888 885 885 882 882 882 882 882 882 882 882 882 882 885 885 891 897 909 924 939 954 969 984 999 1017 1029 1041 1053 1050 1050 1041 1032 1023 1008 993 981 969 957 957 960 966 987 1005 1023 1044 1065 1068 1068 1065 1065 1062 1062 1065 1068 1086 1104 1125 1146 1170 1188 1200 1215 1227 1239 1251 1260 1269 1275 1284 1290 1299 1308 1311 1308 1305 1293 1278 1266 1248 1230 1221 1215 1209 1200 1191 1179 1161 1146 1128 1110 1092 1071 1056 1056
861 861 864 864 864 864 867 867 867 867 864 864 864 864 864 864 864 864 864 864 861 861 861 861 861 861 861 861 861 861 861 861 861 861 864 861 861 861 861 861 861 861 861 861 861 861 861 861 861 864 864 861 861 861 864 864 864 864 864 864 864 864 864 864 864 864 864 864 864 864 864 864 864 864 864 864 864 864 864 864 864 864 864 864 867 867 867 867 864 864 864 864 864 864 864 864 867 867 867 864 864 864 867 867 867 870 870 870 870 870 867 867 870 870 870 870 870 870 873 870 870 870 870 870 870 867 867 867 867 867 867 867 867 867 870 870 873 873 873 873 876 876 876 873 873 870 867 867 867 867 867 867 867 867 867 867 867 867 867 867 867 867 867 867 867 867 867 867 867 867 867 867 870 870 870 870 867 867 867 867 867 867 867 867 867 867 867 867 870 870 870 870 870 870 870 870 870 870 870 870 870 870 870 870 870 873 873 873 873 873 873 870 870 870 870 870 870 870 870 870 870 870 873 873 876 876 879 879 879 879 879 876 879 879 879 879 879 879 879 879 879 879 882 882 885 894 900 921 951 978 996 1017 1026 1026 1026 1023 1017 1014 1011 1011 1011 1005 1002 990 978 969 963 954 948 942 936 927 921 915 909 903 900 894 891 888 885 885 885 882 882 882 879 879 879 879 879 879 879 879 879 879 879 879 879 879 882 882 885 891 894 891 891 888 885 882 882 882 882 882 882 882 882 882 882 885 885 891 897 909 924 939 957 972 987 1005 1023 1038 1053 1068 1068 1068 1062 1047 1032 1020 1008 996 981 966 969 975 984 1008 1029 1050 1071 1089 1089 1086 1086 1086 1086 1086 1086 1083 1101 1116 1137 1164 1188 1206 1221 1233 1239 1245 1251 1254 1257 1263 1269 1278 1287 1299 1305 1305 1302 1287 1269 1254 1236 1221 1212 1206 1197 1191 1185 1176 1161 1149 1131 1113 1095 1077 1059 1059
861 861 861 864 864 864 864 867 867 864 864 864 864 864 864 864 864 864 861 861 861 861 861 861 861 861 861 861 861 861 861 861 861 861 864 861 861 861 861 861 861 861 861 861 861 861 861 861 864 864 864 864 864 864 864 864 864 864 864 864 864 864 864 864 864 864 864 864 864 864 864 864 864 864 864 864 864 864 864 864 864 864 864 864 867 867 864 864 864 864 864 864 864 864 864 867 867 867 867 864 864 864 867 867 867 867 870 870 870 870 870 870 870 870 870 870 870 870 870 870 873 873 873 870 870 870 867 867 867 867 867 867 867 867 867 870 870 870 873 873 873 873 873 873 873 870 867 867 867 867 867 867 867 867 867 867 867 867 867 867 867 867 867 867 867 867 867 867 867 867 867 867 870 870 870 870 867 867 867 867 867 867 867 867 867 867 867 867 867 870 870 870 870 870 870 870 870 870 870 870 870 870 870 870 873 873 873 873 873 873 873 870 870 870 870 873 870 870 870 870 870 870 870 873 873 876 876 879 879 876 876 873 873 873 876 876 876 879 879 879 879 879 879 882 882 888 891 906 924 945 966 987 1002 1005 1008 1005 1002 999 1002 1005 1002 999 993 981 969 960 951 945 939 930 924 921 915 909 903 897 894 891 888 885 885 882 882 882 882 879 879 879 879 879 879 879 879 879 879 879 879 879 882 882 882 882 885 888 888 888 885 885 885 882 882 882 882 882 882 882 882 882 882 885 885 894 900 912 927 942 960 975 993 1011 1029 1047 1062 1077 1080 1083 1074 1059 1041 1032 1020 1011 1005 996 1002 1011 1020 1038 1059 1077 1092 1107 1110 1113 1113 1110 1110 1107 1104 1098 1116 1131 1152 1173 1194 1203 1212 1221 1227 1233 1236 1239 1239 1245 1251 1260 1275 1287 1293 1296 1296 1278 1257 1239 1227 1215 1206 1197 1188 1182 1176 1167 1158 1146 1128 1110 1092 1074 1059 1059
861 861 861 864 864 864 864 864 864 864 864 864 864 864 864 864 864 861 861 861 861 861 861 861 861 861 861 861 861 861 861 861 861 861 861 861 861 861 861 861 861 861 861 861 861 861 861 861 861 864 864 864 864 864 864 864 864 864 864 864 861 861 864 864 864 864 864 864 864 864 864 864 864 864 864 864 864 864 864 864 864 864 864 864 867 864 864 864 864 864 864 864 864 864 864 867 867 867 867 864 864 864 864 864 864 867 867 870 870 870 870 870 870 870 867 867 867 867 870 870 873 873 873 873 870 870 867 867 867 867 867 867 867 867 867 867 870 870 870 870 870 870 870 870 870 870 867 867 867 867 867 867 867 867 867 867 867 867 867 867 867 867 867 867 867 867 867 867 867 867 867 867 870 870 870 867 867 867 867 867 867 867 867 867 867 867 867 867 867 870 870 870 870 870 870 870 870 870 870 870 870 870 870 870 873 873 873 873 873 873 873 873 873 873 873 873 873 873 873 870 870 870 870 870 873 873 873 876 876 876 876 876 876 873 876 876 876 876 879 879 879 879 879 879 882 885 888 894 903 909 927 942 957 966 978 981 981 984 990 996 996 993 987 978 969 960 951 942 936 927 918 915 912 906 900 894 891 888 885 885 882 882 882 879 879 879 879 879 879 879 879 879 879 879 879 882 882 882 882 882 885 885 885 885 885 885 882 882 882 882 882 882 882 882 882 882 882 882 882 885 888 894 900 912 927 942 960 978 996 1014 1032 1050 1068 1083 1089 1095 1089 1074 1056 1050 1044 1038 1038 1038 1041 1050 1059 1071 1086 1098 1110 1122 1125 1128 1131 1131 1131 1128 1122 1119 1131 1143 1158 1176 1191 1200 1206 1209 1215 1221 1224 1227 1230 1233 1239 1248 1260 1275 1281 1284 1284 1263 1245 1227 1218 1209 1200 1191 1182 1179 1173 1164 1155 1143 1125 1107 1089 1074 1059 1059
861 861 861 864 864 864 864 864 864 864 864 864 864 864 864 864 864 861 861 861 861 861 861 861 861 861 861 861 861 861 861 861 861 861 861 861 861 861 861 861 861 861 861 861 861 861 861 861 861 864 864 864 864 864 864 864 864 861 861 861 864 864 864 864 864 864 864 864 864 864 864 864 864 864 864 864 864 864 864 864 864 864 864 864 864 864 864 864 864 864 867 867 867 867 867 867 867 867 867 864 864 864 864 864 864 867 867 867 867 867 867 867 867 867 867 870 870 870 870 870 873 873 873 873 870 870 870 870 870 870 870 870 870 870 870 867 867 867 870 870 870 873 873 873 873 870 867 867 867 867 867 867 867 867 867 867 867 864 867 867 867 867 867 867 867 867 867 867 867 867 867 867 867 867 867 867 867 867 867 867 867 867 867 867 867 867 867 867 867 870 870 870 870 870 870 870 870 870 870 870 870 870 870 870 873 873 873 873 873 873 873 873 870 870 870 870 870 870 870 870 870 870 870 873 873 873 876 876 879 876 876 876 876 876 876 876 876 876 879 879 879 879 879 879 879 882 885 888 888 891 900 909 921 936 951 960 966 972 978 987 987 984 984 975 966 957 948 939 930 921 915 912 909 903 897 891 888 885 885 882 882 882 879 879 879 879 882 879 879 879 879 879 879 879 879 879 882 882 882 882 885 885 885 885 882 882 882 882 882 882 882 882 882 882 882 882 882 882 885 885 888 894 900 912 924 939 957 975 993 1014 1032 1050 1071 1086 1095 1104 1101 1089 1080 1074 1071 1071 1077 1086 1089 1092 1098 1104 1110 1119 1125 1131 1134 1140 1143 1146 1149 1149 1146 1143 1146 1152 1158 1170 1185 1191 1200 1206 1212 1218 1221 1224 1227 1230 1233 1239 1251 1263 1269 1266 1263 1248 1230 1218 1209 1200 1197 1194 1191 1185 1179 1170 1158 1143 1125 1104 1086 1074 1065 1065
861 861 861 864 864 864 864 864 864 864 864 864 864 864 864 864 864 861 861 861 861 861 861 861 861 861 861 861 861 861 861 861 861 861 861 861 861 861 861 861 861 861 861 861 861 861 861 861 861 861 864 861 861 861 861 864 864 861 864 864 864 864 864 864 864 864 864 864 864 864 864 864 864 864 864 864 864 864 864 864 864 864 864 864 864 864 867 867 867 867 867 867 867 867 867 867 867 867 867 864 864 864 864 864 864 864 867 867 867 867 867 867 867 870 870 870 870 867 867 870 870 870 870 870 870 870 870 870 870 870 870 870 870 870 870 870 870 870 870 870 870 873 873 873 873 870 867 867 867 867 867 867 867 867 867 867 867 864 867 867 867 867 867 867 867 867 867 867 867 867 867 867 867 867 867 867 867 867 867 867 867 867 867 867 867 867 867 867 867 870 867 867 870 870 870 870 870 870 870 870 870 870 870 870 873 873 873 873 873 873 873 870 870 870 870 870 870 870 870 870 870 870 870 873 873 876 879 879 879 879 879 879 879 876 876 879 879 879 879 879 882 882 882 879 879 882 882 882 882 885 888 891 900 915 927 942 954 963 972 978 981 978 975 969 960 951 942 933 924 918 912 909 906 903 897 891 888 885 882 882 879 879 879 879 879 879 879 879 879 879 879 879 879 879 879 879 879 882 882 882 882 882 882 882 879 879 879 882 882 882 882 882 882 882 882 882 882 885 885 885 885 891 897 906 921 936 954 972 990 1011 1029 1047 1068 1086 1098 1110 1113 1110 1104 1104 1104 1107 1110 1113 1116 1119 1125 1131 1137 1140 1140 1143 1143 1143 1143 1149 1155 1155 1158 1158 1161 1164 1170 1179 1188 1197 1203 1209 1212 1218 1221 1224 1224 1227 1227 1230 1239 1245 1245 1239 1236 1227 1218 1212 1206 1200 1197 1194 1188 1185 1179 1167 1155 1140 1119 1098 1083 1080 1080 1080
861 861 864 864 864 864 864 864 864 864 864 864 864 864 864 864 864 864 861 861 861 861 861 861 861 861 861 861 861 861 861 861 861 861 864 861 861 861 861 861 861 861 861 861 861 861 861 861 861 864 864 864 864 864 861 861 861 864 864 864 864 864 864 864 864 864 864 864 864 864 864 864 864 864 864 864 864 864 864 864 864 864 864 864 864 867 867 867 867 867 867 867 867 867 867 867 867 867 867 864 864 864 864 864 864 864 867 867 867 867 870 870 870 870 870 867 867 867 867 867 867 867 867 867 867 867 870 870 870 870 870 870 870 870 870 870 870 870 870 870 870 870 870 870 870 870 867 867 867 867 867 867 867 867 867 867 867 867 867 867 867 867 867 867 867 867 867 867 867 867 867 867 867 867 867 867 867 867 867 867 867 867 867 867 867 867 867 867 867 867 867 867 870 870 870 870 870 870 870 870 870 870 870 873 873 873 873 873 873 873 870 870 870 870 870 870 870 870 870 870 870 870 873 873 876 876 879 879 879 879 879 879 879 879 879 879 882 882 882 882 882 882 879 879 879 879 879 882 882 885 885 888 897 906 918 930 942 954 960 966 969 966 966 960 951 945 936 927 921 915 909 906 903 900 894 891 888 885 882 882 879 879 879 882 882 882 882 882 882 882 882 882 882 882 882 879 879 879 882 882 882 882 879 879 879 879 879 879 882 882 882 885 885 885 882 882 885 885 885 885 888 891 894 906 921 936 951 969 987 1008 1026 1047 1065 1083 1098 1113 1122 1122 1125 1128 1131 1134 1134 1134 1140 1143 1146 1152 1155 1155 1152 1152 1149 1149 1149 1155 1158 1161 1167 1170 1173 1176 1182 1188 1194 1200 1206 1209 1215 1218 1221 1221 1221 1221 1221 1224 1224 1224 1221 1215 1212 1209 1206 1203 1200 1200 1194 1191 1188 1179 1173 1161 1146 1131 1110 1092 1077 1086 1092 1092
861 864 864 864 864 864 864 864 864 864 864 864 864 864 864 864 864 864 864 861 861 861 861 861 861 861 861 861 861 861 861 864 864 864 864 864 861 861 861 861 861 861 861 861 861 861 861 861 864 864 864 864 864 864 864 861 864 864 864 864 864 864 864 864 864 864 864 864 864 864 864 864 864 864 864 864 864 864 864 864 864 864 864 864 864 864 867 867 867 867 867 867 867 867 867 867 867 867 867 864 864 864 864 864 867 867 867 867 864 864 864 864 867 867 867 867 867 867 867 867 867 867 867 867 867 867 867 867 870 870 870 870 870 870 870 870 870 870 870 870 870 870 870 870 870 870 867 867 867 867 867 867 867 867 867 867 867 867 867 867 867 867 867 867 867 867 867 867 867 867 867 867 867 867 867 867 867 867 867 867 867 867 867 867 867 867 867 867 867 867 867 867 870 870 870 870 870 870 870 870 870 870 873 873 873 873 873 873 870 870 870 870 870 870 870 870 870 870 870 870 870 873 873 873 876 876 876 879 879 879 879 879 879 879 879 882 885 885 882 882 882 879 879 879 879 879 879 879 882 885 885 888 891 900 909 921 930 942 948 954 957 957 957 951 945 939 930 924 918 909 903 900 900 897 894 891 888 885 882 882 882 882 882 882 885 885 885 885 885 885 885 885 885 885 882 882 882 879 879 879 879 879 879 879 879 879 879 879 882 882 882 885 888 885 885 885 885 885 885 888 888 891 894 906 918 933 951 969 987 1005 1023 1044 1065 1083 1098 1116 1125 1134 1143 1146 1149 1152 1149 1149 1155 1161 1167 1167 1167 1164 1161 1158 1158 1158 1158 1161 1161 1167 1170 1173 1179 1185 1191 1194 1200 1203 1209 1212 1215 1218 1221 1218 1218 1218 1215 1212 1209 1206 1203 1200 1197 1194 1194 1194 1194 1194 1191 1188 1185 1176 1167 1152 1134 1113 1095 1077 1068 1086 1098 1098
861 864 864 864 864 864 864 867 864 864 864 864 864 864 864 864 864 864 861 861 861 861 861 864 861 861 861 861 861 861 861 864 864 864 861 861 861 861 861 861 861 861 861 861 861 861 861 861 861 864 864 864 864 864 864 864 864 864 864 864 864 864 864 864 864 864 864 864 864 864 864 864 864 864 864 864 864 864 864 864 864 867 864 864 864 867 867 867 867 867 867 867 867 867 867 867 867 867 867 864 864 864 864 867 867 867 867 867 867 867 867 867 867 867 867 867 867 867 867 867 867 867 867 867 867 867 867 867 867 867 870 870 870 870 870 870 870 870 870 870 870 873 870 870 870 870 867 867 867 867 867 867 867 867 867 867 867 867 867 867 867 867 867 867 867 867 867 867 867 867 870 867 867 867 867 867 867 867 867 867 867 867 867 867 867 867 867 867 867 867 867 870 870 870 870 870 870 870 870 873 873 873 873 873 873 873 873 870 870 870 870 870 870 870 870 870 870 870 870 870 873 873 873 873 873 876 876 876 876 876 879 879 879 879 882 885 885 885 882 882 879 879 879 879 879 879 879 879 882 885 885 888 891 894 897 906 915 921 930 939 942 945 948 942 936 930 921 912 909 903 900 897 897 894 894 891 891 891 888 891 891 891 891 891 891 894 897 897 900 900 897 897 897 894 891 888 885 882 882 879 879 879 879 879 882 879 879 882 882 885 888 891 894 894 891 891 888 888 888 888 888 891 894 903 918 930 948 963 981 1002 1020 1041 1062 1080 1095 1107 1116 1125 1134 1140 1146 1152 1152 1152 1155 1161 1164 1164 1164 1164 1164 1161 1161 1161 1161 1164 1164 1167 1173 1176 1182 1188 1194 1200 1203 1206 1209 1212 1215 1218 1218 1218 1215 1212 1209 1203 1200 1194 1191 1188 1182 1182 1179 1176 1176 1176 1179 1179 1179 1170 1161 1143 1119 1095 1080 1068 1065 1086 1104 1104
861 864 864 864 864 864 864 864 864 864 864 864 864 864 864 864 864 864 861 861 861 861 861 861 861 861 861 861 861 861 861 861 861 861 861 861 861 861 861 861 861 861 861 861 861 861 861 861 861 861 864 864 864 864 864 864 864 864 864 864 864 864 864 864 864 864 864 864 864 864 864 864 864 864 864 864 864 864 864 864 867 867 867 864 864 867 867 867 867 867 867 867 867 867 867 867 867 867 864 864 864 864 864 867 867 867 870 870 870 870 870 870 867 867 867 867 867 867 867 867 867 867 867 867 867 867 867 867 867 867 867 867 867 870 870 870 870 870 870 870 870 870 870 870 873 870 870 867 867 867 867 867 867 867 867 867 867 867 867 867 867 867 867 867 867 867 867 870 870 870 870 870 867 867 867 867 867 867 867 867 867 867 867 867 867 867 867 867 867 867 867 867 870 870 870 870 870 870 870 870 873 873 873 873 876 873 873 870 870 870 870 870 870 870 870 870 870 870 870 873 873 873 873 873 876 876 876 876 876 876 876 879 879 879 879 882 882 882 882 879 879 879 879 879 879 879 879 879 879 882 882 885 888 891 894 900 906 912 918 921 927 927 930 927 924 918 912 909 903 903 900 897 897 897 894 894 894 891 891 888 888 888 888 888 891 894 897 903 909 918 924 930 924 918 912 900 888 885 882 882 882 882 882 882 882 882 882 882 885 888 894 900 906 903 900 897 894 891 891 888 888 891 894 903 915 927 942 960 978 999 1017 1038 1059 1077 1089 1098 1107 1113 1119 1131 1140 1149 1152 1155 1155 1158 1161 1164 1164 1164 1164 1164 1164 1164 1164 1164 1167 1170 1173 1176 1182 1188 1194 1200 1206 1209 1209 1212 1215 1215 1215 1212 1212 1206 1203 1197 1191 1185 1182 1176 1170 1167 1161 1158 1158 1155 1158 1164 1167 1158 1149 1131 1104 1077 1068 1062 1065 1092 1113 1113
861 864 864 864 864 864 864 864 864 864 864 864 864 864 864 864 864 861 861 861 861 861 861 861 861 861 861 861 861 861 861 861 861 861 861 861 861 861 861 861 861 861 861 861 861 861 861 861 861 861 864 864 864 864 864 864 864 864 864 864 864 864 864 864 864 864 864 864 864 864 864 864 864 864 864 864 864 864 864 867 867 867 864 864 867 867 867 867 867 867 867 867 867 867 867 867 867 867 867 864 864 864 864 864 864 864 864 867 867 867 870 870 870 870 873 873 870 870 867 867 867 867 867 870 870 870 870 867 867 867 867 867 867 867 867 870 870 870 870 870 870 870 870 870 870 870 867 867 867 867 867 867 867 867 867 867 867 867 867 867 867 867 867 867 867 867 867 870 870 870 870 870 867 867 867 867 867 867 867 867 867 867 867 867 867 867 867 867 867 867 867 867 867 870 870 870 870 870 870 870 873 873 873 876 876 876 873 873 873 870 870 870 870 870 870 870 870 870 870 873 873 873 876 876 876 876 876 876 876 876 876 876 876 876 879 879 879 879 879 879 879 876 879 879 879 879 879 879 879 879 879 882 885 888 888 894 900 903 906 909 912 915 915 912 909 906 903 900 900 900 897 897 894 894 894 894 891 891 888 885 882 882 882 882 885 888 897 912 924 939 954 966 957 948 933 915 894 891 885 882 882 882 882 882 882 882 882 885 891 897 903 912 918 915 909 906 900 894 894 894 894 894 897 903 912 924 939 954 972 993 1014 1035 1053 1071 1080 1089 1095 1101 1104 1119 1131 1143 1146 1152 1155 1158 1161 1161 1164 1167 1164 1164 1164 1161 1158 1161 1164 1167 1170 1176 1182 1185 1191 1197 1200 1206 1206 1209 1212 1212 1212 1209 1209 1203 1197 1194 1185 1176 1170 1164 1158 1155 1149 1143 1140 1137 1137 1140 1140 1128 1119 1101 1077 1056 1059 1065 1077 1104 1125 1125
861 861 864 864 864 864 864 864 864 864 864 864 864 864 864 864 861 861 861 861 861 861 861 861 861 861 861 861 861 861 861 861 861 861 861 861 861 861 861 861 861 861 861 861 861 861 861 861 861 861 861 864 864 864 864 864 864 864 864 864 864 864 864 864 864 864 864 864 864 864 864 864 864 864 864 864 864 864 864 867 867 867 867 867 867 867 867 867 867 867 867 867 867 867 864 867 867 867 864 864 864 864 864 864 864 864 864 864 864 864 867 867 870 870 870 870 870 870 870 867 867 867 867 867 867 870 870 867 867 867 867 867 867 867 867 867 870 870 870 870 870 870 870 870 870 867 867 867 867 867 867 867 867 867 867 867 867 867 867 867 867 867 867 867 867 867 867 870 870 870 870 870 867 867 867 867 867 867 867 867 867 867 867 867 867 867 867 867 867 867 867 867 867 870 870 870 870 870 870 870 870 873 873 876 879 879 876 876 873 870 870 870 870 870 870 870 870 870 873 873 873 876 876 876 876 876 876 876 876 876 876 876 876 876 876 876 879 879 879 879 879 876 879 879 879 879 879 876 876 876 879 879 882 885 888 891 894 897 900 903 906 906 909 906 903 900 897 894 891 888 888 885 885 885 885 882 882 882 882 879 879 882 882 885 888 894 906 927 951 966 981 993 978 966 948 927 903 894 888 882 882 882 882 882 882 882 882 885 891 900 909 918 927 921 918 912 906 900 897 897 897 897 900 906 912 921 936 951 966 987 1005 1017 1029 1041 1050 1059 1068 1077 1089 1101 1113 1125 1131 1140 1146 1152 1158 1158 1158 1158 1158 1155 1155 1152 1152 1152 1155 1161 1167 1173 1179 1182 1188 1191 1197 1200 1203 1206 1206 1206 1206 1206 1206 1200 1197 1191 1182 1173 1167 1158 1152 1143 1137 1131 1125 1119 1116 1116 1113 1101 1089 1074 1059 1044 1053 1068 1086 1113 1134 1134
861 861 864 864 864 864 864 864 864 864 864 864 864 864 864 864 864 861 861 861 861 861 861 861 861 861 861 861 861 861 861 861 861 861 861 861 861 861 861 861 861 861 861 861 861 861 861 861 861 861 861 864 864 864 864 864 864 864 864 864 864 864 864 864 864 864 864 864 864 864 864 864 864 864 864 864 864 864 864 867 867 867 867 867 867 867 864 864 864 864 867 867 867 867 867 864 864 864 864 864 864 864 864 864 864 864 864 864 864 864 864 864 864 864 867 867 867 867 867 867 867 867 867 867 867 867 867 867 867 867 867 867 867 867 867 870 870 870 867 867 867 867 870 870 870 870 867 867 867 864 864 864 864 867 867 867 867 867 867 867 867 867 867 867 867 867 867 867 867 867 867 867 867 867 867 867 867 867 867 867 867 867 867 867 867 867 867 867 867 867 867 867 867 870 870 870 870 870 870 870 870 873 873 876 876 876 876 876 873 870 870 870 870 870 870 870 873 873 873 873 876 876 876 876 876 876 876 876 876 876 876 876 876 876 876 876 876 876 879 879 879 876 879 879 882 879 879 879 879 879 879 879 882 885 888 891 894 897 897 900 900 903 903 900 900 897 894 888 888 885 885 882 882 882 882 879 879 879 879 879 879 882 882 885 891 900 915 945 975 993 1011 1020 1005 987 966 945 921 906 894 885 885 882 882 882 882 882 882 888 894 903 912 921 930 927 924 918 912 903 900 897 897 897 900 903 909 918 933 948 963 981 999 1005 1011 1017 1023 1032 1041 1056 1068 1080 1092 1104 1116 1128 1137 1146 1152 1152 1152 1152 1149 1146 1146 1143 1143 1143 1146 1152 1161 1167 1173 1179 1182 1185 1191 1194 1197 1200 1203 1203 1203 1203 1200 1197 1194 1188 1179 1173 1164 1155 1143 1134 1125 1116 1110 1104 1098 1092 1086 1074 1062 1053 1044 1038 1053 1071 1092 1116 1140 1140
861 864 864 864 864 864 864 864 864 864 864 864 864 864 864 864 864 864 861 861 861 861 861 861 861 861 861 861 861 861 861 861 861 861 861 861 861 861 861 861 861 861 861 861 861 861 861 861 861 861 861 864 864 864 864 864 864 864 864 864 864 864 864 864 864 864 864 864 864 864 864 864 864 864 864 864 864 867 867 867 867 867 867 867 867 867 867 867 867 867 867 867 867 867 867 867 864 864 864 864 864 864 864 864 864 864 864 864 864 864 864 864 864 864 864 864 867 867 867 870 873 873 873 873 873 870 870 870 870 867 867 867 870 870 870 870 870 870 870 870 870 870 870 870 870 867 867 867 867 864 864 864 864 864 867 867 867 867 867 867 867 867 867 867 867 867 867 867 867 867 867 867 867 867 867 867 867 867 867 867 867 867 867 867 867 867 867 867 867 867 867 867 867 870 870 870 870 870 870 870 870 873 873 873 876 876 873 873 873 870 870 870 870 870 870 870 873 873 873 873 876 876 876 876 876 876 876 876 876 876 876 876 876 876 876 876 876 876 876 876 876 879 879 879 882 879 879 879 879 879 879 879 882 885 888 891 894 897 897 897 897 897 900 897 897 894 891 885 885 885 885 885 882 882 879 879 879 879 879 879 879 882 882 882 894 903 924 960 996 1017 1035 1047 1029 1011 990 966 942 924 903 888 885 882 882 882 882 885 885 888 897 906 915 924 930 930 930 924 915 909 903 900 897 894 894 900 903 912 927 942 960 975 993 999 1002 1005 1008 1011 1017 1029 1041 1056 1071 1086 1104 1119 1128 1134 1140 1140 1140 1140 1140 1140 1137 1134 1131 1134 1137 1143 1152 1161 1167 1170 1176 1179 1182 1188 1191 1197 1197 1200 1200 1197 1197 1191 1188 1182 1176 1170 1161 1149 1140 1128 1119 1107 1101 1092 1086 1080 1071 1062 1053 1047 1044 1038 1056 1077 1098 1125 1146 1146
864 864 864 864 864 864 864 864 864 864 864 864 864 864 864 864 864 864 861 861 861 861 861 861 861 861 861 861 861 861 861 861 861 861 861 861 861 861 861 861 861 861 861 861 861 861 861 861 861 861 861 864 864 864 864 864 864 864 864 864 864 864 864 864 864 864 864 864 864 864 864 864 864 864 864 864 864 864 864 867 864 864 867 867 867 867 867 867 867 867 867 867 867 867 867 864 864 864 864 864 864 864 864 864 864 864 864 864 864 864 864 864 864 864 864 864 864 864 867 867 870 870 873 873 873 873 870 870 870 870 870 870 870 870 870 870 870 873 873 873 870 870 870 870 870 867 867 867 867 864 864 864 864 864 867 867 867 867 867 867 867 867 867 867 867 867 867 867 867 867 867 867 867 867 867 867 867 867 867 867 867 867 867 867 867 867 867 867 867 867 867 870 870 870 870 870 870 870 870 870 870 873 873 873 873 873 873 870 870 870 870 870 870 870 870 873 873 873 873 873 876 876 876 876 876 876 876 876 876 876 876 876 876 876 879 879 879 879 879 879 879 876 879 879 879 879 879 879 879 879 879 879 882 885 891 894 894 894 894 894 894 897 897 894 894 891 888 885 885 888 888 885 885 882 879 879 879 879 879 879 879 882 882 885 894 906 927 963 999 1023 1044 1059 1047 1038 1020 996 972 945 915 894 888 882 882 882 882 882 885 888 894 900 909 921 927 930 930 927 918 909 903 900 894 894 891 894 897 903 915 927 942 957 969 975 978 984 984 987 996 1011 1026 1047 1068 1089 1104 1119 1125 1131 1134 1134 1134 1134 1134 1131 1128 1125 1122 1125 1128 1134 1143 1152 1158 1164 1167 1173 1176 1182 1185 1191 1191 1194 1194 1191 1191 1185 1182 1179 1173 1167 1158 1149 1140 1128 1116 1107 1098 1089 1083 1077 1068 1062 1056 1050 1044 1041 1056 1074 1092 1119 1140 1140
864 864 864 864 864 864 864 864 864 864 864 864 864 864 864 864 864 864 861 861 861 861 861 861 861 861 861 861 861 861 861 861 861 861 861 861 861 861 861 861 861 861 861 861 861 861 861 861 861 861 864 864 864 864 864 864 864 864 864 864 864 864 864 864 864 864 864 864 864 864 864 864 864 864 864 864 864 864 864 864 864 864 864 864 867 867 867 867 867 867 867 867 867 867 864 864 864 864 864 864 864 864 864 864 864 864 864 864 864 864 864 864 864 864 864 864 864 864 864 864 864 867 867 867 867 870 870 873 873 873 873 873 873 870 870 870 870 870 873 873 873 873 873 873 870 870 867 867 867 864 864 864 864 867 867 867 867 867 867 867 867 867 867 867 867 867 867 867 867 867 867 867 867 867 867 867 867 867 867 867 867 867 867 867 867 867 867 867 867 870 870 870 870 870 870 870 870 870 870 870 870 870 870 873 873 870 870 870 870 870 870 870 870 870 870 870 870 873 873 873 873 873 876 876 876 876 876 876 876 876 876 876 876 876 879 879 879 879 879 879 879 879 879 879 879 879 879 879 879 879 879 879 879 882 885 888 888 891 891 891 891 891 891 891 888 888 888 885 885 888 888 888 885 882 882 879 879 879 879 879 882 882 885 885 897 912 933 969 1005 1029 1050 1065 1059 1053 1035 1011 984 954 924 900 891 885 882 882 882 882 885 888 891 897 906 915 921 924 927 927 918 912 906 900 894 891 888 891 891 894 903 912 924 936 948 951 957 960 963 966 978 999 1020 1047 1074 1095 1107 1119 1125 1128 1131 1131 1128 1128 1125 1125 1122 1116 1116 1119 1119 1125 1134 1143 1149 1155 1161 1164 1170 1173 1179 1185 1188 1191 1191 1188 1185 1179 1176 1170 1167 1161 1155 1146 1140 1128 1119 1107 1098 1089 1083 1080 1074 1068 1062 1056 1050 1044 1053 1062 1080 1107 1128 1128
864 864 864 864 864 864 864 864 864 864 864 864 864 864 864 864 864 864 861 861 861 861 861 861 861 861 861 861 861 861 861 861 861 861 861 861 861 861 861 861 861 861 861 861 861 861 861 861 864 864 864 864 864 864 864 864 864 864 864 864 864 864 864 864 864 864 864 864 864 864 864 864 864 864 864 864 864 864 864 864 864 864 864 864 867 867 867 867 867 867 867 867 867 867 867 867 867 864 864 864 864 864 864 864 864 864 864 864 864 864 864 864 864 864 864 864 864 864 867 867 867 870 867 867 867 867 867 867 870 870 870 870 870 870 873 873 873 873 873 873 873 873 873 873 873 870 870 867 867 864 864 864 864 867 867 867 867 867 867 867 867 867 867 867 867 867 867 867 867 867 867 867 867 867 867 867 867 867 867 867 867 867 867 867 867 867 867 867 867 870 870 870 870 870 870 870 870 870 870 870 870 870 870 870 870 870 870 870 870 870 870 870 870 870 870 870 870 870 870 873 873 873 873 876 873 873 873 876 876 876 876 876 876 876 879 879 882 882 882 879 879 879 879 879 879 879 879 879 879 879 879 876 879 879 879 882 882 885 885 885 885 885 885 885 885 885 885 885 888 888 888 885 885 882 882 879 879 882 882 882 885 885 888 888 903 915 939 972 1008 1032 1053 1068 1062 1056 1038 1014 987 957 927 903 894 885 882 882 882 882 882 885 888 891 900 909 915 921 924 924 921 918 909 903 897 894 891 891 891 891 897 903 909 915 924 927 933 936 942 948 969 996 1023 1053 1083 1104 1113 1122 1125 1125 1125 1125 1122 1122 1119 1116 1113 1110 1110 1110 1113 1119 1128 1134 1140 1146 1149 1155 1161 1167 1173 1179 1182 1185 1185 1182 1179 1173 1170 1164 1161 1155 1149 1143 1137 1128 1119 1110 1101 1092 1086 1080 1074 1068 1065 1059 1053 1047 1053 1056 1068 1089 1107 1107
864 864 864 864 864 864 864 864 864 864 864 864 864 864 864 864 864 861 861 861 861 861 861 861 861 861 861 861 861 861 861 861 861 861 861 861 861 861 861 861 861 861 861 861 861 861 861 864 864 864 864 864 864 864 864 861 864 864 864 864 864 864 864 864 864 864 864 864 864 864 864 864 864 864 864 864 864 864 864 864 864 864 864 867 867 867 867 867 867 867 867 867 867 867 867 867 867 867 864 864 864 864 867 867 867 867 864 864 864 864 864 864 864 864 864 864 864 867 867 870 873 873 873 873 870 870 870 870 870 867 867 867 870 870 870 873 876 876 876 876 873 873 873 873 873 870 870 867 867 864 864 864 864 867 867 867 867 867 867 867 867 867 867 867 867 867 867 867 867 867 867 867 867 867 867 867 867 867 867 867 867 867 867 867 867 867 867 867 867 867 870 870 870 870 870 870 870 870 870 870 870 870 870 870 870 870 870 870 870 870 870 870 870 870 870 870 870 870 870 870 873 873 873 873 873 876 876 876 876 876 876 876 876 876 876 879 879 882 885 882 882 879 879 879 879 879 876 876 876 876 876 876 876 879 879 882 882 885 885 885 885 885 885 885 885 885 885 888 885 885 885 885 885 882 882 879 882 885 888 891 894 894 891 891 903 915 936 966 999 1020 1038 1053 1047 1041 1026 1002 975 951 924 903 894 885 882 882 882 882 882 882 885 885 891 897 906 912 918 918 918 918 912 906 900 897 891 891 891 891 894 900 903 909 912 915 918 924 936 948 969 996 1023 1053 1080 1101 1110 1119 1122 1122 1119 1119 1116 1113 1113 1110 1107 1104 1104 1107 1107 1113 1119 1125 1131 1137 1140 1146 1152 1161 1167 1173 1176 1179 1179 1176 1173 1170 1164 1158 1152 1149 1143 1137 1134 1125 1119 1110 1101 1095 1086 1080 1074 1068 1065 1059 1053 1050 1050 1053 1059 1074 1089 1089
864 864 864 864 864 864 864 864 864 864 864 864 864 864 864 864 864 864 861 861 861 861 861 861 861 861 861 861 861 861 861 861 861 861 861 861 861 861 861 861 861 861 861 861 861 861 864 864 864 864 864 864 864 864 864 861 864 864 864 864 864 864 864 864 864 864 864 864 864 864 864 864 864 864 864 864 864 864 864 864 864 867 867 867 867 867 867 867 867 867 867 867 867 867 867 867 867 867 867 864 867 867 867 867 867 867 867 867 867 867 867 864 864 864 864 864 867 867 870 873 879 882 882 882 879 879 876 873 873 870 870 867 867 867 870 870 870 873 876 876 876 879 876 873 873 870 867 867 867 867 867 867 867 867 867 867 867 867 867 867 867 867 867 867 867 867 867 867 867 867 867 867 867 867 867 867 867 867 867 867 867 867 867 867 867 867 867 867 867 870 870 870 870 870 870 870 870 870 870 870 870 870 870 870 870 870 870 870 870 870 870 870 870 870 870 870 870 870 870 870 870 870 873 873 873 873 873 873 873 876 876 876 876 876 876 876 879 882 882 882 882 879 879 879 879 876 876 876 876 876 876 876 876 876 879 879 882 885 885 885 885 885 882 885 885 885 885 885 885 885 885 885 885 885 885 885 888 894 897 900 906 903 900 897 906 918 936 969 999 1020 1041 1056 1050 1044 1029 1005 981 954 927 906 897 888 885 882 882 882 882 882 882 882 885 891 897 903 909 915 915 918 915 912 906 900 894 891 891 891 894 897 900 903 906 909 912 915 933 948 969 996 1023 1050 1077 1098 1107 1116 1119 1116 1116 1113 1110 1107 1104 1101 1101 1098 1098 1101 1104 1107 1113 1116 1122 1128 1131 1140 1146 1152 1158 1164 1170 1173 1173 1173 1170 1164 1158 1152 1146 1140 1137 1131 1128 1122 1116 1110 1101 1095 1089 1080 1074 1068 1062 1056 1053 1050 1050 1050 1053 1062 1068 1068
864 864 864 864 864 864 864 864 864 864 864 864 864 864 864 864 864 864 861 861 861 861 861 861 861 861 861 861 861 861 861 861 861 861 861 861 861 861 861 864 864 864 864 864 864 864 861 861 861 861 861 864 864 864 864 864 864 864 864 864 864 864 864 864 864 864 864 864 864 864 864 864 864 864 864 864 864 864 867 867 867 867 867 867 867 867 867 867 867 867 867 867 867 867 867 867 867 867 867 867 867 867 867 867 867 864 864 864 864 864 864 864 867 867 867 867 867 870 870 876 879 882 885 885 885 885 882 882 879 879 876 876 873 873 873 873 873 873 873 876 876 876 873 873 873 870 870 867 867 867 867 867 867 867 867 867 867 867 867 867 867 867 867 867 867 867 867 867 867 867 867 867 867 867 867 867 867 867 867 867 867 867 867 867 867 867 867 867 867 870 870 870 870 870 870 870 870 870 870 870 870 870 870 870 870 870 870 870 870 870 870 870 870 870 870 870 870 870 870 870 870 870 870 870 873 873 873 873 873 876 876 876 876 876 876 876 879 879 882 882 882 879 879 879 879 879 876 876 876 876 876 876 876 876 879 879 882 885 888 888 888 885 885 885 885 885 885 885 885 888 888 888 888 888 891 891 897 903 906 912 915 912 906 900 912 924 942 972 1005 1029 1053 1071 1068 1062 1044 1020 993 963 930 906 897 888 885 885 885 882 882 882 882 882 882 885 888 897 903 909 912 915 915 915 912 906 900 894 894 891 891 894 894 897 900 903 906 912 930 948 972 999 1023 1050 1074 1095 1104 1113 1113 1110 1107 1104 1104 1101 1098 1092 1092 1089 1089 1092 1098 1101 1104 1107 1113 1116 1122 1131 1137 1143 1149 1155 1161 1164 1167 1167 1167 1161 1155 1146 1140 1134 1128 1122 1119 1113 1107 1104 1098 1092 1083 1077 1068 1062 1056 1050 1047 1041 1044 1047 1053 1059 1062 1062
867 867 867 867 867 867 864 864 864 864 864 864 864 864 864 864 864 864 861 861 861 861 861 861 861 861 861 861 861 861 861 861 861 861 861 861 861 861 861 861 864 864 864 861 861 861 861 861 861 861 864 864 864 864 864 864 864 864 864 864 864 864 864 864 864 864 864 864 864 864 864 864 864 864 864 864 864 867 867 867 867 867 867 867 867 867 867 867 867 867 867 867 867 867 867 867 867 867 867 867 867 867 867 867 864 864 864 864 864 864 864 864 867 867 867 867 867 870 870 876 879 882 882 885 885 885 885 885 882 882 879 879 879 876 876 876 876 873 873 873 873 873 873 873 873 873 870 870 867 867 867 867 867 867 867 867 867 867 867 867 867 867 867 867 867 867 867 867 867 867 867 867 867 867 867 867 867 867 867 867 867 867 867 867 867 867 867 867 867 870 870 870 870 870 870 870 870 870 870 870 870 870 870 870 870 870 870 870 870 870 870 870 870 870 870 870 870 870 870 870 870 870 870 870 870 870 873 873 873 873 876 876 876 876 876 876 876 879 879 882 879 879 879 879 879 879 882 879 876 876 876 876 876 879 879 882 888 888 888 888 885 885 882 882 882 882 882 882 885 885 888 888 888 891 894 897 903 909 912 915 918 918 912 909 921 936 954 981 1008 1029 1047 1059 1053 1047 1029 1005 978 951 924 903 897 888 885 885 885 885 885 882 882 882 882 885 885 891 900 903 909 912 915 918 918 912 906 903 897 894 894 894 897 900 903 906 912 921 942 960 981 1002 1026 1047 1068 1083 1095 1104 1107 1104 1104 1101 1095 1092 1086 1080 1077 1074 1074 1080 1086 1092 1098 1101 1104 1110 1116 1122 1131 1137 1140 1146 1152 1158 1161 1161 1164 1158 1152 1146 1137 1128 1122 1113 1107 1104 1098 1095 1089 1083 1077 1068 1062 1053 1044 1041 1038 1038 1041 1047 1053 1059 1062 1062
867 867 867 867 867 867 867 864 864 864 864 864 864 864 864 864 864 864 864 861 861 861 861 861 861 861 861 861 861 861 861 861 861 861 861 861 861 861 861 861 861 861 861 861 861 861 861 861 861 861 864 864 864 864 864 864 864 864 864 864 864 864 864 864 864 864 864 864 864 864 864 864 864 864 864 867 867 867 867 867 867 867 867 867 867 867 867 867 867 867 867 867 867 867 867 867 867 867 867 867 867 867 867 867 867 867 864 864 864 864 864 864 864 864 864 864 867 867 870 870 873 876 876 879 879 879 882 882 882 882 879 879 879 879 876 876 876 876 876 876 879 879 879 876 873 873 870 867 867 867 867 867 867 867 867 867 867 867 867 867 867 867 867 867 867 867 867 867 867 867 867 867 867 867 867 867 867 867 867 867 867 867 867 867 867 867 867 867 867 870 870 870 870 870 870 870 870 870 870 870 870 870 870 870 870 870 870 870 870 870 870 870 870 870 870 870 870 870 870 870 870 870 870 870 870 870 870 873 873 873 873 876 876 876 876 876 876 879 879 879 879 879 879 879 879 879 879 879 876 876 876 876 876 879 879 882 885 888 885 885 885 882 882 882 882 882 882 882 885 888 891 891 891 894 897 900 906 912 915 918 921 921 915 915 930 945 963 984 1005 1017 1029 1035 1032 1029 1014 990 966 942 918 903 894 888 885 885 885 885 885 885 882 882 882 882 885 888 894 900 903 909 915 918 921 918 915 909 906 903 900 900 900 903 906 915 924 933 954 972 990 1011 1029 1044 1059 1074 1086 1098 1101 1104 1104 1095 1089 1083 1074 1068 1062 1059 1059 1068 1077 1083 1089 1095 1098 1101 1107 1116 1122 1128 1134 1137 1143 1149 1155 1158 1161 1158 1152 1143 1134 1125 1116 1107 1095 1092 1089 1083 1080 1077 1068 1059 1050 1041 1032 1029 1032 1032 1041 1050 1056 1062 1065 1065
864 864 864 867 867 867 867 867 867 867 864 864 864 864 864 864 864 864 864 861 861 861 864 864 864 861 861 861 861 861 861 861 861 861 861 861 861 861 861 861 861 861 861 861 861 861 861 861 861 864 864 864 864 864 864 864 864 864 864 864 864 864 864 864 864 864 864 864 864 864 864 864 864 864 867 867 867 867 867 867 867 867 867 867 864 864 864 867 867 867 867 867 867 867 867 867 867 867 867 867 867 867 867 867 864 864 864 864 864 864 864 864 867 867 867 867 867 867 870 876 879 882 882 882 882 879 879 879 876 876 876 876 876 876 873 873 873 873 873 876 879 882 882 882 882 879 876 873 870 870 867 867 867 867 867 867 867 867 867 867 867 867 867 867 867 867 867 867 867 867 867 867 867 867 867 867 867 867 867 867 867 867 867 867 867 867 867 867 867 870 870 870 870 870 870 870 870 870 870 870 870 870 870 870 870 870 870 870 870 870 870 870 870 870 870 870 870 870 870 870 870 870 870 870 870 870 870 870 873 873 873 873 876 876 876 876 876 876 876 876 876 876 876 876 876 876 876 876 876 876 876 876 879 879 882 882 882 885 882 882 882 882 882 882 882 882 882 882 885 891 894 894 894 897 900 903 909 915 918 921 924 924 921 918 936 957 972 981 993 999 1002 1005 1005 1005 993 975 957 936 915 900 894 888 888 885 882 882 882 882 882 882 882 882 882 885 891 894 900 906 912 918 921 921 921 918 915 912 909 909 909 912 915 924 933 948 966 981 999 1017 1035 1047 1062 1074 1089 1101 1107 1107 1107 1101 1092 1083 1074 1062 1059 1056 1053 1059 1065 1074 1080 1086 1092 1095 1101 1107 1116 1119 1125 1128 1134 1140 1146 1152 1155 1152 1149 1143 1134 1125 1113 1104 1092 1086 1083 1077 1074 1068 1062 1053 1047 1038 1029 1029 1032 1038 1044 1053 1059 1065 1068 1068
864 864 864 867 867 867 867 867 867 867 864 864 864 864 864 864 864 864 861 861 861 861 861 864 861 861 861 861 861 861 861 861 861 861 861 861 861 861 861 861 861 861 861 861 861 861 861 861 864 864 864 864 864 864 864 864 864 864 864 864 864 864 864 864 864 864 864 864 864 864 864 864 864 864 867 867 867 867 867 867 867 867 867 864 864 867 867 867 867 867 867 867 867 867 867 867 867 867 864 864 864 867 867 864 864 864 864 864 864 864 864 867 867 867 867 867 867 870 870 876 882 882 885 885 885 882 879 879 876 876 876 873 873 873 873 870 870 870 873 873 876 879 882 885 885 882 879 879 876 873 870 870 867 867 867 867 867 867 867 867 867 867 867 867 867 867 867 867 867 867 867 867 867 867 867 867 867 867 867 867 867 867 867 867 867 867 867 867 867 870 870 870 870 870 870 870 870 870 870 870 870 870 870 870 870 870 870 870 870 870 870 870 870 870 870 870 870 870 870 870 870 870 870 870 870 870 870 870 873 873 873 873 876 876 876 876 876 876 876 876 876 876 876 876 876 876 876 876 876 876 876 879 879 882 882 882 882 882 882 882 882 882 879 882 882 882 882 882 885 888 894 894 897 900 903 906 909 915 918 924 927 924 924 921 936 951 966 978 993 999 1005 1011 1014 1020 1011 996 981 957 930 912 903 894 891 888 885 885 885 882 882 882 882 882 882 885 888 891 897 903 909 915 918 921 924 924 924 924 921 921 921 924 927 936 948 960 975 990 1005 1020 1035 1050 1065 1080 1092 1107 1113 1113 1113 1107 1101 1092 1080 1068 1062 1056 1053 1056 1059 1062 1071 1077 1083 1086 1095 1101 1107 1113 1116 1122 1128 1131 1137 1143 1149 1146 1146 1140 1131 1122 1113 1101 1092 1086 1080 1074 1068 1065 1056 1050 1041 1035 1026 1029 1035 1041 1050 1056 1065 1068 1074 1074
864 864 864 867 867 867 867 867 864 864 864 864 864 864 864 864 864 864 861 861 861 861 861 861 861 861 861 861 861 861 861 861 861 861 861 861 861 861 864 864 864 864 864 864 864 864 864 864 864 864 864 864 864 864 864 864 864 864 864 864 864 864 864 864 864 864 864 864 864 864 864 864 864 864 864 864 864 867 867 867 867 867 867 864 867 867 867 867 864 864 864 867 867 867 867 867 867 867 864 864 864 867 867 867 864 864 864 864 864 864 864 864 864 864 864 867 867 867 870 873 876 879 879 882 885 885 885 885 882 879 879 876 876 873 873 873 873 870 870 870 873 873 876 876 876 879 879 876 876 873 873 870 867 867 867 867 867 867 867 867 867 867 867 867 867 867 867 867 867 867 867 867 867 867 867 867 867 867 867 867 867 867 867 867 867 867 867 867 867 870 870 870 870 870 870 870 870 870 870 870 870 870 870 870 870 870 870 870 870 870 870 870 870 870 870 870 870 870 870 870 870 870 870 870 873 873 873 873 873 873 873 873 873 873 876 876 876 876 876 876 876 876 876 876 876 876 879 876 876 876 879 879 882 882 882 882 882 882 882 882 882 882 882 882 882 882 882 882 888 891 894 897 900 903 906 912 918 921 927 930 933 933 930 927 939 948 963 981 999 1008 1014 1020 1029 1035 1029 1017 1005 981 954 933 918 903 897 891 888 888 885 885 882 882 882 882 882 885 885 888 894 900 903 909 915 918 924 927 927 930 930 933 933 936 939 948 960 969 981 993 1008 1023 1038 1053 1071 1086 1101 1113 1119 1119 1119 1113 1110 1101 1089 1077 1071 1062 1056 1053 1053 1056 1062 1068 1071 1077 1083 1092 1098 1104 1110 1116 1119 1125 1131 1134 1140 1140 1140 1137 1128 1122 1113 1104 1092 1086 1077 1071 1068 1062 1056 1047 1041 1032 1026 1029 1035 1044 1053 1059 1065 1071 1074 1074
864 864 864 864 867 867 867 864 864 864 864 864 864 864 864 864 864 864 861 861 864 864 864 864 864 864 864 864 864 861 861 861 861 861 861 861 861 864 864 867 867 867 864 864 864 861 864 864 864 864 864 864 864 864 864 864 864 864 864 864 864 864 864 864 864 864 864 864 864 864 864 864 864 864 864 864 867 867 867 867 867 867 867 867 867 867 867 867 864 864 864 867 867 867 867 867 867 867 867 867 867 867 867 867 864 864 864 864 867 867 867 867 867 867 870 870 870 870 870 870 870 870 873 873 876 876 879 879 876 876 876 876 873 873 873 873 873 876 876 876 876 879 879 879 879 876 876 876 876 873 873 870 870 867 867 867 867 867 867 867 867 867 867 867 867 867 867 867 867 867 867 867 867 867 867 867 867 867 867 867 867 867 867 867 867 867 867 867 867 867 870 870 870 870 870 870 870 870 870 870 870 870 870 870 870 870 870 870 870 870 870 870 870 870 870 870 870 870 870 870 870 870 870 873 873 873 873 873 873 873 873 873 873 873 873 876 876 876 876 876 876 876 876 876 876 879 879 879 879 876 879 879 882 882 882 882 882 882 882 882 882 882 882 882 882 882 885 885 888 894 900 900 903 906 915 921 927 933 936 942 945 942 939 936 942 945 960 984 1011 1020 1029 1035 1044 1053 1050 1041 1032 1011 990 969 942 918 906 900 894 891 888 885 885 882 882 882 882 882 885 885 891 894 900 903 909 912 918 921 927 930 933 936 939 945 948 954 960 969 981 996 1011 1029 1044 1065 1083 1098 1110 1125 1125 1125 1122 1122 1119 1113 1101 1092 1083 1074 1065 1059 1053 1053 1056 1059 1065 1068 1074 1080 1086 1092 1098 1104 1110 1119 1125 1128 1134 1134 1137 1134 1128 1122 1113 1101 1092 1083 1077 1071 1065 1062 1053 1047 1038 1032 1029 1029 1038 1047 1053 1062 1068 1071 1077 1077
864 864 864 864 867 867 867 867 864 864 864 864 864 864 864 864 864 864 864 864 864 864 864 864 864 864 864 864 864 861 861 861 861 861 861 861 861 861 864 864 864 864 864 864 861 861 864 864 864 864 864 864 864 864 864 864 864 864 864 864 864 864 864 864 864 864 864 864 864 864 864 864 864 864 864 864 867 867 867 867 867 867 867 867 867 867 867 867 867 867 867 867 867 867 867 867 867 867 867 867 867 867 864 864 864 864 864 864 867 867 867 867 867 870 870 870 870 870 870 867 867 867 867 867 867 870 870 870 870 873 873 873 873 873 873 873 876 876 879 879 882 882 882 882 882 879 876 876 876 873 873 870 870 867 867 864 867 867 867 867 867 867 867 867 867 867 867 867 867 867 867 867 867 867 867 867 867 867 867 867 867 867 867 867 867 867 867 867 867 867 870 870 870 870 870 870 870 870 870 870 870 870 870 870 870 870 870 870 870 870 870 870 870 870 870 870 870 870 870 870 870 870 873 873 873 876 876 873 873 873 873 873 873 873 873 876 876 876 873 873 876 876 876 876 876 876 876 879 879 882 882 882 882 879 879 879 879 882 882 882 882 882 882 882 882 882 885 885 891 897 903 909 918 924 933 942 945 948 951 954 957 954 951 945 948 948 963 990 1017 1029 1035 1044 1053 1065 1065 1062 1056 1038 1020 996 969 939 924 912 900 897 891 888 885 882 882 882 882 882 882 885 888 891 894 897 903 906 912 918 924 930 933 936 942 945 951 957 963 972 987 999 1017 1035 1053 1071 1092 1107 1119 1128 1128 1125 1122 1122 1122 1119 1113 1104 1095 1083 1074 1065 1059 1056 1056 1056 1059 1062 1065 1071 1074 1080 1086 1095 1101 1110 1116 1122 1128 1131 1131 1131 1125 1122 1113 1101 1092 1083 1074 1068 1065 1062 1053 1047 1041 1035 1032 1032 1041 1050 1056 1062 1068 1074 1077 1077
864 864 864 864 867 867 867 867 867 864 864 864 864 864 864 864 864 864 864 864 864 864 864 864 864 864 864 864 861 861 861 861 861 861 861 861 861 861 864 864 864 864 864 864 861 861 864 864 864 864 864 864 864 864 864 864 864 864 864 864 864 864 864 864 864 864 864 864 864 864 864 864 864 864 864 864 864 864 867 867 864 864 864 864 864 867 867 867 867 867 867 867 867 867 867 867 867 867 867 867 867 867 864 864 864 864 864 864 864 864 864 864 864 867 867 867 867 867 870 867 867 867 867 867 867 867 867 867 867 867 867 870 870 870 870 870 870 870 873 873 876 879 879 882 885 882 882 879 876 873 873 873 870 867 867 867 867 864 867 867 867 867 867 867 867 867 867 867 867 867 867 867 867 867 867 867 867 867 867 867 867 867 867 867 867 867 867 867 867 867 870 870 870 870 870 870 870 870 870 870 870 870 870 870 870 870 870 870 870 870 870 870 870 870 870 870 870 870 870 870 870 873 873 876 876 876 876 876 873 876 876 876 873 873 873 876 876 876 876 876 876 876 876 876 876 876 876 879 879 882 882 882 882 879 879 879 882 882 882 882 885 885 885 885 885 885 888 891 897 903 909 924 936 945 951 960 960 960 963 966 969 966 963 957 960 960 972 996 1023 1032 1041 1047 1056 1068 1071 1071 1071 1056 1038 1017 987 957 939 921 909 900 894 888 885 882 882 882 882 882 882 885 885 888 891 894 897 900 906 912 918 924 930 933 939 948 954 960 966 975 990 1005 1020 1038 1056 1077 1098 1113 1119 1128 1125 1122 1122 1122 1125 1122 1119 1113 1104 1092 1083 1074 1065 1059 1056 1053 1053 1056 1059 1062 1068 1071 1077 1083 1092 1098 1107 1116 1122 1125 1125 1125 1122 1122 1113 1104 1092 1083 1074 1065 1065 1062 1056 1050 1044 1041 1035 1038 1044 1050 1056 1062 1068 1074 1077 1077
864 864 864 864 864 864 864 864 864 864 864 864 864 864 864 864 864 864 864 864 864 864 864 864 864 864 864 861 861 861 861 861 861 861 861 861 861 861 861 861 861 864 864 864 864 864 864 864 864 864 864 864 864 864 864 864 864 864 864 864 864 864 864 864 864 864 864 864 864 864 864 864 864 864 864 864 864 864 864 864 864 864 864 864 864 864 867 867 867 867 867 867 867 867 867 867 867 870 870 867 867 867 864 864 864 864 864 864 864 864 864 864 864 864 864 864 867 867 867 867 867 867 867 867 867 867 867 867 867 867 867 867 867 867 867 867 867 867 867 870 870 873 873 876 876 876 879 876 876 873 873 870 870 867 867 867 867 864 867 867 867 867 867 867 867 867 867 867 867 867 867 867 867 867 867 867 867 867 867 867 867 867 867 867 867 867 867 867 867 867 870 870 870 870 870 870 870 870 870 870 870 870 870 870 870 870 870 870 870 870 870 870 870 870 870 870 870 870 870 870 870 873 876 876 876 876 876 876 876 876 876 876 873 873 873 876 876 876 876 876 876 876 876 876 876 876 876 879 882 882 882 882 882 879 879 882 885 885 885 885 885 888 888 888 888 888 891 894 903 912 921 939 954 966 972 978 978 975 975 975 975 975 975 975 978 978 990 1008 1026 1032 1041 1047 1053 1059 1065 1068 1071 1059 1047 1029 999 969 948 930 912 903 894 891 885 882 882 882 882 885 885 885 888 888 891 891 894 897 900 903 909 915 924 933 939 948 957 963 969 975 987 999 1017 1035 1056 1074 1095 1107 1110 1113 1113 1113 1113 1119 1122 1122 1119 1116 1107 1098 1086 1077 1068 1062 1059 1053 1053 1053 1053 1056 1059 1065 1068 1074 1080 1089 1098 1104 1113 1116 1116 1116 1116 1116 1110 1104 1095 1086 1077 1068 1065 1059 1056 1050 1044 1041 1038 1041 1047 1053 1056 1062 1068 1071 1077 1077
864 864 864 864 864 864 867 867 867 867 864 864 864 864 864 864 864 864 864 864 864 864 864 864 864 864 864 861 861 861 861 861 861 861 861 861 861 861 861 861 861 864 864 864 864 864 864 864 864 864 864 864 864 864 864 864 864 864 864 864 864 864 864 864 864 864 864 864 864 864 864 864 864 864 864 864 864 864 864 864 864 864 864 864 864 864 864 867 867 867 867 867 867 867 867 867 870 870 870 867 867 864 864 864 864 864 864 864 864 864 864 864 864 864 864 864 864 864 867 867 867 867 870 870 870 870 870 867 867 867 867 867 867 867 867 867 867 867 867 867 867 867 867 867 870 870 873 873 873 873 873 870 870 870 867 867 867 867 867 867 867 867 867 867 867 867 867 867 867 867 867 867 867 867 867 867 867 867 867 867 867 867 867 867 867 867 867 867 867 867 870 870 870 870 870 870 870 870 870 870 870 870 870 870 870 870 870 870 870 870 870 870 870 870 870 870 870 870 870 870 873 873 876 876 876 876 873 873 873 873 873 873 873 873 873 876 876 876 876 876 876 876 876 876 876 879 879 882 885 885 885 882 882 882 882 885 888 891 891 891 891 891 894 894 894 894 900 906 912 924 933 948 960 972 981 987 987 987 987 987 990 990 987 987 987 987 990 1002 1011 1023 1032 1041 1047 1050 1053 1053 1053 1050 1047 1035 1005 978 957 936 918 909 897 891 888 885 885 885 885 885 885 885 885 888 888 891 891 894 897 900 903 909 915 924 933 942 951 960 969 978 987 996 1011 1029 1047 1065 1083 1095 1098 1098 1101 1104 1107 1113 1122 1122 1119 1116 1107 1098 1089 1080 1071 1065 1062 1056 1053 1053 1050 1053 1053 1056 1062 1065 1074 1080 1089 1095 1104 1107 1110 1110 1110 1110 1107 1101 1098 1089 1080 1071 1065 1059 1053 1047 1044 1041 1041 1044 1047 1053 1059 1062 1068 1074 1080 1080
864 864 864 867 867 867 867 867 867 867 867 867 867 864 864 864 864 864 864 864 864 864 864 864 864 864 864 864 861 861 861 861 861 861 861 861 861 861 861 861 861 861 864 864 864 864 864 864 864 864 864 864 864 864 864 864 864 864 864 864 864 864 864 864 864 864 864 864 864 864 864 864 864 864 864 864 864 864 864 864 864 864 864 864 864 864 867 867 867 867 867 864 867 867 867 870 870 870 867 867 864 864 864 864 864 864 864 864 864 864 864 864 864 864 864 864 864 867 867 870 873 873 876 876 876 873 873 873 870 870 870 867 867 867 867 867 867 867 867 867 867 867 867 867 867 867 870 870 870 870 870 870 870 870 867 867 867 867 867 867 867 867 867 867 867 867 867 867 867 867 867 867 867 867 867 867 867 867 867 867 867 867 867 867 867 867 867 867 870 870 870 870 870 870 870 870 870 870 870 870 870 870 870 870 870 870 870 870 870 870 870 870 870 870 870 870 870 870 870 870 873 873 873 876 876 876 873 873 873 873 873 873 873 873 873 876 876 876 879 876 876 876 876 876 876 879 882 885 888 891 888 885 885 882 882 885 888 891 891 891 894 894 894 897 897 903 909 915 924 936 945 957 969 978 987 996 999 999 999 1002 1002 1002 999 999 996 993 993 996 999 1008 1020 1032 1035 1041 1041 1038 1038 1041 1041 1032 1008 984 963 942 921 912 900 894 888 885 885 885 885 885 885 885 885 885 888 888 891 894 897 900 903 906 912 918 927 936 945 957 969 978 984 990 1002 1017 1035 1053 1071 1080 1083 1086 1089 1095 1101 1110 1119 1122 1116 1110 1104 1098 1092 1083 1077 1071 1065 1059 1056 1053 1053 1050 1050 1053 1056 1059 1065 1071 1080 1089 1098 1098 1101 1104 1104 1104 1101 1098 1095 1086 1080 1074 1065 1056 1050 1044 1041 1041 1038 1044 1050 1056 1059 1065 1071 1080 1083 1083
864 864 867 867 867 867 867 867 867 867 867 867 867 867 864 864 864 864 864 864 864 864 864 864 864 864 864 864 864 864 861 861 861 861 861 861 861 861 861 861 864 864 864 864 864 864 864 864 864 864 864 864 864 864 864 864 864 864 864 864 864 864 864 864 864 864 864 864 864 864 864 864 864 864 864 864 864 864 864 864 864 864 864 864 864 864 867 867 867 867 867 864 867 867 867 867 870 870 867 864 864 864 864 864 864 864 864 864 864 864 864 864 864 864 864 864 864 864 867 870 873 876 879 882 879 879 879 876 876 873 873 873 870 870 870 867 867 867 867 867 867 867 867 867 867 867 867 870 870 870 870 873 870 870 867 867 867 867 867 867 867 867 867 867 867 867 867 867 867 867 867 867 867 867 867 867 867 867 867 867 867 867 867 867 867 867 867 867 870 870 870 870 870 870 870 870 870 870 870 870 870 870 870 870 870 870 870 870 870 870 870 870 870 870 870 870 870 870 870 870 873 873 873 873 873 873 873 873 873 873 873 873 873 873 873 876 876 876 879 876 876 876 876 876 879 885 891 894 894 897 891 888 885 885 882 885 885 885 888 891 891 891 894 897 900 906 915 924 936 948 957 966 978 987 996 1005 1008 1011 1011 1014 1017 1014 1014 1011 1005 999 993 990 987 996 1005 1017 1023 1029 1029 1029 1026 1026 1026 1020 999 981 963 945 927 915 903 894 891 885 885 885 885 885 885 885 885 885 888 888 894 897 903 906 915 918 924 927 933 936 939 954 966 978 984 990 999 1008 1020 1035 1050 1062 1068 1071 1080 1089 1098 1107 1119 1119 1113 1104 1098 1092 1086 1080 1074 1071 1068 1065 1062 1059 1053 1050 1047 1050 1050 1053 1059 1065 1071 1080 1086 1089 1092 1095 1095 1098 1095 1092 1089 1083 1074 1068 1062 1056 1050 1044 1038 1038 1038 1041 1047 1053 1062 1068 1077 1086 1095 1095
867 867 867 867 867 867 867 867 867 867 867 867 867 867 867 864 864 864 864 864 864 864 864 864 864 864 864 864 864 864 861 861 861 861 861 861 861 861 861 861 861 864 864 864 864 864 864 864 864 864 864 864 864 864 864 864 864 864 864 864 864 864 864 864 864 864 864 864 864 864 864 864 864 864 864 864 864 864 864 864 864 867 864 864 864 864 864 867 867 867 867 867 867 867 867 867 867 867 867 864 864 864 867 864 864 864 864 864 864 864 864 864 864 864 864 864 864 864 867 870 873 876 879 882 882 882 882 879 879 879 876 876 873 873 870 870 867 867 867 867 867 867 867 867 867 867 867 867 870 870 873 873 873 870 870 867 867 867 867 867 867 867 867 867 867 867 867 867 867 867 867 867 867 867 867 870 870 867 867 867 867 867 867 867 867 867 867 867 870 870 870 870 870 870 870 870 870 870 870 870 870 870 870 870 870 870 870 870 870 870 870 870 867 870 870 870 870 870 870 870 870 870 873 873 873 873 873 873 873 873 873 873 873 873 873 873 873 876 876 876 876 876 876 879 885 897 909 909 909 909 903 897 894 891 888 885 885 885 888 891 894 900 903 906 909 918 924 933 945 954 966 975 987 996 1002 1011 1014 1020 1023 1023 1026 1026 1023 1017 1011 1005 996 987 978 981 987 993 1002 1008 1011 1011 1008 1008 1008 1002 987 975 960 945 933 918 906 897 891 885 885 885 885 885 885 885 885 885 888 891 900 909 921 933 948 957 963 966 966 966 963 969 975 981 984 987 993 1002 1011 1023 1035 1047 1056 1065 1074 1086 1095 1104 1116 1116 1110 1104 1095 1086 1080 1074 1071 1068 1065 1065 1062 1059 1056 1053 1047 1047 1044 1047 1050 1056 1062 1071 1077 1080 1086 1089 1089 1092 1089 1086 1083 1077 1071 1065 1059 1053 1047 1041 1038 1035 1035 1038 1047 1053 1062 1071 1080 1092 1101 1101
867 867 867 867 867 867 867 867 867 867 867 867 867 867 867 867 867 867 867 867 867 864 864 864 864 864 864 864 864 864 861 861 861 861 861 861 861 861 861 861 861 861 861 861 861 861 861 861 864 864 864 864 864 864 864 864 864 864 864 864 864 864 864 864 864 864 864 864 864 864 864 864 864 864 864 864 864 864 864 864 864 864 864 864 864 864 864 864 864 867 867 867 867 867 867 867 867 864 864 864 864 864 864 864 864 864 864 864 864 864 864 864 864 864 864 864 864 864 864 867 867 870 870 870 873 873 873 873 873 873 873 873 873 873 873 870 867 867 867 867 867 867 867 867 867 867 867 870 870 873 873 873 873 870 870 867 867 867 867 867 867 867 867 867 867 867 867 867 867 867 867 867 867 867 870 870 870 870 867 867 867 867 867 867 867 867 867 870 870 870 870 870 870 870 870 870 870 870 870 870 870 870 870 870 870 870 870 870 870 867 867 867 867 870 870 870 870 870 870 870 870 870 870 873 873 873 873 873 873 873 873 873 873 873 873 873 873 873 873 876 876 876 879 882 891 903 918 921 921 918 912 903 900 894 891 888 888 888 888 891 894 900 906 912 915 924 933 942 954 966 978 987 999 1008 1014 1020 1023 1026 1029 1032 1032 1029 1029 1023 1014 1005 996 981 969 969 972 975 984 990 990 990 987 987 984 981 972 966 957 945 936 921 909 900 894 885 885 885 885 885 882 885 885 885 891 897 906 927 945 966 987 1005 1008 1011 1011 1008 1002 996 990 987 984 984 990 999 1008 1017 1026 1038 1050 1062 1074 1086 1095 1104 1110 1110 1107 1104 1095 1083 1074 1068 1059 1059 1059 1062 1062 1062 1059 1053 1044 1044 1041 1041 1044 1047 1053 1059 1068 1074 1077 1083 1086 1089 1086 1083 1077 1074 1068 1062 1059 1056 1050 1041 1035 1035 1032 1035 1041 1050 1059 1071 1083 1095 1104 1104
867 867 867 867 867 867 867 867 867 867 867 867 867 867 867 867 867 867 870 870 870 870 870 867 867 867 864 864 864 864 864 861 861 861 861 861 861 861 861 861 861 861 861 861 861 861 861 861 864 864 864 864 864 864 864 864 864 864 864 864 864 864 864 864 864 864 864 864 864 864 864 864 864 864 864 864 864 864 864 864 867 867 867 867 867 867 864 864 864 864 867 867 867 867 867 864 864 864 864 864 864 864 864 864 864 864 864 864 864 864 864 864 864 864 864 864 864 864 864 864 867 867 867 867 867 867 867 870 870 870 870 870 870 870 870 870 867 867 867 867 867 867 867 867 867 867 867 870 870 873 873 873 873 870 870 867 867 867 867 867 867 867 867 867 867 867 867 867 867 867 867 867 867 867 870 870 870 870 870 870 867 867 867 867 867 870 870 870 870 870 870 870 870 870 870 870 870 870 870 870 870 870 870 870 870 870 870 870 870 867 867 867 867 867 870 870 870 870 870 870 870 870 870 870 870 873 873 873 873 873 873 873 873 873 873 873 873 873 873 876 876 876 882 885 894 906 921 924 927 927 918 912 906 900 894 894 891 888 891 891 894 897 903 909 915 924 936 948 960 975 990 1002 1014 1020 1026 1032 1032 1035 1035 1032 1032 1032 1029 1026 1014 1005 990 978 963 963 963 966 969 972 969 966 960 960 960 957 957 954 948 939 930 918 906 897 891 885 885 885 885 885 885 885 885 885 894 903 918 945 969 993 1014 1032 1035 1041 1041 1038 1032 1023 1011 1005 1002 999 1011 1026 1044 1053 1062 1068 1077 1083 1089 1092 1095 1101 1107 1110 1107 1104 1095 1083 1074 1068 1059 1059 1065 1065 1065 1065 1062 1056 1050 1047 1041 1041 1041 1041 1047 1053 1059 1065 1071 1074 1077 1080 1080 1074 1071 1068 1065 1062 1056 1053 1047 1041 1035 1032 1029 1032 1038 1044 1056 1068 1080 1089 1101 1101
867 867 867 867 867 867 867 867 867 867 867 867 867 867 867 867 870 873 876 879 882 882 879 879 873 870 867 864 864 864 864 861 861 861 861 861 861 861 861 861 861 861 861 861 861 861 861 861 864 864 864 864 864 864 864 864 864 864 864 864 864 864 864 864 864 864 864 864 864 864 864 864 864 864 864 864 864 864 867 867 867 867 867 867 867 867 867 867 867 867 867 867 867 864 864 864 864 864 864 864 864 864 864 864 864 864 864 864 864 864 864 864 864 864 864 864 864 864 864 864 864 864 864 864 867 867 867 867 867 867 867 867 867 867 867 867 867 867 867 867 867 867 867 867 867 867 870 870 870 870 873 873 873 870 870 867 867 867 867 867 867 867 867 867 867 867 867 867 867 867 867 867 867 867 870 870 870 870 870 870 870 870 870 867 867 870 870 870 870 870 870 870 870 870 870 870 870 870 870 870 870 870 870 870 870 870 870 870 870 867 867 867 870 870 870 870 870 870 870 870 870 870 870 870 873 873 873 873 873 870 870 870 870 873 873 873 873 873 876 879 885 891 894 900 906 915 924 930 930 933 924 915 912 906 903 900 900 897 897 894 897 900 903 912 918 930 939 951 966 984 999 1011 1023 1029 1035 1038 1035 1032 1032 1029 1026 1023 1020 1014 1005 993 981 969 954 954 954 954 957 960 957 951 945 945 942 942 942 942 936 930 924 912 903 894 891 885 885 885 885 885 885 885 885 885 894 903 918 945 972 996 1023 1044 1053 1062 1065 1062 1059 1047 1035 1026 1020 1017 1029 1047 1065 1077 1089 1095 1101 1107 1104 1101 1101 1104 1107 1107 1107 1104 1098 1089 1080 1074 1068 1068 1071 1074 1074 1074 1068 1062 1056 1050 1044 1041 1041 1041 1041 1044 1050 1056 1062 1065 1068 1071 1071 1068 1065 1062 1062 1059 1056 1050 1044 1035 1029 1029 1026 1029 1035 1041 1053 1065 1077 1086 1095 1095
867 867 867 867 867 867 867 867 867 867 867 867 867 867 867 867 870 873 879 882 885 888 888 885 882 873 867 867 864 864 864 864 864 861 861 861 861 861 861 861 861 861 861 861 861 861 861 864 864 864 864 864 864 864 864 864 864 864 864 864 864 864 864 864 864 864 864 864 864 864 864 864 864 864 864 864 864 864 867 867 867 867 867 867 867 867 867 867 867 867 867 867 864 864 864 864 867 867 867 867 864 864 864 864 864 864 864 864 864 864 864 864 864 864 864 867 867 867 867 867 864 864 864 864 864 864 864 864 864 867 867 867 867 867 867 867 867 867 867 867 867 867 867 867 867 867 870 870 873 876 876 876 876 873 870 867 867 867 867 867 867 867 867 867 867 867 867 867 867 867 867 867 867 867 867 870 870 870 870 870 870 870 870 870 870 870 870 870 870 870 870 870 870 870 870 870 870 870 870 870 870 870 870 870 870 870 870 870 870 867 867 867 870 870 870 870 870 870 870 870 870 870 870 873 873 873 873 873 873 870 870 870 870 873 873 873 876 879 882 888 897 903 906 909 915 921 927 930 933 936 930 921 918 915 912 912 909 909 906 900 903 903 906 915 927 936 951 963 978 993 1008 1020 1029 1035 1038 1041 1035 1029 1023 1017 1014 1008 1005 1002 993 984 972 960 948 945 945 948 951 951 948 942 936 933 927 927 927 927 924 918 915 906 897 891 888 885 885 885 885 885 885 885 885 885 894 900 915 939 963 990 1020 1044 1062 1077 1083 1083 1080 1071 1059 1047 1041 1035 1044 1059 1077 1092 1107 1119 1125 1131 1125 1119 1113 1107 1104 1104 1104 1107 1101 1095 1089 1086 1083 1083 1086 1086 1083 1080 1077 1071 1065 1056 1047 1041 1041 1038 1041 1041 1041 1047 1050 1053 1056 1062 1062 1062 1062 1059 1059 1056 1053 1047 1041 1032 1026 1023 1023 1026 1032 1041 1050 1062 1071 1083 1092 1092
867 867 867 867 867 867 867 867 867 867 870 867 867 867 867 867 867 870 870 873 873 876 882 885 882 876 870 867 864 864 864 864 864 861 861 861 861 861 861 861 864 864 864 864 864 864 864 864 864 864 864 864 864 864 864 864 864 864 864 864 864 864 864 864 864 864 864 864 864 864 864 864 864 864 864 864 864 867 867 867 867 867 867 867 867 867 867 867 867 867 867 864 864 864 864 867 867 867 867 867 864 864 864 864 864 864 864 864 864 864 864 864 864 864 864 867 867 867 867 864 864 864 864 864 864 864 864 864 864 867 867 867 867 867 867 867 867 867 867 867 867 867 867 867 867 867 867 870 873 876 876 876 876 873 870 870 870 870 870 870 870 867 867 867 867 867 867 867 867 867 867 867 867 867 867 867 870 870 870 870 870 870 870 870 870 870 867 870 870 870 870 870 870 870 870 870 870 870 870 870 870 870 870 870 870 870 870 870 870 867 867 867 870 870 870 870 870 870 870 870 870 870 873 873 873 873 873 873 873 873 870 873 873 873 873 876 879 888 897 903 909 915 915 915 918 921 924 930 936 936 933 927 924 924 921 921 921 921 915 909 909 912 915 924 936 951 966 981 996 1011 1020 1026 1032 1035 1038 1041 1029 1020 1011 1002 993 990 990 987 978 972 963 951 939 939 939 939 942 945 942 936 930 924 918 915 915 915 912 909 906 900 894 891 888 885 885 885 885 885 885 885 885 885 891 897 912 930 951 978 1005 1032 1056 1077 1089 1092 1098 1086 1074 1065 1053 1044 1050 1062 1074 1095 1113 1125 1134 1146 1140 1131 1122 1116 1110 1107 1104 1104 1101 1098 1095 1095 1092 1089 1089 1089 1086 1086 1083 1077 1071 1062 1053 1047 1044 1041 1041 1041 1044 1044 1044 1044 1047 1050 1050 1053 1053 1053 1050 1047 1041 1035 1029 1023 1020 1020 1020 1026 1032 1041 1050 1062 1071 1083 1089 1089
867 867 867 867 867 867 867 867 867 867 867 867 867 867 867 867 867 867 867 867 870 870 873 876 873 870 867 867 864 864 864 864 864 864 861 861 861 861 864 864 864 864 864 864 864 864 864 864 864 864 864 864 864 864 864 864 864 864 864 864 864 864 864 864 864 864 864 864 864 864 864 864 864 864 864 864 867 867 867 867 867 867 867 867 867 867 867 867 867 867 864 864 864 867 867 867 867 867 867 867 867 864 864 864 864 864 864 864 864 864 864 864 864 864 864 867 867 867 867 864 864 864 864 864 864 867 867 867 867 867 867 867 867 867 867 867 867 867 867 867 867 867 867 867 867 867 867 870 873 876 876 873 873 870 870 870 873 876 873 873 873 870 867 867 867 867 867 867 867 867 867 867 867 867 867 867 870 870 870 870 870 870 870 870 870 867 867 870 870 870 870 870 870 870 870 870 870 870 870 870 870 870 870 870 870 870 870 870 870 870 870 870 870 870 870 870 870 870 870 870 870 873 873 873 873 873 873 873 873 873 873 873 873 876 882 888 894 903 912 915 915 915 915 912 915 921 924 930 936 939 936 936 933 930 930 930 930 930 927 921 921 924 927 939 948 963 984 1002 1017 1032 1041 1044 1044 1044 1041 1038 1023 1008 996 990 981 978 978 975 969 963 954 945 933 930 930 927 930 933 930 927 924 918 912 909 909 906 906 903 900 894 891 888 885 885 885 885 885 885 885 885 885 885 891 897 906 924 942 969 996 1020 1041 1065 1077 1083 1092 1083 1077 1068 1056 1047 1050 1059 1071 1092 1110 1125 1137 1146 1140 1134 1128 1122 1113 1107 1104 1098 1098 1098 1098 1095 1092 1089 1089 1086 1089 1089 1086 1083 1077 1068 1059 1053 1047 1041 1041 1044 1044 1044 1041 1041 1041 1041 1041 1044 1044 1041 1038 1035 1029 1023 1020 1017 1017 1020 1023 1026 1035 1041 1053 1062 1071 1080 1089 1089
867 867 867 867 867 867 867 867 867 867 867 867 867 867 867 867 867 867 867 867 867 867 867 867 867 864 864 864 864 864 864 864 864 864 861 861 861 864 864 864 864 864 864 864 864 864 864 861 864 864 864 864 864 864 864 864 864 864 864 864 864 864 864 864 864 864 864 864 864 864 864 864 864 864 864 864 867 867 867 867 867 867 867 867 867 867 867 867 867 864 864 864 867 867 867 867 867 867 867 867 867 867 864 864 864 864 864 864 864 864 864 864 864 864 864 864 864 864 864 864 867 864 864 864 867 867 867 867 867 867 867 867 867 867 867 867 867 867 867 867 867 867 867 867 867 867 867 867 870 870 870 870 870 870 870 873 879 885 882 879 876 873 867 867 867 867 867 867 867 867 867 867 867 867 867 867 867 870 870 870 870 870 870 870 867 867 867 867 867 870 870 870 870 870 870 870 870 870 870 870 870 870 870 870 870 870 870 870 870 870 870 870 870 870 870 870 870 870 870 870 870 873 873 873 873 873 873 873 873 873 873 876 879 882 891 900 906 909 915 915 915 912 909 909 909 912 918 924 930 936 936 936 936 933 933 933 936 936 930 927 927 933 936 948 960 978 999 1020 1035 1047 1056 1056 1056 1053 1047 1041 1023 1008 993 981 969 969 966 966 960 951 945 936 930 924 921 918 921 921 921 918 918 912 909 903 903 900 897 897 894 891 888 885 885 885 885 885 885 885 885 885 885 885 891 894 903 918 933 960 987 1011 1026 1044 1056 1062 1071 1068 1065 1062 1053 1044 1047 1056 1065 1086 1104 1119 1128 1134 1134 1134 1131 1125 1119 1110 1101 1092 1095 1095 1095 1089 1083 1083 1080 1080 1083 1089 1089 1086 1080 1074 1065 1059 1053 1047 1044 1044 1044 1044 1044 1041 1038 1038 1035 1035 1035 1032 1026 1023 1020 1014 1014 1014 1017 1020 1023 1032 1038 1047 1056 1062 1071 1077 1083 1083
867 867 867 867 867 867 867 867 867 867 867 867 867 867 867 867 867 867 867 867 867 867 867 867 867 864 864 864 864 864 864 864 864 864 861 861 861 861 861 861 864 864 864 864 864 864 864 861 861 864 864 864 864 864 864 864 864 864 864 864 864 864 864 864 864 864 864 864 864 864 864 864 864 864 864 867 867 867 867 867 867 867 867 867 867 867 867 867 867 867 867 867 867 867 867 867 867 867 867 867 867 867 867 867 864 864 867 867 867 867 867 867 867 867 867 870 867 867 867 867 867 867 867 867 867 867 867 867 867 867 867 867 867 867 867 867 870 870 870 870 870 870 870 870 867 867 867 867 870 870 870 873 873 873 873 876 879 885 882 879 876 873 867 867 867 867 867 867 867 867 867 867 867 867 867 867 867 867 870 870 870 870 870 867 867 867 867 867 867 867 867 870 870 870 870 867 867 867 867 870 870 870 870 870 870 870 870 870 870 870 870 870 870 870 870 870 870 870 870 870 870 873 873 876 873 873 873 873 873 876 876 882 888 894 903 912 915 909 906 906 909 909 903 900 897 900 900 912 924 933 933 933 933 930 930 933 936 933 930 924 927 936 942 957 975 993 1014 1035 1044 1056 1065 1065 1065 1062 1056 1050 1035 1023 1005 984 966 960 960 957 951 945 936 930 924 921 915 912 912 912 912 912 912 906 903 900 900 897 894 894 891 891 888 888 888 885 885 885 885 885 885 885 885 885 888 891 897 912 927 957 990 1017 1035 1053 1062 1062 1062 1062 1059 1056 1050 1044 1044 1047 1053 1071 1092 1110 1119 1131 1131 1134 1134 1128 1122 1116 1107 1098 1095 1095 1092 1086 1080 1077 1074 1074 1080 1083 1086 1083 1083 1077 1071 1062 1059 1053 1050 1047 1047 1041 1038 1035 1032 1026 1026 1029 1029 1029 1026 1023 1020 1017 1014 1014 1017 1020 1026 1032 1041 1047 1056 1062 1071 1077 1080 1080
867 867 867 867 867 867 867 867 867 867 867 867 867 867 867 867 867 867 867 867 867 867 867 867 864 864 864 864 864 864 864 864 864 864 864 861 861 861 861 861 861 861 861 864 864 864 864 861 864 864 864 864 864 864 864 864 864 864 864 864 864 864 864 864 864 864 864 864 864 864 864 864 864 864 864 867 867 864 864 864 864 864 867 867 867 867 867 867 867 867 867 867 867 867 867 867 867 864 864 864 864 867 867 867 867 867 867 867 870 870 870 870 870 873 873 873 870 870 870 867 867 867 867 867 867 867 867 867 867 867 867 867 867 867 867 867 870 870 870 870 873 873 870 870 870 870 870 870 873 873 876 879 882 879 876 876 876 876 873 873 870 870 867 867 867 867 867 867 867 867 867 867 867 867 867 867 867 870 870 870 867 867 867 867 867 867 867 867 867 867 867 870 870 870 867 867 867 867 867 867 867 867 870 870 870 870 870 870 870 870 870 870 873 873 873 873 873 870 870 870 873 873 873 876 876 876 876 876 879 882 885 891 900 912 915 915 915 912 909 909 909 909 903 897 894 894 891 903 915 924 927 927 927 927 930 930 930 927 924 921 927 936 948 969 987 1008 1029 1050 1059 1065 1071 1074 1074 1071 1065 1056 1041 1026 1008 984 963 957 954 948 942 936 933 927 924 918 915 912 909 906 906 903 903 903 900 897 894 894 891 891 891 891 891 888 888 888 888 888 888 885 885 885 885 885 888 888 894 906 921 951 984 1014 1035 1056 1065 1065 1065 1059 1056 1053 1047 1041 1038 1038 1038 1059 1080 1098 1110 1122 1128 1131 1131 1128 1128 1122 1116 1110 1101 1095 1086 1077 1068 1065 1065 1065 1068 1074 1077 1080 1080 1077 1074 1068 1065 1059 1056 1053 1047 1041 1032 1026 1023 1017 1020 1023 1026 1026 1026 1026 1023 1020 1020 1017 1020 1023 1026 1032 1041 1047 1056 1062 1071 1074 1080 1080
867 867 867 867 867 867 867 867 867 867 867 867 867 867 867 867 867 867 867 867 867 867 867 867 864 864 864 864 864 864 864 867 864 864 864 861 861 861 861 861 861 861 861 861 861 861 861 861 864 864 864 864 864 864 864 864 864 864 864 864 864 864 864 864 864 864 864 864 864 864 864 864 864 864 864 864 864 864 864 864 864 864 864 864 867 867 867 867 867 867 867 867 867 867 867 867 867 864 864 864 864 867 867 867 864 864 864 867 867 867 867 867 870 870 870 870 870 870 870 867 867 867 867 867 867 867 867 867 867 867 867 867 867 867 867 867 867 867 867 867 870 870 870 870 870 870 870 870 870 873 876 876 879 879 879 876 873 873 870 870 867 867 867 867 867 867 867 867 867 867 867 870 870 870 870 867 867 867 870 867 867 867 867 867 867 867 867 867 867 867 867 870 870 867 867 867 867 867 867 867 867 867 867 870 870 870 870 870 870 870 870 870 873 873 873 873 873 870 870 873 873 873 876 876 876 876 876 879 882 888 894 903 912 921 921 921 918 915 912 912 909 909 900 891 888 888 888 897 909 918 918 921 921 924 927 924 924 921 918 915 924 936 948 972 996 1020 1041 1062 1068 1074 1077 1077 1077 1074 1068 1062 1044 1029 1011 990 966 957 951 945 942 936 933 930 927 921 918 912 909 903 900 900 897 897 894 894 894 894 891 891 891 894 894 894 894 894 894 894 894 891 888 888 888 885 885 885 891 900 912 939 972 1002 1026 1050 1062 1068 1074 1065 1056 1047 1041 1035 1029 1026 1026 1047 1068 1086 1098 1110 1116 1122 1125 1128 1131 1131 1128 1128 1113 1101 1083 1065 1044 1044 1047 1050 1053 1059 1062 1068 1071 1074 1074 1074 1068 1065 1062 1056 1053 1044 1032 1023 1017 1011 1014 1017 1020 1023 1023 1023 1026 1026 1026 1026 1026 1026 1026 1032 1038 1044 1053 1062 1068 1074 1077 1077
867 867 867 867 867 867 867 867 867 867 867 867 867 867 867 867 867 867 867 867 867 867 867 867 867 864 864 864 864 864 864 864 864 864 861 861 861 861 861 861 861 861 861 861 861 861 861 861 864 864 864 864 864 864 864 864 864 864 864 864 864 864 864 864 864 864 864 864 864 864 864 864 864 864 864 864 864 867 867 867 867 864 867 867 867 867 867 867 867 867 867 867 867 867 867 867 864 864 864 864 864 864 864 864 864 864 864 864 864 867 867 867 867 867 867 867 870 870 870 867 867 867 867 867 867 867 867 867 867 867 867 867 867 867 867 867 867 867 867 867 867 867 867 867 867 867 867 870 870 870 873 876 876 876 879 876 873 870 870 867 867 867 867 867 867 867 867 867 867 867 867 870 870 870 870 870 867 867 867 867 867 867 867 867 867 867 867 867 867 867 867 870 867 867 867 867 867 867 867 867 867 867 867 870 870 870 870 870 870 870 873 873 873 873 873 873 873 873 873 873 873 873 876 876 876 876 879 882 885 897 909 915 921 927 927 924 924 921 918 915 909 906 897 888 885 885 885 894 903 909 912 915 918 921 921 921 918 918 915 912 921 933 948 972 996 1020 1041 1062 1068 1071 1074 1074 1074 1074 1068 1065 1053 1041 1026 1005 984 972 963 957 954 954 948 942 936 933 930 924 918 912 906 903 897 897 894 894 897 900 900 903 906 909 909 912 918 921 930 936 939 930 918 909 897 888 888 885 888 897 903 927 954 981 1005 1026 1044 1056 1068 1062 1059 1053 1044 1035 1026 1020 1017 1032 1047 1062 1077 1092 1101 1107 1116 1125 1134 1137 1137 1137 1122 1107 1089 1062 1035 1029 1029 1029 1035 1038 1044 1053 1062 1065 1071 1071 1068 1065 1062 1062 1059 1050 1041 1032 1023 1017 1017 1017 1020 1020 1020 1020 1023 1026 1026 1029 1029 1029 1029 1032 1038 1041 1050 1059 1065 1071 1074 1074
867 867 867 867 867 867 867 867 867 867 867 867 867 867 867 867 867 867 864 864 864 864 864 864 864 864 864 864 864 864 864 864 864 864 864 861 861 861 861 861 861 861 861 864 864 864 864 864 864 864 864 864 864 864 864 864 864 864 864 864 864 864 864 864 864 864 864 864 864 864 864 864 864 864 864 864 867 867 867 867 867 867 867 867 867 867 867 867 867 867 867 867 867 867 867 867 864 864 864 864 864 864 864 864 864 864 864 864 864 864 864 867 867 867 867 867 867 867 867 867 867 867 867 867 867 867 867 867 867 867 867 867 867 867 867 867 867 867 867 867 867 867 867 867 867 867 867 867 870 870 873 873 876 879 879 879 876 873 870 867 867 867 867 867 867 867 867 867 867 867 867 867 870 870 870 870 867 867 867 867 867 867 867 867 867 867 867 867 867 867 867 867 867 867 867 867 867 867 867 867 867 867 867 870 870 870 870 870 870 873 873 873 873 873 870 870 873 873 873 873 873 873 876 876 876 876 882 888 894 903 912 918 921 927 927 924 924 921 921 912 903 897 891 885 882 882 882 891 900 906 909 912 915 915 915 912 912 909 909 912 921 936 954 978 1002 1023 1041 1059 1065 1068 1071 1071 1068 1068 1068 1065 1059 1050 1041 1026 1011 999 987 975 969 966 960 954 948 945 942 936 930 924 918 909 900 900 900 903 912 921 927 927 930 927 924 927 936 945 960 972 978 966 957 942 921 906 900 891 888 891 894 912 933 954 978 999 1017 1029 1044 1047 1050 1047 1038 1029 1020 1008 1002 1014 1023 1038 1056 1074 1086 1095 1107 1119 1134 1140 1143 1146 1131 1116 1095 1065 1038 1026 1017 1011 1017 1020 1026 1038 1047 1056 1065 1068 1068 1068 1065 1062 1062 1056 1050 1041 1032 1023 1020 1020 1020 1017 1017 1020 1023 1026 1026 1029 1032 1032 1032 1035 1038 1038 1047 1053 1059 1065 1071 1071
867 867 867 867 867 867 867 867 867 867 867 867 867 867 867 867 867 867 864 864 864 864 864 864 864 864 864 864 864 864 864 864 864 864 864 864 861 861 861 861 861 861 861 864 864 864 864 864 864 864 864 864 864 864 864 864 864 864 864 864 864 864 864 864 864 864 864 864 864 864 864 864 864 864 864 864 864 867 867 867 867 867 867 867 867 867 867 867 867 867 867 867 867 867 867 867 867 864 864 864 864 864 864 864 864 864 864 864 864 864 864 867 867 867 867 867 867 867 867 867 867 867 867 867 867 867 867 867 867 867 867 867 867 867 867 867 867 867 867 867 867 867 867 867 867 867 867 867 867 870 870 873 873 876 876 876 873 870 870 867 867 867 867 867 867 870 867 867 867 867 867 867 867 870 870 870 867 867 867 867 867 867 867 867 867 867 867 867 867 867 867 867 867 867 867 867 867 867 867 867 867 867 867 870 870 870 870 870 870 873 873 873 873 870 870 870 873 873 873 873 873 873 876 876 876 876 882 888 894 903 912 915 918 921 921 924 921 918 918 909 897 888 885 879 879 882 882 888 894 900 903 909 909 909 906 906 903 903 906 909 924 942 960 984 1005 1023 1038 1053 1056 1059 1062 1062 1062 1062 1062 1062 1062 1059 1053 1044 1035 1020 1005 993 984 972 966 960 954 951 948 945 942 936 927 915 906 909 909 918 936 954 957 957 954 945 936 939 951 963 981 999 1011 1005 999 981 957 936 918 900 891 891 888 897 909 921 945 969 984 993 1005 1014 1026 1029 1023 1014 1005 993 987 993 999 1014 1035 1056 1071 1086 1104 1116 1131 1140 1146 1152 1140 1128 1107 1080 1053 1032 1014 1002 1002 1005 1011 1023 1035 1047 1056 1065 1068 1068 1065 1062 1059 1053 1050 1044 1035 1026 1026 1023 1023 1023 1023 1023 1026 1026 1029 1029 1032 1032 1035 1038 1038 1041 1044 1047 1050 1056 1059 1059
867 867 867 867 867 867 867 867 867 867 867 867 867 867 867 867 867 867 867 864 864 864 864 864 864 864 867 864 864 864 864 864 864 864 864 864 864 864 861 861 861 861 861 864 864 864 864 864 864 864 864 864 864 864 864 864 864 864 864 864 864 864 864 864 864 864 864 864 864 864 864 864 864 864 864 867 867 867 867 867 867 867 867 867 867 867 867 867 867 867 867 867 867 867 867 867 867 864 864 864 864 864 864 864 864 864 864 864 864 864 864 867 867 867 867 867 867 867 867 867 867 867 867 867 867 867 867 867 867 867 867 867 867 867 867 867 867 867 867 867 867 867 867 867 867 867 867 867 867 867 870 870 873 873 873 873 870 870 870 867 867 870 870 870 870 870 870 870 870 867 867 867 867 867 867 867 867 867 867 867 867 867 867 867 867 867 867 867 867 867 867 867 867 867 867 867 867 867 867 867 867 867 867 867 867 870 870 870 873 873 873 873 873 873 870 870 870 873 873 873 873 876 876 876 876 876 882 885 891 900 906 909 912 915 915 915 915 912 909 900 891 882 879 879 879 879 882 888 891 897 900 900 903 900 900 900 900 900 903 909 924 945 963 984 1005 1023 1032 1041 1047 1050 1053 1050 1050 1053 1053 1056 1056 1056 1053 1047 1041 1026 1011 996 984 972 963 957 951 948 948 945 939 936 927 918 909 918 927 942 960 978 978 975 969 960 948 951 963 975 993 1011 1023 1020 1020 1008 990 972 948 921 906 897 888 894 897 906 918 930 942 951 960 972 987 993 987 984 978 969 966 975 987 1005 1029 1053 1071 1089 1104 1116 1128 1134 1140 1143 1137 1131 1116 1092 1068 1044 1017 996 993 990 996 1008 1023 1032 1038 1047 1050 1050 1050 1047 1044 1044 1044 1041 1038 1035 1032 1029 1023 1026 1026 1029 1029 1032 1035 1035 1035 1035 1038 1038 1041 1044 1044 1047 1047 1050 1050 1050
867 867 867 867 867 867 870 870 870 867 867 867 867 867 867 867 867 867 867 864 864 864 864 867 867 867 867 867 864 864 864 864 864 864 864 864 864 864 864 864 864 864 864 864 864 864 864 864 864 864 864 864 864 864 864 864 864 864 864 864 864 864 864 864 864 864 864 864 864 864 864 864 864 864 864 867 867 867 867 867 867 867 867 867 867 867 867 867 867 867 867 870 870 870 870 867 867 864 864 864 864 864 864 864 864 864 864 864 864 864 864 864 864 864 867 867 867 867 867 867 867 867 867 867 867 867 867 867 867 867 867 867 867 867 867 867 870 870 870 870 870 870 870 870 870 870 867 867 867 867 867 867 867 867 867 867 867 870 870 870 870 873 873 873 873 873 873 870 870 867 867 867 867 867 867 867 867 867 867 867 867 867 867 867 867 867 867 867 867 867 867 867 867 867 867 867 867 867 867 867 867 867 867 867 867 867 870 870 870 873 873 873 873 873 870 870 873 873 873 873 876 879 882 888 891 894 897 900 903 906 909 909 906 903 897 894 891 894 894 891 885 882 879 879 879 879 882 885 888 891 894 897 897 897 894 897 897 900 903 909 927 945 966 984 1005 1017 1026 1035 1038 1041 1041 1041 1041 1041 1041 1044 1047 1050 1050 1047 1044 1029 1014 999 984 969 957 951 942 942 939 936 933 930 924 918 915 930 948 963 978 990 990 984 978 969 960 963 972 981 999 1017 1029 1032 1035 1026 1011 996 966 936 915 903 891 891 891 894 900 906 912 921 927 939 951 957 957 957 954 954 957 969 984 1002 1026 1050 1071 1089 1107 1113 1122 1128 1128 1131 1131 1131 1122 1104 1083 1056 1023 996 987 978 981 993 1005 1014 1020 1023 1029 1032 1032 1029 1029 1032 1038 1041 1044 1047 1041 1035 1029 1029 1032 1032 1038 1041 1041 1041 1041 1041 1041 1041 1044 1047 1047 1047 1047 1044 1044 1044
867 867 867 867 867 870 870 870 870 870 867 867 867 867 867 867 867 864 864 864 864 864 867 867 867 867 867 864 864 864 864 864 864 864 864 864 864 864 864 864 864 864 864 864 864 864 864 864 864 864 864 864 864 864 864 864 864 864 864 864 864 864 864 864 864 864 864 864 864 864 864 864 864 864 864 867 867 867 867 867 867 867 867 867 867 867 867 867 867 867 867 867 867 867 867 867 867 864 864 864 864 864 864 864 864 864 864 864 864 864 864 864 864 864 867 867 867 867 867 870 870 870 870 870 870 870 870 870 870 867 867 867 867 867 867 867 867 867 867 867 867 867 870 870 870 870 870 870 870 870 870 867 867 867 867 867 867 867 870 870 873 873 873 873 873 873 870 870 870 867 867 867 867 867 867 867 867 867 867 867 867 867 867 867 867 867 867 867 867 867 867 867 867 867 867 867 867 867 867 867 867 867 870 870 870 870 870 870 870 870 870 870 873 870 870 870 873 873 873 876 879 888 894 900 903 909 909 909 912 912 912 909 900 891 885 879 876 879 882 882 882 882 879 879 879 879 882 885 888 891 891 894 894 894 891 894 894 897 903 906 924 945 963 981 999 1011 1017 1023 1023 1026 1026 1026 1026 1026 1026 1029 1035 1041 1044 1044 1044 1032 1017 999 981 963 951 942 936 933 930 927 924 921 921 921 921 945 966 981 990 996 993 987 981 975 972 972 981 987 1005 1023 1035 1041 1047 1038 1023 1008 975 942 918 906 891 888 888 891 894 900 903 909 912 918 924 927 930 933 942 954 963 978 993 1011 1029 1047 1068 1086 1104 1110 1116 1119 1119 1122 1122 1125 1119 1107 1095 1065 1035 1005 987 966 963 972 984 993 1002 1011 1014 1017 1017 1014 1014 1023 1035 1044 1050 1059 1056 1050 1047 1044 1044 1044 1047 1047 1047 1050 1050 1050 1047 1050 1053 1053 1050 1050 1047 1047 1047 1047
867 867 867 867 870 870 870 870 870 867 867 867 867 867 867 867 867 867 867 864 864 864 864 864 864 864 864 864 864 864 864 864 864 864 864 864 864 864 864 864 864 864 864 864 864 864 864 864 864 864 864 864 864 864 864 864 864 864 864 864 864 864 864 864 864 864 864 864 864 864 864 864 864 864 864 867 867 867 864 867 867 867 867 867 867 867 867 867 867 867 867 867 867 867 867 867 867 864 864 864 864 864 864 864 864 864 864 864 864 864 864 864 864 864 867 867 867 867 867 867 870 870 870 870 870 870 870 870 870 870 870 867 867 867 867 867 867 867 867 867 867 867 867 867 867 870 870 870 870 870 870 867 867 867 867 867 867 867 870 873 873 873 873 873 870 870 870 867 867 867 867 867 867 867 867 867 867 867 867 867 867 867 867 867 867 867 867 867 867 867 867 867 867 867 867 867 867 867 867 867 870 870 870 870 870 870 870 870 870 870 870 870 870 870 870 873 873 873 873 882 888 897 909 912 915 918 918 918 918 915 912 906 897 888 882 876 873 879 882 882 885 885 882 879 879 879 879 882 885 888 891 897 894 894 891 891 894 897 900 903 918 933 948 966 984 993 996 999 999 1002 999 999 999 999 1002 1008 1017 1026 1032 1035 1038 1023 1008 990 972 957 945 936 930 930 927 927 927 924 930 933 942 957 975 987 993 996 996 993 987 984 978 978 981 984 1005 1026 1041 1050 1059 1047 1032 1011 981 951 927 909 894 891 891 894 900 909 915 918 924 924 924 927 933 939 951 963 975 990 1002 1017 1029 1041 1056 1074 1086 1095 1104 1107 1110 1110 1113 1113 1113 1107 1101 1077 1050 1023 993 966 957 960 960 969 975 981 984 987 987 987 987 1005 1020 1035 1050 1062 1062 1062 1062 1059 1059 1056 1056 1053 1056 1056 1056 1056 1056 1056 1056 1056 1053 1050 1050 1050 1047 1047
867 867 867 867 870 870 870 870 867 867 867 867 867 867 867 867 867 867 867 864 864 864 864 864 864 864 864 864 864 864 864 864 864 864 864 864 864 864 864 864 864 864 864 864 864 864 864 864 864 864 864 864 864 864 864 864 864 864 864 864 864 864 864 864 864 864 864 864 864 864 864 864 864 864 864 867 867 867 867 867 867 867 867 867 867 867 867 867 867 867 867 867 867 867 867 867 867 864 864 864 864 864 864 864 864 864 864 864 864 864 864 864 864 864 867 867 867 867 867 867 867 867 867 867 867 867 870 870 870 870 870 870 870 870 870 867 867 867 867 867 867 867 867 867 867 867 867 867 867 867 867 867 867 867 867 867 867 867 867 870 870 870 870 870 867 867 867 867 867 867 867 867 867 867 867 867 867 867 867 867 867 867 867 867 867 867 870 867 867 867 867 867 867 867 867 867 867 867 867 870 870 873 873 873 873 873 870 870 870 870 870 870 870 870 870 873 873 876 876 891 897 906 912 915 915 915 915 915 915 912 912 906 894 885 879 876 876 882 885 888 888 888 885 882 879 879 879 882 885 888 891 894 894 891 888 891 891 894 897 900 909 921 933 945 960 969 975 978 978 978 978 975 975 981 990 999 1014 1026 1032 1035 1038 1020 1002 984 969 957 948 939 933 936 936 939 939 942 945 954 960 972 987 993 999 1002 999 999 993 990 987 984 984 984 1002 1023 1038 1050 1059 1050 1035 1017 990 963 939 918 897 894 891 894 903 912 918 924 930 927 927 927 936 942 954 969 981 996 1008 1020 1026 1035 1044 1053 1065 1074 1086 1092 1098 1104 1104 1104 1104 1104 1101 1083 1059 1035 1005 972 954 948 942 945 948 951 951 954 954 957 960 984 1008 1029 1044 1062 1068 1071 1074 1071 1071 1068 1065 1062 1062 1062 1062 1062 1065 1062 1062 1059 1056 1053 1050 1050 1050 1050
867 867 867 867 870 870 870 870 870 867 867 867 867 867 867 867 867 867 864 864 864 864 864 864 864 864 864 864 864 864 864 864 864 864 864 864 864 864 864 864 864 864 864 864 864 864 864 864 864 864 864 864 864 864 864 864 864 864 864 864 864 864 864 864 864 864 864 864 864 864 864 864 864 864 864 864 867 867 867 867 867 867 867 867 867 867 867 867 867 867 867 867 867 867 867 867 864 864 864 864 864 864 864 864 864 864 864 864 864 864 864 864 864 864 864 864 867 867 867 867 867 867 867 867 867 867 867 867 867 867 867 867 867 867 867 867 867 867 867 867 867 867 867 867 867 867 867 867 867 867 867 867 867 867 867 867 867 867 867 867 870 867 867 867 867 867 867 867 867 867 867 867 867 867 867 867 867 867 867 867 867 867 867 867 867 867 867 867 867 867 867 867 867 867 867 867 867 867 870 870 870 873 873 873 873 873 873 870 870 870 870 870 870 870 873 873 876 876 876 894 900 906 912 915 915 912 912 912 912 912 909 903 891 882 879 879 879 885 891 891 891 891 885 882 879 879 882 882 885 888 888 891 891 891 888 891 891 894 894 897 903 909 918 927 939 948 954 960 957 957 957 960 963 975 990 1005 1017 1029 1038 1038 1041 1023 1005 987 975 963 957 948 942 945 951 954 960 963 969 972 978 987 996 1002 1005 1011 1008 1005 1002 999 996 993 990 987 999 1011 1023 1035 1047 1041 1032 1020 999 978 954 927 900 897 894 894 903 912 918 921 927 927 924 927 933 939 951 966 981 993 1008 1017 1023 1026 1029 1032 1038 1047 1059 1071 1086 1101 1101 1104 1101 1098 1095 1080 1062 1041 1011 984 960 942 927 927 927 927 927 927 933 942 951 981 1014 1038 1053 1068 1074 1077 1077 1077 1077 1074 1071 1065 1065 1065 1065 1062 1062 1062 1059 1059 1056 1056 1053 1050 1050 1050
867 867 867 867 867 867 867 870 870 867 867 867 867 867 867 867 867 867 864 864 867 867 867 867 867 867 867 864 864 864 864 864 864 864 864 864 864 864 864 864 864 864 864 864 864 864 864 864 864 864 864 864 864 864 864 864 864 864 864 864 864 864 864 864 864 864 867 867 864 864 864 864 864 864 864 864 864 867 867 867 867 867 867 867 867 867 867 867 867 867 867 867 867 867 867 867 867 864 864 864 864 864 867 864 864 864 864 864 864 864 864 864 864 864 864 864 864 867 867 867 867 867 867 867 867 867 867 867 867 867 867 867 867 867 867 867 867 867 867 867 867 867 867 867 867 867 867 867 867 867 867 867 867 867 867 867 867 867 867 867 867 867 867 867 867 867 867 867 867 867 867 867 867 867 867 867 867 867 867 867 867 867 867 867 867 867 867 867 867 867 867 867 867 867 867 867 867 870 870 870 873 873 873 873 873 873 873 873 870 870 870 870 870 873 873 876 876 879 879 891 897 903 909 912 909 909 909 909 909 906 906 897 888 879 882 885 888 897 903 900 894 891 885 882 882 882 882 882 885 888 891 894 894 891 891 894 894 894 894 897 900 903 909 918 924 930 933 936 939 942 951 972 990 1008 1026 1041 1044 1047 1050 1053 1056 1047 1035 1020 1005 990 978 969 960 957 954 957 960 963 969 978 987 996 1005 1011 1017 1023 1023 1023 1023 1017 1011 1005 1002 996 1005 1011 1017 1023 1026 1023 1014 1005 984 963 942 918 897 894 891 891 897 903 906 912 918 918 918 921 924 930 945 957 972 987 1002 1011 1014 1017 1017 1014 1017 1026 1035 1047 1065 1080 1086 1092 1092 1089 1086 1074 1056 1038 1008 981 957 939 918 918 918 918 921 924 933 948 966 999 1029 1053 1071 1086 1089 1089 1089 1089 1086 1083 1077 1074 1071 1071 1068 1065 1062 1062 1059 1059 1059 1056 1056 1053 1050 1050
867 867 867 867 867 867 870 870 870 870 870 867 867 867 867 867 867 867 867 867 867 867 867 867 867 867 867 867 867 867 867 864 864 864 864 864 864 864 864 864 864 864 864 864 864 864 864 864 864 864 864 864 864 864 864 864 864 864 864 864 864 864 864 864 864 864 864 864 864 864 864 864 864 864 864 864 864 867 867 867 867 867 867 867 867 867 867 867 867 867 867 867 867 867 867 867 867 867 867 864 864 867 867 867 867 864 864 864 864 864 864 864 864 864 864 864 864 864 864 864 864 867 867 867 867 867 867 867 867 867 867 867 867 867 867 867 867 867 867 867 867 867 867 867 867 867 867 867 867 867 867 867 867 867 867 867 867 867 867 867 867 867 867 867 867 867 867 867 867 867 867 867 867 867 867 867 867 867 867 867 867 870 870 870 870 867 867 867 867 867 867 867 867 867 867 867 867 870 870 873 873 873 873 873 873 873 873 873 873 870 870 873 873 873 873 876 879 885 885 888 891 900 906 909 909 909 909 906 906 900 897 891 882 876 885 894 903 912 918 912 906 897 891 885 882 882 882 885 885 888 888 891 891 891 891 897 903 906 909 909 909 906 906 912 915 921 924 930 942 957 975 999 1026 1041 1053 1062 1062 1059 1062 1068 1071 1068 1065 1056 1044 1029 1017 1005 993 987 984 981 981 981 987 993 999 1005 1014 1020 1029 1038 1041 1047 1047 1038 1032 1026 1020 1014 1017 1020 1020 1017 1017 1008 1002 990 966 945 924 909 894 891 891 888 891 894 897 903 906 909 909 912 918 924 936 948 963 978 993 1002 1002 1005 1002 999 999 1005 1011 1023 1038 1053 1062 1071 1077 1074 1074 1059 1044 1026 999 972 951 933 915 918 918 921 924 930 948 969 993 1023 1053 1074 1092 1107 1110 1110 1107 1101 1098 1092 1086 1080 1080 1077 1074 1071 1068 1065 1062 1062 1059 1056 1053 1053 1050 1050
867 867 867 867 867 867 870 873 873 873 873 873 870 870 870 870 870 867 867 867 867 864 864 867 867 864 867 867 867 870 867 867 867 864 864 864 864 864 864 864 864 864 864 864 864 864 864 864 864 867 867 864 864 864 864 864 864 864 864 864 864 864 864 864 864 864 864 864 864 864 864 864 864 864 864 867 867 867 867 867 867 867 867 867 867 867 867 867 867 867 867 867 867 867 867 867 867 867 867 864 864 867 867 867 867 867 867 864 864 864 864 864 864 864 864 864 864 864 864 864 867 867 867 867 867 867 867 867 867 867 867 867 867 867 867 867 867 867 867 867 867 867 867 867 867 867 867 867 867 867 867 870 867 867 867 867 867 867 867 867 867 867 867 867 867 867 867 867 867 867 867 867 867 867 867 867 867 867 867 867 867 870 870 870 870 867 867 867 867 867 867 867 867 867 867 867 870 870 870 873 873 873 873 873 873 873 873 873 873 873 873 873 873 873 873 876 882 888 888 888 888 897 903 906 906 906 906 906 903 897 891 885 882 879 894 906 915 924 930 921 912 903 894 885 882 882 885 885 885 885 888 888 888 888 891 903 915 924 927 930 924 918 912 912 915 918 927 933 957 984 1008 1035 1059 1068 1068 1071 1071 1068 1071 1077 1083 1086 1092 1092 1086 1077 1068 1053 1041 1035 1026 1020 1017 1014 1014 1011 1008 1014 1020 1029 1041 1053 1062 1071 1074 1065 1056 1050 1044 1038 1038 1035 1032 1023 1017 1002 987 972 948 927 912 903 894 891 888 888 888 891 894 894 897 900 903 909 912 918 930 942 957 972 987 993 993 993 987 981 978 984 990 999 1014 1026 1032 1035 1041 1041 1041 1032 1017 1002 978 954 936 924 912 918 921 927 939 951 972 996 1023 1050 1077 1098 1113 1128 1131 1131 1128 1119 1110 1104 1098 1092 1089 1086 1083 1080 1077 1074 1071 1068 1065 1062 1059 1056 1053 1053
867 870 870 870 867 867 870 870 873 876 879 876 876 873 873 870 870 867 867 867 867 867 867 867 867 867 867 867 867 867 867 867 867 864 864 864 864 864 864 864 864 864 864 864 864 864 864 864 864 864 864 864 864 864 864 864 864 864 864 864 864 864 864 864 864 864 864 864 864 864 864 864 864 864 864 867 867 867 867 867 867 867 867 867 867 867 867 867 867 867 867 867 867 870 870 870 870 867 867 864 864 867 867 867 867 867 867 867 867 864 864 864 864 864 864 864 864 867 867 867 867 867 867 867 867 867 867 867 867 867 867 867 867 867 867 867 867 867 867 867 867 867 867 867 867 867 867 867 867 870 870 870 870 870 867 867 870 870 870 867 867 867 867 867 867 867 867 867 867 867 867 867 867 867 867 867 867 867 867 867 867 867 870 870 870 870 870 867 867 867 867 867 867 867 867 870 870 870 873 873 873 873 873 873 873 873 870 870 873 873 873 873 870 873 873 876 882 888 888 888 888 891 894 897 900 903 903 903 900 894 888 885 885 888 900 915 924 927 927 921 909 900 894 885 882 882 882 882 885 885 885 885 888 888 891 912 930 945 960 972 963 951 942 936 933 942 957 975 999 1023 1044 1059 1074 1074 1068 1065 1068 1068 1071 1074 1077 1083 1089 1092 1092 1092 1089 1080 1074 1062 1053 1041 1035 1026 1023 1023 1023 1029 1035 1047 1062 1074 1083 1092 1095 1089 1080 1074 1068 1062 1056 1050 1041 1026 1014 993 972 951 933 915 903 897 891 891 888 888 888 888 891 894 897 900 906 909 918 924 936 945 957 972 984 987 981 978 972 963 960 969 975 987 996 1008 1008 1008 1008 1002 999 990 978 966 951 933 924 918 915 921 927 936 948 960 984 1008 1035 1062 1089 1110 1128 1146 1149 1152 1149 1137 1128 1119 1110 1101 1098 1095 1092 1089 1083 1080 1077 1074 1071 1068 1062 1059 1056 1056
870 870 870 870 870 870 873 873 873 876 876 876 873 873 873 870 870 867 867 867 867 867 867 867 867 867 867 867 867 867 867 867 867 867 864 864 864 864 864 864 864 864 864 864 864 864 864 864 864 864 864 864 864 864 864 864 864 864 864 864 864 864 864 864 864 864 864 864 864 864 864 864 864 864 864 864 867 867 867 867 867 867 867 867 867 867 867 867 867 867 867 867 870 873 873 873 870 870 867 864 864 867 867 867 867 867 867 867 867 867 864 867 867 867 867 867 867 867 867 867 867 867 867 867 867 867 867 867 867 867 867 867 867 867 867 867 867 867 867 867 867 867 867 867 867 867 867 867 867 870 870 873 873 873 873 873 873 873 873 873 870 870 870 867 867 867 867 867 867 867 867 867 867 867 867 867 867 867 867 867 867 867 870 870 870 870 867 867 867 867 867 867 867 867 867 870 870 870 873 873 873 873 873 873 873 870 870 870 870 873 870 870 870 873 873 876 882 885 888 888 891 888 888 891 894 900 900 900 900 894 891 891 897 900 912 921 927 924 924 915 906 897 894 888 888 891 891 891 891 891 888 888 888 891 897 918 942 960 981 999 996 987 981 978 975 984 1002 1017 1035 1056 1068 1071 1074 1071 1065 1062 1062 1062 1065 1065 1065 1074 1083 1092 1101 1110 1113 1110 1107 1095 1083 1074 1062 1050 1044 1041 1041 1050 1059 1071 1086 1101 1110 1116 1116 1110 1104 1095 1089 1083 1071 1062 1047 1032 1014 990 966 942 927 909 900 894 891 888 888 888 888 888 891 891 894 900 909 915 924 933 942 951 963 972 981 981 972 966 957 948 945 954 966 978 987 996 990 987 978 966 954 948 939 933 924 915 912 915 918 927 936 945 954 963 987 1014 1041 1065 1092 1116 1137 1158 1164 1170 1170 1158 1146 1134 1125 1116 1110 1104 1098 1095 1092 1086 1083 1080 1074 1071 1065 1062 1056 1056
873 873 873 873 876 876 876 876 876 873 870 870 870 867 867 867 867 867 867 867 867 867 867 867 867 867 867 867 870 870 867 867 867 867 864 864 864 864 864 864 864 864 864 864 864 864 864 864 864 864 864 864 864 864 864 864 864 864 864 864 864 864 864 864 864 864 864 864 864 864 864 864 864 864 864 864 864 867 867 867 867 867 867 867 867 867 867 867 867 867 867 867 870 870 873 870 867 867 867 867 867 867 867 867 867 867 867 867 867 867 864 864 864 864 867 867 867 867 867 867 867 867 867 867 867 867 867 867 867 867 867 867 867 867 867 867 867 867 867 867 867 867 867 867 867 867 867 867 867 870 870 873 876 873 873 873 873 870 870 870 870 870 867 867 867 867 867 867 867 867 867 867 867 867 867 867 867 867 867 867 867 870 870 870 870 870 870 867 867 867 867 867 867 867 870 870 870 873 873 873 873 873 873 873 873 870 870 870 870 870 870 870 870 873 873 876 882 885 888 891 891 888 885 885 891 894 897 897 897 894 891 894 903 909 918 924 927 924 921 912 906 900 897 894 897 900 903 903 903 900 897 891 891 894 900 924 948 969 993 1014 1017 1020 1023 1023 1023 1032 1044 1059 1068 1077 1083 1077 1071 1065 1059 1056 1056 1053 1053 1050 1047 1059 1074 1089 1110 1131 1140 1140 1143 1134 1122 1110 1098 1086 1077 1071 1068 1077 1086 1098 1116 1134 1137 1137 1137 1128 1122 1116 1107 1101 1086 1071 1056 1038 1017 996 975 951 930 909 900 894 891 888 888 888 888 888 891 894 897 906 915 924 933 945 951 960 966 972 975 972 963 954 942 933 933 948 963 975 984 993 984 975 963 948 933 927 918 915 912 912 918 927 936 945 954 963 972 978 996 1017 1038 1062 1089 1113 1143 1170 1176 1182 1185 1173 1161 1149 1137 1128 1119 1113 1107 1104 1098 1095 1089 1086 1080 1077 1071 1068 1065 1065
873 873 873 873 873 873 876 876 876 873 870 870 870 867 867 867 870 870 870 873 876 879 876 876 876 873 873 873 873 873 870 870 867 867 867 864 864 864 864 864 864 864 864 864 864 864 864 864 864 864 864 864 864 864 864 864 864 864 864 864 864 864 864 864 864 864 864 864 864 864 864 864 864 864 864 864 864 867 867 867 867 867 867 867 867 867 867 867 867 867 867 867 870 870 870 867 867 864 864 864 867 867 867 867 867 867 867 867 867 864 864 864 864 864 864 867 867 867 867 867 867 867 867 867 867 867 867 867 867 867 867 867 867 867 867 867 867 867 867 867 867 867 867 867 867 867 867 867 867 870 870 873 873 873 873 873 870 870 867 867 867 867 867 867 867 867 867 867 867 867 867 867 867 867 867 867 867 867 867 867 867 870 870 870 870 870 870 870 870 870 867 867 867 867 870 870 870 873 873 876 876 873 873 873 873 873 870 870 870 870 870 870 870 873 873 876 882 888 888 891 894 891 888 888 888 888 891 894 894 891 888 894 903 912 915 921 921 918 918 915 912 909 909 909 912 915 918 918 918 912 903 897 894 894 897 918 942 963 987 1011 1023 1032 1041 1047 1050 1059 1068 1077 1080 1080 1077 1071 1062 1056 1053 1050 1044 1041 1035 1032 1029 1047 1068 1089 1113 1134 1143 1146 1146 1143 1140 1134 1125 1116 1107 1098 1095 1104 1113 1128 1143 1161 1164 1164 1161 1152 1143 1131 1122 1110 1095 1080 1065 1047 1026 1008 993 975 954 933 918 906 894 891 891 888 888 888 891 894 897 906 915 924 933 945 951 957 963 963 966 960 948 939 930 921 921 936 951 963 972 978 966 957 945 933 921 915 909 909 915 921 933 948 963 972 981 987 993 999 1008 1023 1038 1059 1080 1104 1128 1155 1164 1170 1176 1173 1167 1158 1149 1140 1131 1125 1116 1113 1107 1101 1098 1092 1089 1083 1080 1074 1071 1071
873 873 873 873 873 873 873 873 873 873 873 870 870 870 870 870 870 870 870 873 879 879 879 879 876 873 873 873 873 873 870 870 867 867 867 867 867 867 864 864 864 864 864 864 864 864 864 864 864 864 864 864 864 864 864 864 864 864 864 864 864 864 864 864 864 864 864 864 864 864 864 864 864 864 864 864 864 867 867 867 867 867 867 867 867 867 867 867 867 867 867 867 867 867 867 864 864 864 864 864 864 867 867 867 867 867 867 867 867 864 864 864 864 864 864 864 864 864 864 864 864 864 864 864 867 867 867 867 867 867 867 867 867 867 867 867 867 867 867 867 867 867 867 867 867 867 867 867 867 867 870 870 870 870 870 870 870 867 867 867 867 867 867 867 867 867 867 870 870 867 867 867 867 867 867 867 867 867 867 867 867 870 870 870 870 870 870 870 870 867 867 867 867 870 870 870 870 870 873 873 873 873 873 873 873 870 870 870 870 870 870 870 870 870 873 876 882 888 888 891 894 891 891 888 888 885 888 891 891 888 885 891 897 906 909 915 918 918 918 915 915 915 918 918 921 924 927 927 927 921 909 900 894 891 891 909 927 948 969 993 1011 1032 1047 1056 1068 1074 1077 1080 1077 1074 1068 1062 1056 1050 1047 1041 1032 1026 1020 1017 1014 1038 1065 1089 1110 1131 1140 1140 1140 1140 1143 1143 1140 1134 1128 1122 1119 1131 1140 1155 1173 1191 1191 1188 1185 1173 1161 1149 1134 1119 1107 1092 1077 1056 1038 1023 1011 996 978 960 942 924 906 900 894 888 888 888 891 894 897 906 915 924 933 939 945 951 954 954 954 948 936 924 918 912 912 921 933 942 948 954 945 939 930 921 912 909 909 909 924 936 954 975 996 1005 1011 1017 1017 1020 1023 1032 1041 1056 1071 1086 1104 1119 1131 1140 1152 1161 1170 1167 1161 1155 1146 1137 1128 1122 1119 1113 1107 1101 1095 1092 1086 1083 1080 1080
876 873 873 870 870 870 870 870 873 873 873 873 870 870 870 870 867 867 867 867 867 870 867 867 867 867 867 867 867 867 867 867 867 867 867 867 867 867 867 867 867 867 864 864 864 864 864 864 864 864 864 864 864 864 864 864 864 864 864 864 864 864 864 864 864 864 864 864 864 864 864 864 864 864 864 864 864 867 867 867 867 867 867 867 867 867 867 867 867 867 867 867 867 867 864 864 864 864 864 864 864 867 867 867 867 867 867 867 867 867 867 864 864 864 864 864 864 864 864 864 864 864 864 864 864 864 867 867 867 867 867 867 867 867 867 867 867 867 867 867 867 867 867 867 867 867 867 867 867 867 867 870 870 870 870 870 867 867 867 867 867 867 867 867 867 867 867 870 870 870 867 867 867 867 867 867 867 867 867 867 867 870 870 870 870 870 870 870 870 867 867 867 870 870 870 870 870 870 873 873 873 873 873 873 870 870 870 870 870 870 870 870 870 870 873 876 882 885 888 891 891 891 891 891 888 885 888 888 888 888 885 888 894 897 906 912 918 918 918 918 918 918 921 924 927 927 930 930 930 927 915 903 894 888 885 897 909 927 948 969 996 1020 1041 1059 1074 1077 1074 1068 1065 1059 1056 1056 1053 1047 1041 1032 1020 1011 1005 1005 1005 1032 1062 1086 1104 1119 1125 1125 1122 1128 1131 1137 1140 1146 1143 1143 1143 1155 1167 1182 1200 1221 1218 1215 1206 1194 1179 1164 1149 1134 1119 1104 1089 1071 1053 1038 1026 1014 1002 990 972 948 927 912 897 888 888 888 891 891 894 903 912 921 927 933 939 942 945 942 939 933 921 912 906 903 900 906 909 912 915 918 918 915 912 909 906 906 906 909 918 930 948 972 996 1005 1014 1020 1020 1017 1020 1026 1029 1035 1041 1047 1059 1071 1089 1107 1125 1146 1170 1176 1173 1167 1161 1152 1146 1140 1134 1128 1122 1116 1110 1104 1098 1095 1089 1089
876 876 873 873 873 870 870 870 870 870 870 870 870 870 870 870 867 867 867 867 867 867 867 867 867 867 867 867 870 870 870 870 867 867 867 867 867 867 864 864 864 864 864 864 864 864 864 864 864 864 864 864 864 864 864 864 864 864 864 864 867 867 867 864 864 864 864 864 864 864 864 864 864 867 867 867 867 867 867 867 867 867 867 867 867 867 867 867 867 867 867 867 867 867 864 864 864 864 864 864 864 867 867 867 867 867 867 867 867 867 867 864 864 864 864 864 864 864 864 864 864 864 864 867 864 864 864 867 867 867 867 867 867 867 867 867 867 867 867 867 867 867 867 867 867 867 867 867 867 867 867 867 870 867 867 867 867 867 867 867 867 867 867 867 867 867 867 867 870 870 870 867 867 867 867 867 867 867 867 867 867 870 870 870 870 870 870 870 867 867 867 867 870 870 870 870 870 870 870 870 873 873 873 873 870 870 870 870 870 870 870 870 870 870 870 873 879 885 885 888 891 891 891 891 891 891 888 885 885 882 882 885 891 897 906 912 918 921 924 924 924 924 927 927 930 930 933 933 933 930 918 909 900 891 885 894 900 915 939 960 981 1005 1026 1038 1053 1059 1062 1062 1062 1059 1059 1056 1053 1044 1035 1023 1011 999 996 1002 1008 1035 1065 1089 1101 1116 1119 1116 1116 1119 1119 1122 1128 1134 1140 1146 1152 1167 1179 1194 1209 1224 1221 1218 1215 1203 1191 1176 1158 1140 1125 1110 1095 1080 1065 1056 1044 1035 1026 1014 996 972 948 927 906 891 891 888 891 891 894 900 906 912 918 924 927 933 933 930 927 921 912 903 906 906 909 915 921 921 921 921 915 912 909 909 906 909 909 909 915 921 936 957 981 990 999 1008 1008 1011 1014 1017 1023 1023 1023 1029 1035 1041 1059 1080 1104 1134 1167 1179 1179 1182 1176 1167 1161 1155 1149 1143 1137 1131 1125 1119 1113 1104 1098 1098
876 876 876 873 873 873 873 870 870 870 870 870 870 870 870 870 867 867 867 867 867 867 867 867 867 867 867 870 870 870 870 870 867 867 867 867 867 867 864 864 864 864 864 864 864 864 867 867 867 867 867 864 864 864 864 864 867 867 867 867 867 867 867 867 867 864 864 864 864 864 864 864 867 867 867 867 867 867 867 867 867 867 867 867 867 864 864 867 867 867 867 867 867 867 867 864 864 864 864 864 867 867 867 867 867 867 867 867 867 867 867 864 864 864 864 864 864 864 864 864 864 864 864 864 864 864 864 864 867 867 867 867 867 867 867 867 867 867 867 867 867 867 867 867 867 867 867 867 867 867 867 867 867 867 867 867 867 867 867 867 867 867 867 867 867 867 867 867 870 870 870 867 867 867 867 867 867 867 867 867 870 870 870 870 870 870 870 870 870 870 870 870 870 870 870 870 870 870 870 870 870 870 870 870 870 870 870 870 870 870 870 870 870 870 870 873 876 882 882 888 891 891 894 894 897 897 894 888 885 885 885 891 900 906 915 921 927 927 930 930 930 930 930 930 930 933 933 933 933 927 918 912 903 894 885 891 897 912 933 954 975 993 1011 1026 1038 1047 1053 1059 1059 1062 1059 1053 1050 1038 1026 1011 999 984 984 996 1008 1035 1065 1089 1098 1110 1110 1110 1110 1110 1107 1110 1116 1122 1131 1140 1152 1167 1182 1197 1206 1218 1218 1215 1212 1203 1191 1176 1158 1140 1125 1110 1095 1086 1074 1068 1062 1056 1044 1035 1017 993 969 942 918 897 894 891 891 891 894 897 900 903 909 915 918 921 924 918 915 909 906 900 912 921 930 942 954 954 951 948 936 927 921 918 918 918 918 918 915 915 924 939 954 966 975 984 990 996 1002 1011 1020 1020 1020 1023 1026 1029 1044 1062 1086 1125 1164 1179 1185 1191 1188 1182 1176 1170 1164 1158 1152 1146 1140 1134 1125 1116 1110 1110
873 876 876 876 876 873 873 870 870 870 870 870 870 870 870 870 867 867 867 867 867 867 867 867 867 867 867 870 873 873 873 873 870 867 867 867 867 867 867 867 867 864 864 864 864 864 867 867 867 867 867 867 864 864 864 864 864 867 867 867 867 867 867 867 867 867 867 867 867 867 864 867 867 867 867 867 867 867 867 867 867 867 867 867 867 867 864 864 867 867 867 867 867 867 867 864 864 864 867 867 867 867 867 867 867 867 867 867 867 867 867 867 864 864 864 864 864 864 864 864 864 864 864 864 864 864 864 867 867 867 867 867 867 867 867 867 867 867 867 867 867 867 867 867 867 867 867 867 867 867 867 867 867 867 867 867 867 867 867 867 867 867 867 867 867 867 867 867 870 870 870 867 867 867 867 867 867 867 867 870 870 870 870 870 870 870 870 870 870 870 870 870 870 870 870 870 870 870 870 870 870 870 870 870 870 870 870 870 870 870 870 870 870 870 870 873 876 882 882 888 891 891 894 897 900 903 897 891 888 891 891 900 912 921 927 930 933 933 933 933 933 933 936 936 933 933 930 930 930 927 918 912 903 894 888 891 894 909 930 951 969 984 999 1014 1026 1038 1047 1056 1059 1062 1059 1053 1044 1029 1014 999 984 969 972 990 1005 1035 1065 1086 1095 1101 1104 1101 1101 1101 1098 1101 1104 1107 1116 1125 1134 1152 1170 1182 1194 1203 1203 1203 1200 1188 1179 1164 1146 1125 1113 1098 1086 1080 1074 1074 1071 1068 1059 1050 1035 1011 990 960 930 909 900 894 891 891 891 894 894 897 900 903 906 909 912 909 906 906 912 915 936 960 978 990 1005 1005 1002 999 990 981 972 969 966 963 960 957 948 942 942 945 951 960 972 981 990 1002 1011 1017 1023 1023 1023 1023 1026 1029 1044 1056 1077 1116 1152 1176 1188 1203 1197 1194 1188 1179 1173 1167 1161 1155 1149 1143 1137 1128 1122 1122
873 873 873 873 873 873 873 870 870 870 870 870 870 870 870 870 870 867 867 867 867 867 867 867 867 867 867 870 873 873 873 873 870 867 867 867 867 867 867 867 867 864 864 864 864 864 867 867 867 867 867 867 864 864 864 867 867 867 867 867 867 867 867 867 867 867 867 867 867 867 864 864 867 867 867 867 867 867 867 867 867 867 867 867 864 864 864 864 864 867 867 867 867 867 864 867 867 867 867 867 867 867 867 867 867 867 867 867 867 867 867 867 867 867 864 864 864 864 864 864 864 864 864 864 864 867 867 867 867 867 867 867 867 867 867 867 867 867 867 867 867 867 867 867 867 867 867 867 867 867 867 867 867 867 867 867 867 867 867 867 867 867 867 867 867 867 867 867 867 870 870 867 867 867 867 870 870 870 870 870 870 870 870 870 870 870 870 870 870 870 870 870 870 870 870 870 870 870 870 870 870 870 870 870 870 870 870 870 870 870 870 870 870 870 870 873 876 882 882 888 891 894 894 894 897 900 897 894 894 897 900 909 921 930 933 936 939 939 939 939 939 936 936 936 933 930 927 927 924 921 918 912 906 897 888 888 891 900 921 939 957 972 987 1002 1017 1029 1041 1050 1053 1056 1056 1047 1041 1023 1005 987 972 960 963 984 1005 1029 1056 1077 1083 1089 1092 1089 1086 1086 1086 1089 1092 1098 1104 1110 1119 1134 1152 1164 1173 1185 1185 1182 1179 1167 1158 1140 1122 1107 1092 1080 1071 1068 1068 1068 1071 1074 1065 1059 1044 1026 1005 975 945 921 909 897 891 891 891 891 894 894 897 897 900 900 903 903 903 912 927 945 969 993 1014 1026 1041 1041 1041 1041 1032 1026 1020 1014 1008 1005 999 993 984 975 972 972 969 975 978 987 996 1008 1014 1017 1023 1026 1026 1029 1032 1035 1044 1053 1071 1107 1143 1173 1197 1218 1215 1212 1203 1191 1182 1173 1167 1161 1158 1152 1146 1137 1131 1131
873 873 873 873 873 873 873 873 870 870 870 870 870 870 870 870 870 870 870 870 867 867 867 867 870 870 870 870 873 873 873 873 870 867 867 867 867 867 867 867 867 864 864 864 864 864 864 867 867 867 867 864 864 864 864 867 867 867 867 867 867 867 867 867 867 867 867 867 864 864 864 864 864 867 867 867 867 867 867 867 867 867 867 864 864 864 864 864 864 864 867 867 867 864 864 867 867 867 867 867 867 867 867 867 867 867 867 867 867 867 867 867 867 867 864 864 864 864 864 864 864 864 867 867 867 867 867 867 867 867 867 867 867 867 867 867 867 867 867 867 867 867 867 867 867 867 867 867 867 867 867 867 867 867 867 867 867 867 867 867 867 867 867 867 867 867 867 867 867 867 867 867 867 867 867 867 867 867 867 870 870 870 870 870 870 870 870 870 870 870 870 870 870 870 870 870 870 870 870 870 870 870 870 870 870 870 870 870 870 870 870 870 870 870 870 870 873 876 879 885 885 888 888 891 894 894 897 900 900 900 903 909 918 927 933 936 939 939 939 936 933 930 930 930 930 927 927 924 921 921 918 915 906 897 891 888 888 894 909 924 942 957 972 987 1005 1017 1029 1044 1047 1050 1050 1041 1035 1017 996 978 963 951 957 981 1002 1026 1050 1068 1074 1080 1080 1077 1074 1074 1074 1074 1080 1086 1092 1098 1107 1119 1134 1146 1155 1164 1164 1161 1158 1146 1134 1119 1104 1086 1074 1062 1056 1056 1056 1062 1068 1071 1065 1062 1047 1032 1017 987 957 933 915 900 894 891 891 891 891 891 894 894 894 894 897 903 909 927 954 978 1002 1023 1041 1053 1062 1068 1068 1071 1068 1062 1059 1053 1047 1044 1038 1032 1026 1020 1014 1008 1005 1002 999 999 1005 1011 1014 1017 1017 1026 1032 1038 1041 1047 1050 1053 1068 1104 1137 1173 1206 1239 1236 1236 1227 1206 1188 1179 1170 1164 1158 1152 1149 1143 1137 1137
873 873 873 873 873 870 873 873 873 870 870 870 870 870 870 870 873 873 873 873 870 870 870 870 870 870 870 873 876 876 873 873 870 867 867 867 867 867 867 867 867 867 867 864 864 864 864 864 867 867 867 867 864 864 864 864 864 864 864 864 864 867 867 867 867 867 867 864 864 864 864 864 864 864 864 867 867 867 867 867 867 864 864 864 864 864 864 864 867 867 867 867 867 867 864 864 867 867 867 867 867 867 867 867 867 867 867 867 867 867 867 867 867 867 867 867 867 867 864 864 864 864 864 864 867 867 867 867 867 867 867 867 867 867 867 867 867 867 867 867 867 867 867 867 867 867 867 867 867 867 867 867 867 867 867 867 867 867 867 867 867 867 867 867 867 867 867 867 867 867 867 867 867 867 867 867 867 867 867 870 870 870 870 870 870 870 870 870 870 870 870 870 870 870 870 870 870 870 870 870 870 870 870 870 870 870 870 870 870 870 870 870 870 870 870 870 873 873 873 876 879 879 882 882 888 891 897 903 906 906 903 909 915 921 927 933 936 936 936 930 924 921 921 921 921 924 924 924 921 921 918 918 909 900 894 891 885 891 900 909 924 939 957 972 990 1005 1017 1032 1038 1044 1044 1038 1032 1011 990 972 960 948 954 975 999 1020 1044 1062 1068 1074 1071 1065 1062 1059 1056 1059 1068 1074 1083 1092 1101 1113 1122 1131 1140 1146 1143 1143 1137 1128 1119 1104 1089 1074 1059 1047 1038 1038 1038 1047 1056 1062 1059 1053 1044 1026 1011 984 957 936 921 903 897 894 894 894 894 894 894 894 894 894 900 912 927 948 975 1002 1017 1035 1050 1059 1071 1077 1080 1086 1086 1089 1086 1083 1080 1074 1068 1062 1053 1047 1041 1035 1032 1026 1017 1014 1017 1017 1020 1023 1026 1035 1044 1050 1050 1053 1056 1056 1065 1098 1128 1164 1200 1236 1233 1233 1224 1206 1188 1179 1170 1164 1158 1149 1146 1140 1137 1137
873 873 873 873 873 873 873 873 873 873 873 873 873 873 873 870 870 873 873 870 870 870 870 870 870 870 873 873 876 876 873 873 870 867 867 867 867 867 867 867 867 867 867 867 864 864 864 864 864 867 864 864 864 864 864 864 864 864 864 864 864 867 867 867 867 867 864 864 864 864 864 864 864 864 864 864 864 867 867 864 864 864 864 864 864 864 867 867 867 867 867 867 867 867 864 864 867 867 867 867 867 867 867 867 867 867 867 867 867 867 867 867 867 867 867 867 867 867 867 867 864 864 864 864 864 864 867 867 867 867 867 867 867 867 867 867 867 867 867 867 867 867 867 867 867 867 867 867 867 867 867 867 867 867 867 867 867 867 867 867 867 867 867 867 867 867 867 867 867 867 867 867 867 867 867 867 867 867 870 870 870 870 870 870 870 870 870 870 870 870 870 870 870 870 870 870 870 870 870 870 870 870 870 870 870 870 870 870 870 870 870 870 870 870 870 870 870 870 870 873 876 876 876 879 882 888 894 903 906 909 909 909 909 909 918 927 933 933 933 927 918 912 912 909 915 921 927 930 930 930 927 921 915 909 903 900 897 894 897 897 912 927 942 960 978 993 1008 1023 1029 1035 1035 1029 1023 1005 984 966 960 951 960 984 1008 1026 1044 1056 1059 1059 1056 1050 1047 1047 1044 1050 1059 1071 1080 1092 1101 1107 1110 1116 1119 1122 1122 1119 1113 1107 1098 1086 1074 1059 1041 1023 1014 1014 1014 1023 1035 1044 1041 1035 1023 1005 987 966 948 930 918 906 900 897 894 894 894 894 894 891 894 894 900 915 930 948 972 993 1008 1020 1032 1041 1050 1062 1074 1086 1095 1104 1110 1110 1110 1104 1098 1092 1086 1080 1071 1065 1059 1050 1041 1032 1029 1023 1026 1029 1035 1044 1053 1056 1059 1059 1059 1056 1065 1095 1122 1158 1197 1233 1233 1236 1227 1212 1194 1182 1173 1161 1152 1143 1140 1137 1134 1134
873 873 873 873 873 873 873 873 873 876 876 876 873 873 873 870 870 870 870 870 870 870 870 870 873 873 873 873 873 873 873 873 870 870 867 867 867 867 867 867 867 867 867 867 864 864 864 864 864 864 864 864 864 864 864 864 864 864 864 864 867 867 867 867 867 867 864 864 864 864 864 867 867 864 864 864 864 864 864 864 864 864 864 867 867 867 867 867 867 867 867 867 867 867 864 864 864 867 867 867 867 867 867 867 867 867 867 867 867 867 867 867 867 867 867 867 867 867 867 867 867 864 864 864 864 864 864 864 864 867 867 867 867 867 867 867 867 867 867 867 867 867 867 867 867 867 867 867 867 867 867 867 867 867 867 867 867 867 867 867 867 867 867 867 867 867 867 867 867 867 867 867 867 867 867 867 867 867 870 870 870 870 870 870 870 870 870 870 870 870 870 870 870 870 870 870 870 870 870 870 870 870 870 870 870 870 870 870 870 870 870 870 870 870 870 870 870 870 870 873 873 876 876 879 882 885 894 900 906 909 912 912 909 906 912 918 924 927 930 921 915 909 906 906 912 921 930 930 933 933 930 924 921 915 909 906 906 900 897 891 903 915 930 951 969 984 999 1014 1020 1026 1026 1020 1014 996 978 960 957 951 963 990 1014 1029 1041 1050 1047 1047 1044 1038 1035 1041 1044 1053 1062 1074 1086 1098 1104 1104 1101 1098 1098 1098 1095 1092 1086 1080 1074 1062 1053 1041 1020 996 987 987 987 999 1014 1023 1017 1008 993 975 954 945 933 924 915 906 900 897 894 894 894 891 891 891 894 894 900 912 921 936 954 969 978 987 996 1002 1011 1032 1053 1074 1095 1116 1128 1134 1137 1134 1131 1128 1119 1113 1104 1098 1089 1077 1065 1053 1041 1029 1029 1032 1038 1047 1059 1065 1065 1065 1062 1059 1065 1095 1122 1161 1200 1239 1242 1245 1239 1227 1215 1197 1176 1158 1146 1134 1128 1128 1125 1125
873 873 873 873 873 873 873 873 873 876 876 876 873 873 873 873 873 873 873 873 873 873 873 873 873 873 876 873 873 873 873 873 870 870 870 870 870 870 870 867 867 867 867 867 867 864 864 864 864 864 864 864 864 864 867 867 867 867 867 867 867 867 867 867 867 867 867 864 864 864 864 864 864 864 864 864 864 864 864 864 864 867 867 867 867 867 867 867 867 867 867 867 867 867 867 867 867 864 867 867 867 867 867 867 867 867 867 867 867 867 867 867 867 867 867 867 867 867 867 867 867 864 864 864 864 864 864 864 864 864 864 867 867 867 867 867 867 867 867 867 867 867 867 867 867 867 867 867 867 867 867 867 867 867 867 867 867 867 867 867 867 867 867 867 867 867 867 867 867 867 867 867 867 867 867 867 867 867 870 870 870 870 870 870 870 870 870 870 870 870 870 870 870 870 870 870 870 870 870 870 870 870 870 870 870 870 870 870 870 870 870 870 870 870 870 870 870 870 870 873 873 876 876 879 879 882 891 897 906 912 918 915 912 906 909 909 912 918 924 918 912 906 906 909 915 921 927 930 933 936 930 927 924 918 915 915 912 909 900 891 900 909 921 942 963 978 990 1005 1011 1017 1017 1011 1002 987 972 957 951 948 960 987 1014 1026 1035 1041 1038 1035 1032 1032 1035 1050 1065 1077 1083 1092 1098 1107 1113 1104 1098 1092 1080 1071 1065 1059 1050 1041 1035 1026 1014 1002 984 966 957 960 963 972 984 990 981 972 963 951 939 930 924 918 909 903 900 894 891 891 891 891 891 891 894 894 897 906 915 927 939 948 957 966 975 984 993 1017 1044 1068 1095 1122 1140 1155 1167 1167 1164 1161 1149 1137 1128 1122 1113 1101 1089 1077 1062 1047 1041 1038 1038 1047 1056 1059 1062 1062 1059 1056 1062 1092 1119 1158 1197 1233 1239 1245 1242 1230 1218 1194 1170 1146 1134 1122 1116 1113 1110 1110
876 876 876 873 873 873 873 873 873 876 876 876 873 873 873 873 873 873 876 876 876 876 873 873 873 876 876 873 873 873 873 873 873 870 870 870 870 870 870 870 867 867 867 867 867 867 867 867 867 867 867 867 867 867 867 867 867 867 867 867 867 867 867 867 867 867 867 867 867 864 864 864 864 864 864 864 864 864 867 867 867 867 867 867 867 867 867 867 867 867 867 867 867 867 867 867 867 864 867 867 867 867 867 867 867 867 867 867 867 867 867 867 867 867 867 867 867 867 867 867 867 867 864 864 864 864 864 864 864 864 864 867 867 867 867 867 867 867 867 867 867 867 867 867 867 867 867 867 867 867 867 867 867 867 867 867 867 867 867 867 867 867 867 867 867 867 867 867 867 867 867 867 867 867 867 867 867 870 870 870 870 870 870 870 870 870 870 870 870 870 870 870 870 870 870 870 870 870 870 870 870 870 870 870 870 870 870 870 870 870 870 870 870 870 870 870 870 870 870 873 873 876 876 876 879 882 891 900 909 915 921 921 921 918 915 909 909 912 915 912 909 909 912 915 918 921 924 927 927 930 930 930 924 918 909 906 900 894 891 888 894 903 918 936 954 969 981 993 999 1005 1002 996 990 975 963 951 948 945 957 984 1008 1017 1026 1032 1029 1023 1026 1035 1044 1065 1086 1101 1107 1116 1119 1122 1125 1116 1107 1092 1077 1062 1047 1035 1023 1014 1008 999 987 978 963 951 942 942 942 948 957 960 954 948 942 936 927 924 918 912 906 900 897 894 891 891 891 891 891 891 894 894 897 903 912 921 927 936 945 951 960 969 981 1005 1035 1065 1098 1128 1152 1170 1188 1191 1188 1185 1170 1155 1146 1143 1137 1125 1116 1104 1086 1068 1059 1053 1050 1053 1059 1059 1059 1059 1056 1053 1059 1089 1119 1152 1188 1224 1233 1242 1239 1227 1215 1191 1167 1143 1128 1116 1107 1101 1098 1098
876 876 876 876 873 873 873 873 873 876 876 873 873 873 873 873 873 876 876 876 876 876 876 876 876 876 876 873 873 873 873 873 873 870 870 870 870 870 870 870 870 867 867 867 867 867 867 867 867 867 867 867 867 867 867 864 864 864 864 864 867 867 867 867 867 867 867 867 867 864 864 864 864 864 864 864 867 867 867 867 867 867 867 867 867 867 867 867 867 867 867 867 867 867 867 867 864 864 864 864 864 867 867 867 867 867 867 867 867 867 867 867 867 867 867 867 867 867 867 867 867 867 867 867 867 867 864 864 864 864 867 867 867 867 867 867 867 867 867 867 867 867 867 867 867 867 867 867 867 867 867 867 867 867 867 867 867 867 867 867 867 867 867 867 867 867 867 870 867 867 867 867 867 867 867 867 867 870 870 870 867 870 870 870 870 870 870 870 870 870 870 870 870 870 870 870 870 870 870 873 870 870 870 870 870 870 870 870 870 870 870 870 870 870 870 870 870 870 870 873 873 876 876 876 879 882 891 900 909 915 921 924 924 924 918 915 909 906 903 903 903 906 912 918 921 921 924 924 924 924 924 927 921 912 906 897 891 885 885 885 894 900 912 930 945 960 972 981 987 990 987 981 975 966 954 945 945 942 954 978 999 1008 1017 1020 1017 1011 1023 1038 1053 1077 1104 1119 1128 1137 1140 1140 1137 1128 1116 1101 1083 1062 1044 1026 1011 1005 996 987 978 969 960 951 942 936 930 930 933 936 933 930 927 924 921 915 912 909 903 900 897 894 891 891 891 891 891 891 894 894 897 903 909 915 921 930 936 942 948 957 969 999 1032 1068 1101 1134 1164 1185 1206 1206 1206 1200 1182 1164 1158 1158 1155 1149 1143 1131 1113 1092 1086 1080 1074 1071 1068 1065 1059 1056 1053 1050 1056 1089 1119 1149 1182 1212 1224 1236 1236 1227 1218 1197 1176 1152 1137 1122 1113 1104 1098 1098
876 876 876 876 876 873 873 873 873 873 873 873 873 873 873 876 876 876 876 876 876 876 876 876 876 876 873 873 873 873 873 873 870 870 870 870 870 870 870 870 870 870 867 867 867 867 867 867 867 867 867 867 867 867 867 867 864 864 864 867 867 867 867 867 867 867 867 867 867 864 864 864 864 867 867 867 867 867 867 867 864 864 867 867 867 867 867 867 867 867 867 867 867 867 867 867 867 867 867 864 867 867 867 867 867 867 867 867 867 867 867 867 867 867 867 867 867 867 867 867 867 867 867 867 867 867 867 867 867 867 867 867 867 867 867 867 867 867 867 867 867 867 867 867 867 867 867 867 867 867 867 867 867 867 867 867 867 867 867 867 867 867 867 867 867 867 870 870 870 870 870 867 867 867 867 870 870 870 870 867 867 870 870 870 870 870 870 870 870 870 870 870 870 870 870 870 870 870 870 873 870 870 870 870 867 870 870 870 870 870 870 870 870 870 870 870 870 870 870 873 873 876 876 876 879 879 888 894 903 909 918 921 924 924 921 918 912 903 894 897 900 903 909 915 918 921 924 921 921 921 918 915 912 909 903 894 888 885 885 885 894 900 912 924 939 948 960 969 972 975 972 966 963 954 945 939 936 936 951 969 990 996 1002 1005 1002 999 1017 1038 1059 1083 1110 1128 1140 1152 1152 1152 1152 1143 1131 1119 1101 1086 1071 1056 1044 1032 1023 1014 1008 999 990 984 972 960 945 936 927 921 921 918 918 915 912 909 906 903 900 897 894 894 891 891 894 894 894 894 894 894 897 903 909 915 921 930 936 942 951 963 978 1008 1044 1077 1107 1134 1161 1185 1209 1212 1215 1212 1200 1188 1182 1179 1176 1170 1164 1152 1134 1116 1110 1104 1095 1089 1083 1077 1071 1065 1059 1056 1062 1089 1119 1146 1173 1200 1215 1227 1230 1224 1218 1203 1188 1170 1155 1137 1125 1116 1107 1107
876 876 876 876 876 876 873 873 876 876 876 876 876 876 876 879 879 879 879 879 879 879 879 879 876 876 876 873 873 873 873 873 870 870 870 870 870 870 870 870 870 870 870 867 867 867 867 867 867 867 867 867 867 867 867 867 867 864 867 867 867 867 867 867 867 867 867 867 867 867 864 867 867 867 867 867 867 867 867 867 864 864 867 867 867 867 867 867 867 867 867 867 867 867 867 867 867 867 867 867 867 867 867 867 867 867 867 870 870 867 867 867 867 864 864 864 864 864 864 864 864 867 867 867 867 867 867 867 867 867 867 867 867 867 867 867 867 867 867 867 867 867 867 867 867 867 867 867 867 867 867 867 867 867 867 867 867 867 867 867 867 867 870 870 870 870 870 870 870 870 870 870 870 870 870 870 870 870 870 870 870 870 870 870 870 870 870 870 870 870 870 870 870 870 870 870 870 870 870 873 870 870 870 870 867 870 870 870 870 870 870 870 870 870 870 870 870 870 870 873 873 876 879 879 879 879 882 888 891 897 903 906 909 912 912 912 906 897 888 891 894 897 900 903 906 909 915 915 915 915 912 912 909 906 900 894 888 885 885 885 894 903 912 924 936 945 951 957 960 960 960 954 951 942 936 930 930 930 939 954 972 978 984 987 990 993 1008 1026 1047 1074 1101 1122 1137 1149 1155 1158 1158 1149 1143 1131 1119 1107 1095 1086 1074 1062 1053 1044 1041 1032 1026 1017 1005 990 972 960 945 933 924 918 912 909 906 906 903 900 900 900 900 900 900 900 897 897 897 897 897 897 897 903 909 915 924 930 936 942 951 969 984 1014 1047 1080 1107 1134 1161 1185 1206 1215 1221 1221 1215 1209 1203 1200 1194 1191 1185 1173 1158 1143 1134 1125 1119 1110 1104 1098 1089 1083 1080 1074 1077 1101 1122 1146 1170 1194 1206 1218 1224 1224 1221 1212 1200 1188 1170 1155 1140 1128 1122 1122
876 876 876 876 876 876 876 876 876 876 876 876 876 879 879 882 882 879 879 882 882 882 882 882 879 876 876 876 873 873 873 873 873 873 873 870 870 870 870 870 870 870 870 870 867 867 867 867 867 867 867 867 867 867 867 867 867 867 867 867 867 867 867 867 867 870 867 867 867 867 867 867 867 867 867 867 867 867 867 867 867 867 867 867 867 867 867 867 867 867 867 867 867 867 867 867 867 867 867 867 867 867 867 867 867 867 867 867 867 867 867 867 867 867 864 864 864 864 864 864 864 864 867 867 867 867 867 867 867 867 867 867 867 867 867 867 867 867 867 867 867 867 867 867 867 867 867 867 867 867 867 867 870 870 870 867 867 867 867 867 867 870 870 870 870 870 870 870 870 870 870 870 870 870 870 870 870 870 870 870 870 870 870 870 870 870 870 870 870 870 870 870 870 870 870 870 870 870 870 870 870 870 870 870 870 870 870 870 870 870 870 870 870 870 870 870 870 870 870 876 879 885 891 891 891 891 894 897 900 903 906 909 912 912 912 909 903 894 885 888 888 891 894 897 900 903 909 909 912 912 909 906 906 903 900 894 888 885 885 885 894 903 915 924 933 939 945 948 948 951 948 945 939 933 927 921 924 924 933 942 954 960 966 972 981 987 1002 1020 1038 1065 1092 1113 1131 1146 1152 1158 1161 1155 1149 1143 1137 1128 1119 1113 1104 1095 1086 1080 1074 1068 1059 1050 1035 1020 1002 987 972 957 939 924 915 909 903 903 903 903 906 906 909 912 915 909 906 903 900 900 897 897 897 903 909 915 924 930 936 942 954 969 987 1014 1047 1077 1107 1134 1158 1179 1200 1209 1218 1224 1224 1224 1221 1218 1212 1209 1206 1197 1182 1170 1158 1149 1140 1134 1128 1125 1122 1122 1119 1116 1116 1128 1137 1152 1173 1194 1203 1215 1221 1221 1221 1215 1209 1200 1188 1176 1161 1149 1140 1140
876 876 876 876 876 876 876 876 879 879 882 882 879 879 882 882 882 879 879 882 882 882 882 882 882 879 879 879 879 876 876 873 873 876 876 873 873 873 870 870 870 870 870 870 870 870 867 867 870 870 870 870 870 867 867 867 867 867 867 867 870 870 870 870 870 867 867 867 867 867 867 867 867 867 867 867 867 867 867 867 867 867 867 867 867 867 867 867 867 867 867 867 867 867 867 867 867 867 867 867 867 867 867 867 867 867 867 867 867 867 867 867 867 867 867 864 864 864 864 864 864 864 867 867 867 867 867 867 867 867 867 867 867 867 867 867 867 867 867 867 867 867 867 867 867 867 867 867 867 867 867 867 867 870 870 867 867 867 867 870 870 870 870 870 870 870 870 870 870 870 870 870 870 870 870 870 870 870 870 870 870 870 870 870 870 870 870 870 870 870 870 870 870 870 867 867 867 867 867 870 870 870 870 870 870 870 870 870 870 870 870 870 870 870 870 870 870 870 870 882 888 897 906 909 912 912 915 918 921 921 924 924 921 921 915 912 903 894 885 885 882 885 888 891 897 900 906 909 912 912 909 906 900 897 894 891 885 885 885 885 894 903 912 921 927 933 936 939 939 942 939 936 930 927 921 915 918 921 927 939 951 954 960 966 975 984 999 1020 1038 1065 1089 1110 1125 1143 1149 1155 1161 1158 1158 1155 1152 1149 1143 1137 1131 1125 1119 1110 1104 1095 1083 1068 1053 1035 1014 1002 987 972 951 933 921 918 915 924 933 942 945 951 951 951 948 936 921 912 906 900 897 897 897 903 906 912 918 927 939 948 966 984 1005 1029 1056 1083 1107 1131 1152 1170 1191 1200 1209 1218 1218 1221 1224 1224 1227 1224 1221 1215 1203 1191 1182 1170 1161 1155 1149 1149 1152 1155 1158 1158 1161 1164 1164 1176 1188 1203 1209 1218 1221 1221 1221 1215 1209 1203 1194 1185 1176 1167 1161 1161
879 879 876 876 876 876 876 876 879 879 882 882 879 879 882 882 882 882 882 882 882 882 882 882 882 882 882 882 882 879 876 876 876 876 876 876 873 873 873 870 870 870 870 870 870 870 870 870 870 870 870 870 870 870 870 870 870 867 870 870 870 870 870 870 870 870 867 867 867 867 867 867 867 867 867 867 867 867 867 867 867 867 867 867 867 867 867 867 867 867 867 867 867 867 867 867 867 867 867 870 867 867 867 867 867 867 867 867 867 867 867 867 867 867 867 867 867 864 864 864 864 867 867 867 867 867 867 867 867 867 867 867 867 867 867 867 867 867 867 867 867 867 867 867 867 867 867 867 867 867 867 867 867 867 867 867 867 867 870 870 870 870 870 870 870 870 870 870 870 870 870 870 870 870 870 870 870 870 870 870 870 870 870 870 870 870 870 870 870 870 867 867 867 867 867 867 867 867 867 867 867 867 867 867 867 867 867 867 870 870 870 870 870 870 870 870 870 870 870 879 885 897 909 915 918 921 921 924 924 924 924 927 927 924 921 915 909 900 891 885 882 879 882 882 885 891 894 900 903 903 897 894 894 891 888 888 885 885 885 885 891 900 906 912 921 924 927 930 930 933 930 927 924 918 915 909 912 915 921 930 939 945 951 960 969 981 996 1017 1035 1059 1083 1101 1116 1131 1137 1143 1149 1149 1149 1152 1152 1155 1152 1149 1146 1140 1134 1128 1119 1110 1095 1080 1059 1038 1017 1002 990 978 963 945 942 942 942 954 966 975 981 987 984 978 972 954 933 921 912 903 900 900 897 900 906 912 921 930 948 966 987 1011 1032 1053 1071 1092 1110 1128 1143 1158 1173 1182 1194 1203 1209 1215 1218 1227 1233 1233 1233 1230 1221 1212 1200 1191 1182 1179 1173 1173 1179 1185 1191 1197 1197 1194 1191 1197 1206 1215 1218 1221 1221 1221 1218 1212 1209 1203 1197 1191 1188 1182 1179 1179
879 879 879 879 879 879 879 879 879 879 879 879 879 879 882 882 882 882 882 882 882 882 882 882 882 882 882 882 882 882 879 876 876 876 876 876 876 873 873 870 870 870 870 870 870 870 870 870 870 870 870 870 870 870 870 870 870 870 870 867 867 867 867 867 870 870 870 867 867 867 867 867 867 867 867 867 867 867 867 867 867 867 867 867 867 867 867 867 867 867 867 867 867 867 867 867 867 867 870 870 870 867 867 867 867 867 867 867 867 867 867 867 867 867 867 867 867 864 864 864 864 867 867 867 867 867 867 867 867 867 867 867 867 867 867 867 867 867 867 867 867 867 867 867 867 867 867 867 867 867 867 867 867 870 870 870 870 870 870 870 870 870 870 867 867 870 870 870 870 870 870 870 870 870 870 870 870 870 870 870 870 870 870 870 870 870 870 870 870 870 867 867 867 867 867 867 867 867 867 867 867 867 867 867 867 867 867 867 867 870 870 870 870 870 870 870 870 870 870 876 882 894 906 915 918 924 924 924 927 927 927 927 927 927 924 918 912 906 900 891 885 879 879 876 879 882 885 888 891 891 891 888 888 885 885 885 885 885 885 885 891 894 900 906 912 915 918 921 921 924 921 918 915 912 909 906 909 909 915 921 927 936 942 951 963 975 990 1008 1026 1050 1071 1089 1101 1116 1119 1125 1128 1131 1134 1140 1143 1149 1152 1152 1152 1146 1143 1134 1128 1119 1101 1083 1062 1035 1011 999 987 978 972 966 966 975 981 990 999 1005 1008 1008 1005 996 987 963 942 927 918 909 906 903 900 903 906 912 924 939 969 999 1026 1047 1068 1083 1098 1110 1119 1128 1134 1140 1143 1155 1167 1179 1188 1200 1209 1218 1224 1230 1233 1233 1227 1224 1215 1209 1203 1197 1194 1197 1203 1209 1212 1215 1215 1212 1209 1212 1218 1224 1224 1227 1224 1218 1215 1209 1203 1200 1197 1191 1185 1179 1176 1176
879 879 879 879 879 879 879 879 879 879 879 879 879 879 882 882 882 882 882 882 882 882 882 882 882 882 882 882 882 879 879 876 876 876 876 876 876 873 873 873 870 870 870 870 870 870 870 870 870 870 870 870 870 870 870 870 870 870 870 870 867 867 867 870 870 870 870 870 870 867 867 867 867 867 867 867 867 867 867 867 867 867 867 867 867 867 867 867 867 867 867 867 867 867 867 867 870 870 870 870 870 867 867 867 867 867 867 867 867 867 867 867 867 867 867 867 867 867 867 867 867 867 867 867 867 867 867 867 867 867 867 867 867 867 867 867 867 867 867 867 867 867 867 867 867 867 867 867 867 867 867 867 867 870 870 870 870 870 870 870 867 867 867 867 867 870 870 870 870 870 870 870 870 870 870 870 870 870 870 870 870 870 870 870 870 870 870 870 870 870 867 867 867 867 867 867 867 867 867 867 867 867 867 867 867 867 867 867 867 870 870 870 870 870 870 870 870 870 870 873 879 891 903 912 918 924 924 924 927 927 927 927 930 930 924 918 912 912 909 900 891 885 879 876 876 876 876 879 879 882 882 885 885 885 885 885 885 885 885 885 888 891 894 897 903 906 909 909 912 915 915 912 909 906 903 903 906 909 912 915 918 924 933 942 951 963 975 987 1002 1023 1047 1065 1077 1089 1092 1095 1098 1101 1107 1113 1122 1131 1137 1140 1143 1140 1137 1128 1119 1110 1092 1071 1053 1032 1011 999 990 984 987 987 993 999 1005 1011 1017 1023 1023 1026 1017 1005 993 969 945 930 918 906 903 903 900 903 903 915 930 948 978 1011 1038 1056 1074 1086 1095 1104 1110 1113 1116 1116 1119 1128 1140 1152 1164 1179 1191 1200 1212 1218 1224 1227 1227 1224 1221 1215 1212 1212 1212 1212 1215 1218 1218 1218 1215 1215 1215 1218 1221 1227 1227 1227 1224 1218 1209 1203 1200 1194 1188 1182 1179 1173 1170 1170
879 879 879 879 879 879 879 879 879 879 879 879 879 879 882 882 882 882 882 882 882 882 882 882 882 882 882 882 882 879 879 876 876 876 876 876 876 873 873 873 873 870 870 870 870 870 870 870 870 873 873 873 873 873 873 870 870 870 870 870 870 870 870 870 870 870 870 870 870 870 867 867 867 867 867 867 867 867 867 867 867 867 867 867 867 867 867 867 867 867 867 867 867 867 870 870 870 870 870 870 870 867 867 867 867 867 867 867 867 867 867 867 867 867 867 867 867 867 867 867 867 867 867 867 867 867 867 867 867 867 867 867 867 867 867 867 867 867 867 867 867 867 867 867 867 867 867 867 867 867 867 867 867 867 867 867 870 870 867 867 867 867 867 867 870 870 870 870 870 870 870 870 870 870 870 870 870 870 870 870 870 870 870 870 870 870 870 870 867 867 867 867 867 867 867 867 867 867 867 867 867 867 867 867 867 867 867 867 870 870 870 870 870 870 870 870 870 870 870 873 876 888 900 906 915 921 924 927 927 927 930 930 930 930 924 918 918 918 918 918 918 915 906 897 891 885 879 879 879 879 879 882 882 882 882 882 882 882 882 882 885 888 891 894 897 897 900 903 903 906 906 906 906 903 903 903 903 906 906 909 912 921 927 936 942 951 957 966 975 993 1011 1029 1041 1056 1059 1062 1065 1068 1074 1083 1095 1104 1113 1119 1125 1122 1122 1116 1110 1101 1080 1062 1044 1029 1011 1005 1002 999 1005 1011 1014 1020 1026 1032 1035 1035 1038 1038 1026 1014 999 975 948 930 918 903 903 900 900 903 906 918 939 960 990 1020 1044 1059 1074 1083 1089 1095 1098 1098 1098 1098 1098 1110 1122 1134 1149 1167 1179 1188 1200 1209 1218 1224 1224 1224 1221 1221 1218 1221 1221 1224 1224 1224 1221 1215 1212 1215 1215 1218 1221 1224 1224 1224 1221 1215 1209 1200 1194 1188 1182 1173 1170 1164 1161 1161
882 879 879 879 879 879 879 879 879 882 882 879 879 879 879 882 882 882 882 882 882 882 882 885 885 885 885 882 882 879 879 876 876 873 873 873 873 873 873 873 873 873 873 873 873 873 873 873 873 873 873 873 873 873 873 873 870 870 870 870 870 870 870 870 870 870 870 870 870 870 870 867 867 867 867 867 867 867 867 867 867 867 867 867 867 867 867 867 867 867 867 867 867 870 870 870 867 867 867 867 867 867 867 867 867 867 867 867 867 867 867 867 867 867 867 867 867 867 867 867 864 864 867 867 867 867 867 867 867 867 867 867 867 867 867 867 867 867 867 867 867 867 867 867 867 867 867 867 867 867 867 867 867 867 867 867 867 867 867 870 870 870 870 870 870 870 870 870 870 870 870 870 870 870 870 870 870 870 870 870 870 870 870 870 870 870 870 867 867 867 867 867 867 867 867 867 867 867 867 867 867 867 867 867 867 867 867 867 867 870 870 870 870 870 870 870 870 870 870 870 876 885 894 903 909 918 921 924 924 927 930 933 936 936 933 930 933 939 945 951 954 954 945 933 921 906 891 885 879 879 879 879 882 882 882 882 882 882 882 882 882 885 885 888 891 891 894 897 897 900 900 900 900 900 900 900 900 903 903 906 912 918 924 930 936 939 942 945 948 963 978 993 1005 1017 1023 1026 1032 1035 1038 1047 1059 1071 1083 1092 1101 1101 1104 1101 1095 1089 1071 1053 1038 1026 1011 1014 1017 1020 1026 1032 1038 1041 1044 1047 1047 1047 1044 1044 1032 1020 1005 978 951 930 915 900 900 900 900 903 909 927 954 981 1005 1029 1047 1059 1068 1074 1080 1086 1083 1080 1083 1086 1089 1104 1122 1137 1155 1173 1182 1191 1200 1209 1215 1221 1224 1227 1227 1224 1224 1224 1224 1224 1224 1224 1221 1218 1215 1215 1212 1209 1209 1209 1209 1212 1215 1212 1209 1206 1200 1194 1188 1179 1167 1158 1149 1149
882 882 879 879 879 879 879 879 879 879 882 879 879 879 879 879 879 879 882 882 882 885 885 882 885 885 882 882 882 879 879 876 876 876 876 876 873 873 873 873 873 873 873 873 873 873 873 873 873 873 873 873 873 873 873 873 873 873 873 873 873 873 873 873 873 873 873 870 870 870 870 867 867 867 867 867 867 867 867 867 867 867 867 867 867 867 867 867 867 867 867 867 870 870 870 867 867 867 867 867 867 867 867 867 867 867 867 867 867 867 867 867 867 867 867 867 867 867 867 867 864 864 867 867 867 867 867 867 867 867 867 867 867 867 867 867 867 867 867 867 867 867 867 867 867 867 867 867 867 867 867 870 870 867 867 867 867 867 867 870 870 870 870 870 870 870 870 870 870 870 870 870 870 870 870 870 870 870 870 870 870 870 870 870 870 870 870 870 867 867 867 867 867 867 867 867 867 867 867 867 867 867 867 867 867 867 867 867 867 867 867 867 867 870 870 870 870 870 870 870 873 882 888 897 903 912 912 915 918 921 927 933 942 951 954 957 966 978 990 996 999 1002 993 987 966 942 918 903 888 879 882 882 882 882 882 882 879 879 879 879 882 882 882 885 888 888 891 891 894 897 897 897 897 897 900 900 900 900 900 906 909 915 921 927 927 927 930 933 939 951 963 972 984 993 996 1002 1002 1002 1002 1011 1023 1035 1047 1059 1068 1071 1074 1074 1068 1065 1050 1038 1029 1026 1023 1032 1044 1050 1056 1059 1059 1059 1056 1050 1041 1038 1035 1032 1023 1008 993 966 939 921 909 900 900 903 903 906 909 927 951 975 1002 1026 1044 1053 1062 1068 1071 1074 1071 1068 1071 1080 1089 1110 1128 1146 1164 1179 1188 1194 1203 1209 1218 1221 1221 1221 1221 1221 1218 1221 1221 1218 1218 1218 1218 1218 1215 1209 1203 1194 1188 1182 1194 1203 1206 1209 1212 1209 1206 1203 1191 1182 1170 1155 1146 1146
882 882 882 882 882 882 882 882 882 879 879 879 879 879 879 879 879 879 879 882 882 885 882 882 882 882 882 882 879 879 876 876 876 876 876 876 876 876 876 876 876 873 873 876 876 873 873 873 873 873 873 873 873 873 873 873 873 873 873 873 873 873 873 873 873 873 873 870 870 870 870 867 867 867 867 867 867 867 867 867 867 867 867 867 867 867 867 867 867 870 870 870 867 867 867 867 867 867 867 867 867 867 867 867 867 867 867 867 867 867 867 867 867 867 867 867 867 867 867 867 867 867 867 867 867 867 867 867 867 867 867 867 867 867 867 867 867 867 867 867 867 867 867 867 867 867 867 867 867 867 867 870 867 867 867 867 867 867 867 867 867 867 867 870 870 870 870 870 870 870 870 870 870 870 870 870 870 870 870 870 870 870 870 870 870 870 870 870 870 870 870 870 867 867 867 867 867 867 867 867 867 867 867 867 867 867 867 867 867 870 870 870 870 870 870 870 870 870 870 870 873 876 879 885 888 891 894 897 903 918 930 942 948 957 957 960 969 981 996 1005 1017 1023 1017 1011 987 960 936 915 897 885 885 882 882 882 882 882 879 879 879 879 882 882 882 882 885 885 888 891 891 894 894 897 897 897 897 897 897 897 900 903 906 909 915 918 918 918 921 924 927 936 945 954 963 969 972 975 975 975 972 978 990 999 1014 1026 1038 1047 1053 1053 1050 1047 1038 1029 1029 1035 1041 1056 1068 1080 1083 1086 1083 1077 1071 1059 1047 1038 1035 1029 1017 999 981 954 927 912 906 903 906 912 918 915 915 927 945 963 990 1017 1038 1047 1059 1062 1062 1062 1062 1059 1068 1083 1098 1116 1137 1155 1167 1179 1185 1194 1203 1206 1212 1212 1212 1209 1209 1209 1209 1212 1212 1212 1212 1212 1212 1212 1209 1200 1191 1179 1167 1158 1176 1191 1200 1206 1212 1212 1209 1206 1194 1182 1170 1158 1149 1149
882 882 882 882 882 882 882 882 882 882 879 879 879 879 879 879 879 879 879 882 882 882 882 882 882 882 882 879 879 876 876 876 876 876 876 876 876 876 876 873 873 873 873 876 876 873 873 873 873 873 873 873 876 876 876 876 876 873 873 873 873 873 873 873 873 873 873 870 870 870 870 867 867 867 867 867 867 867 867 867 867 867 867 867 867 867 867 867 870 870 867 867 867 867 867 867 867 867 867 867 867 867 867 867 867 867 867 867 867 867 867 867 867 867 867 867 867 867 867 867 867 867 864 867 867 867 867 867 867 867 867 867 867 867 867 867 867 867 867 867 867 867 867 867 867 867 867 867 867 867 867 867 867 867 867 867 867 867 867 867 867 867 867 870 870 870 870 870 870 870 870 870 870 870 870 870 870 870 870 870 867 870 870 870 870 870 870 870 870 870 870 870 870 870 867 867 867 867 867 867 867 867 867 867 867 867 867 870 870 870 870 870 870 870 870 870 870 870 870 870 870 873 876 876 876 879 882 888 900 921 939 951 957 963 963 960 969 987 1002 1017 1032 1038 1032 1026 1002 975 948 927 903 891 888 885 885 882 882 882 879 879 879 879 879 882 882 882 882 885 885 888 891 891 894 894 894 894 894 897 897 897 897 900 900 903 906 909 909 909 912 915 918 924 930 936 942 948 948 951 951 948 948 954 960 969 984 999 1011 1026 1041 1041 1041 1041 1038 1035 1041 1053 1065 1080 1095 1107 1107 1107 1104 1098 1089 1077 1062 1053 1044 1038 1017 996 972 948 921 909 909 912 921 933 939 933 927 930 933 939 972 1002 1026 1041 1056 1059 1059 1059 1062 1065 1077 1095 1110 1125 1140 1152 1158 1164 1173 1179 1188 1188 1191 1188 1182 1176 1182 1188 1194 1200 1203 1206 1206 1209 1209 1212 1209 1197 1188 1173 1161 1152 1170 1185 1197 1200 1206 1206 1203 1197 1185 1170 1161 1155 1149 1149
882 882 882 882 882 882 882 882 882 882 882 882 882 879 879 879 879 879 882 882 882 882 882 885 882 882 879 879 879 879 876 876 876 876 876 876 876 876 876 876 876 873 876 876 876 876 873 873 873 873 873 876 876 876 876 876 876 876 876 876 873 873 873 873 873 873 873 873 870 870 870 870 867 867 867 867 867 867 867 867 867 867 867 867 867 867 867 867 867 867 867 867 867 867 867 867 867 867 867 867 867 867 867 867 867 867 867 867 867 867 867 867 867 867 867 867 867 867 867 867 867 867 867 867 867 867 867 867 867 867 867 867 867 867 867 867 867 867 867 867 867 867 867 867 867 867 867 867 867 867 867 867 867 867 867 867 867 867 867 867 867 867 867 870 870 870 870 870 870 870 870 870 870 870 870 870 870 870 870 870 870 870 870 870 870 870 870 870 870 870 870 870 870 870 870 867 867 867 867 867 867 867 867 867 867 867 867 867 867 870 870 870 870 870 870 870 870 870 870 870 870 870 873 873 873 876 885 894 909 930 954 963 972 975 972 966 978 996 1017 1032 1044 1050 1041 1032 1008 981 954 930 909 894 891 885 885 882 882 882 879 879 879 879 882 882 885 885 885 885 888 888 891 891 891 891 891 891 891 894 894 894 897 897 897 897 900 900 903 903 906 906 909 915 918 924 927 933 933 936 936 939 945 954 969 984 996 1008 1020 1032 1044 1047 1050 1053 1050 1050 1056 1068 1083 1095 1110 1122 1122 1122 1113 1104 1092 1080 1065 1053 1044 1032 1011 990 966 942 918 915 927 936 951 963 969 960 951 942 933 927 954 981 1005 1026 1044 1050 1050 1053 1062 1068 1083 1101 1116 1128 1137 1146 1149 1152 1158 1164 1167 1167 1170 1167 1167 1167 1170 1176 1182 1185 1188 1194 1197 1200 1203 1206 1203 1191 1179 1167 1155 1149 1161 1176 1185 1191 1194 1191 1188 1182 1173 1164 1158 1155 1155 1155
885 885 882 882 882 882 882 882 882 882 882 882 882 882 882 882 882 882 882 882 882 885 885 885 882 882 879 879 879 879 879 876 876 876 876 876 876 876 876 876 876 876 876 876 876 876 876 876 876 876 876 876 876 876 876 876 876 876 876 876 876 873 873 873 873 873 873 873 873 870 870 870 867 867 867 867 867 867 867 867 867 867 867 867 867 867 867 867 867 867 867 867 867 864 864 867 867 867 867 867 867 867 867 867 867 867 867 867 867 867 867 867 867 867 867 867 867 867 867 867 867 867 867 867 867 867 867 867 867 867 867 867 867 867 867 867 867 867 867 867 867 867 867 867 867 867 867 867 867 867 867 867 867 867 867 867 867 867 867 870 870 870 870 870 870 870 870 870 870 870 870 870 870 870 870 867 870 870 870 870 870 870 870 870 870 873 873 873 870 870 870 870 870 870 870 870 867 867 867 867 867 867 867 867 867 867 867 867 867 867 870 870 870 870 870 870 870 870 870 870 870 870 870 873 873 876 894 909 930 954 978 978 978 975 972 969 984 1011 1038 1047 1059 1062 1050 1038 1011 981 951 930 909 897 894 888 888 885 885 882 879 879 879 879 882 885 888 888 891 891 891 891 891 891 891 891 888 891 891 891 894 897 897 894 894 894 897 897 900 900 900 903 903 906 909 912 915 918 921 924 927 936 945 960 978 993 1005 1017 1029 1041 1053 1059 1062 1065 1065 1065 1071 1086 1101 1113 1128 1134 1131 1128 1119 1107 1095 1080 1065 1050 1035 1023 999 975 954 936 918 921 942 963 978 990 996 984 975 957 939 924 942 960 981 1005 1029 1035 1041 1047 1062 1074 1089 1104 1122 1128 1137 1140 1143 1143 1146 1149 1149 1152 1152 1155 1161 1167 1167 1170 1170 1173 1173 1179 1185 1191 1197 1200 1197 1182 1170 1161 1152 1146 1155 1167 1173 1176 1176 1173 1170 1167 1164 1161 1161 1161 1164 1164
885 885 885 885 882 882 882 882 882 882 882 882 882 882 882 882 882 882 882 882 882 885 885 885 882 882 882 879 879 879 879 879 879 879 876 876 876 876 876 876 876 876 876 876 876 876 876 876 876 876 876 876 876 876 876 876 876 876 876 876 876 876 873 873 873 873 873 873 873 870 870 870 867 867 867 867 867 867 867 867 867 867 867 867 867 867 867 867 867 867 867 867 867 864 864 867 867 867 867 867 867 867 867 867 867 867 867 867 867 867 867 867 867 867 867 867 867 867 867 867 867 867 867 867 867 867 867 867 867 867 867 867 867 867 867 867 867 867 867 867 867 867 867 867 867 867 867 867 867 867 867 867 867 867 867 867 867 867 867 870 870 870 870 870 870 870 870 870 870 870 870 870 870 870 870 867 870 870 870 870 870 870 870 870 870 873 873 873 873 873 873 870 870 870 870 870 870 867 867 867 867 867 867 867 867 867 867 867 867 867 867 870 870 870 870 870 870 870 870 870 870 870 870 873 876 879 903 927 951 975 999 996 990 984 987 987 1002 1032 1059 1065 1074 1071 1056 1041 1011 978 945 927 909 900 894 891 888 888 885 885 882 879 879 879 885 888 891 894 897 897 894 894 891 891 891 888 888 888 891 891 894 897 897 894 894 894 894 894 897 897 900 900 903 903 906 906 909 912 915 918 924 936 951 966 984 1002 1014 1026 1038 1050 1065 1071 1074 1080 1080 1080 1089 1107 1122 1134 1143 1149 1140 1131 1119 1107 1092 1077 1059 1041 1023 1005 981 954 933 924 915 927 954 981 996 1008 1014 1008 999 981 957 939 942 948 960 981 1005 1017 1029 1041 1059 1077 1092 1107 1122 1131 1137 1143 1143 1146 1146 1146 1149 1152 1155 1158 1164 1167 1164 1158 1155 1158 1161 1164 1173 1179 1179 1179 1176 1164 1152 1149 1146 1146 1152 1161 1164 1167 1167 1167 1170 1170 1170 1173 1176 1182 1188 1188
885 885 885 885 885 882 882 882 882 882 882 882 882 882 882 882 882 882 882 882 885 885 885 885 885 882 882 882 879 879 879 879 879 879 879 876 876 876 876 876 876 876 876 876 876 876 876 876 876 876 876 876 876 876 876 876 876 876 876 876 876 876 873 873 873 873 873 873 873 870 870 870 870 867 867 867 867 867 867 867 867 867 867 867 867 867 867 867 867 867 867 867 867 867 867 867 867 867 867 867 867 867 867 867 867 867 867 867 867 867 867 867 867 867 867 867 867 867 867 867 867 867 867 867 867 867 867 867 867 867 867 867 867 867 870 870 870 870 867 867 867 867 867 867 867 867 867 867 867 867 867 867 867 867 867 867 867 867 867 870 870 870 870 870 870 870 870 870 870 870 870 867 867 867 867 867 870 870 870 870 870 870 870 873 873 873 873 873 876 876 876 873 873 873 870 870 870 870 867 867 867 867 867 867 867 867 867 867 867 867 867 870 870 870 870 870 870 870 870 870 870 870 870 873 876 885 915 945 972 993 1017 1017 1011 1011 1017 1020 1038 1059 1083 1086 1089 1080 1059 1041 1008 972 942 927 912 903 900 894 894 891 888 885 882 882 882 882 885 888 894 900 909 906 903 900 897 891 888 891 891 891 891 894 894 894 894 894 891 894 894 897 900 900 903 903 906 906 903 906 906 909 912 915 921 936 951 972 996 1017 1029 1041 1053 1068 1080 1086 1092 1095 1098 1101 1110 1122 1137 1143 1152 1155 1146 1137 1125 1110 1092 1074 1053 1032 1008 987 963 939 921 924 930 948 978 1008 1020 1032 1038 1026 1017 996 972 948 942 936 945 966 987 1005 1020 1035 1053 1068 1083 1095 1110 1119 1128 1134 1134 1137 1140 1143 1146 1152 1158 1161 1161 1161 1158 1152 1146 1149 1152 1155 1161 1164 1164 1164 1161 1158 1152 1149 1146 1143 1149 1155 1161 1161 1164 1167 1173 1176 1182 1185 1191 1197 1200 1200
888 885 885 885 885 885 885 885 885 885 885 882 882 882 882 882 882 882 882 885 885 885 885 885 885 885 882 882 882 882 879 879 879 879 879 879 879 879 879 879 879 876 876 876 876 876 876 876 876 876 876 876 876 876 879 879 876 876 876 876 876 876 873 873 873 873 873 873 873 873 870 870 870 867 867 867 867 867 867 867 867 867 867 867 867 867 867 867 867 867 867 867 867 867 867 867 867 867 867 867 867 867 867 867 867 867 867 867 867 867 867 867 867 867 867 867 867 867 867 867 867 867 867 867 867 867 867 867 867 867 867 867 867 870 870 870 870 870 870 867 867 867 867 867 867 867 867 867 867 867 870 870 870 870 870 867 867 867 867 867 867 870 870 870 870 870 870 870 870 870 867 867 867 867 867 870 867 867 867 870 870 870 873 873 873 870 873 873 876 876 876 876 873 873 873 873 870 870 870 867 867 867 867 867 867 867 867 867 867 870 870 870 870 870 870 870 870 870 870 870 870 870 870 876 879 888 921 954 984 1008 1032 1035 1038 1041 1047 1053 1068 1086 1101 1098 1095 1083 1062 1041 1011 978 951 933 918 909 903 900 897 894 891 885 882 882 882 882 888 894 900 909 915 912 906 900 894 891 888 888 888 891 891 894 894 891 891 891 894 900 906 909 915 921 924 924 927 927 924 924 921 921 924 924 933 945 960 984 1011 1038 1053 1068 1080 1092 1101 1104 1110 1113 1119 1122 1131 1140 1149 1152 1155 1155 1146 1137 1122 1107 1089 1068 1044 1020 996 969 948 927 915 933 948 975 1005 1035 1044 1056 1059 1047 1035 1011 984 960 945 930 933 954 975 990 1008 1023 1038 1053 1065 1077 1089 1098 1110 1119 1122 1128 1131 1137 1140 1149 1155 1158 1158 1155 1149 1143 1140 1143 1146 1146 1149 1149 1152 1152 1155 1155 1158 1155 1149 1143 1149 1152 1155 1161 1167 1173 1179 1188 1194 1200 1203 1206 1209 1209
888 888 885 885 885 885 885 885 885 885 885 885 885 885 885 885 882 882 882 885 885 885 885 888 888 885 885 885 885 882 882 882 882 879 879 879 879 879 879 879 879 879 879 879 879 879 879 879 879 879 879 879 879 879 879 879 879 879 876 876 876 876 873 873 873 873 873 873 873 873 873 870 870 867 867 867 867 867 867 867 867 867 867 867 867 867 867 867 867 867 867 867 867 867 867 867 867 867 867 867 867 867 867 867 867 867 867 867 867 867 867 867 867 867 867 867 867 867 867 867 867 867 867 867 867 867 867 867 867 867 867 867 867 870 870 870 870 870 870 870 870 870 867 867 867 867 867 867 867 870 870 870 870 870 870 870 870 867 867 867 870 870 870 870 870 870 870 870 870 867 867 867 867 867 870 870 867 867 867 870 870 870 870 873 870 870 870 873 876 876 876 876 876 873 873 873 873 870 870 870 867 867 867 867 867 867 867 867 870 870 870 870 870 867 867 867 867 870 870 870 870 870 870 876 882 894 927 960 990 1017 1044 1053 1062 1068 1077 1086 1095 1107 1119 1110 1098 1086 1065 1044 1020 993 966 948 927 915 909 903 900 897 891 888 885 882 882 885 891 897 906 912 921 915 909 900 894 888 885 885 885 891 894 897 894 894 894 894 894 906 921 933 942 951 954 960 963 963 963 960 951 945 945 945 951 966 978 1005 1032 1062 1083 1107 1119 1122 1125 1128 1128 1134 1140 1146 1152 1158 1164 1161 1158 1152 1140 1128 1113 1098 1080 1059 1035 1011 981 951 939 927 924 951 978 1005 1035 1062 1071 1077 1077 1065 1053 1029 1002 972 951 930 927 942 954 972 990 1005 1017 1029 1044 1056 1068 1077 1089 1101 1110 1119 1122 1128 1131 1134 1140 1143 1146 1146 1143 1140 1137 1137 1137 1137 1140 1140 1143 1149 1152 1155 1158 1155 1152 1149 1152 1155 1155 1155 1155 1164 1170 1179 1188 1200 1203 1203 1206 1206
888 888 885 885 885 885 885 885 885 885 885 885 885 885 885 885 885 885 885 885 885 885 885 885 885 885 885 885 885 885 882 882 882 882 879 879 879 879 879 879 879 879 879 879 879 879 879 879 879 879 879 879 879 879 879 879 879 879 876 876 876 876 876 876 873 873 873 873 873 873 873 870 870 867 867 867 867 867 867 867 867 867 867 867 867 867 867 867 867 867 867 867 867 867 867 867 867 867 867 867 867 867 867 867 867 867 867 867 867 867 867 867 867 867 867 867 867 867 867 867 870 867 867 867 867 867 867 867 867 867 867 867 867 870 870 870 870 870 870 870 870 870 870 867 867 867 867 867 870 870 870 870 870 870 870 870 870 870 870 870 870 870 870 870 870 870 870 867 867 867 867 867 870 870 870 870 867 867 867 870 870 870 870 870 870 870 870 870 873 873 876 876 876 876 873 873 873 870 870 870 870 867 867 867 867 867 870 870 870 870 870 870 867 867 867 867 867 867 867 870 870 870 870 876 885 897 927 960 990 1020 1047 1065 1080 1095 1104 1113 1119 1125 1131 1119 1104 1092 1074 1056 1035 1017 993 969 942 927 918 906 903 897 894 888 885 885 885 885 894 900 906 912 921 915 906 900 894 888 888 888 891 894 897 900 897 897 900 900 906 927 945 963 972 984 990 993 999 999 1002 1002 996 990 993 996 999 1008 1017 1032 1050 1071 1092 1116 1131 1137 1140 1146 1149 1155 1161 1167 1170 1170 1170 1164 1155 1146 1131 1113 1098 1083 1065 1041 1017 993 966 939 936 936 945 972 999 1026 1053 1077 1086 1092 1092 1077 1065 1041 1011 984 963 939 936 948 963 978 993 1008 1020 1029 1041 1053 1065 1077 1092 1104 1113 1125 1128 1128 1128 1128 1128 1131 1134 1137 1140 1140 1140 1140 1140 1137 1137 1137 1140 1143 1146 1149 1149 1149 1149 1149 1152 1155 1155 1152 1152 1155 1161 1170 1185 1197 1203 1206 1206 1206
888 888 888 888 885 885 885 885 885 885 885 885 885 885 885 885 885 888 885 885 885 885 885 885 885 885 885 885 885 885 885 882 882 882 882 882 882 882 882 882 882 882 882 882 879 879 879 879 879 879 879 879 879 879 879 879 879 879 879 876 876 876 876 876 876 873 873 873 873 873 873 870 870 870 870 870 870 870 870 870 867 867 867 867 867 867 867 867 867 867 867 867 867 867 867 867 867 867 867 867 867 867 867 867 867 867 867 867 867 867 867 867 867 867 867 867 867 867 867 870 870 870 870 870 870 867 867 867 867 867 867 867 870 870 870 870 870 870 870 870 870 867 867 867 867 867 867 867 870 870 870 870 870 870 867 867 870 870 870 870 870 870 870 870 870 870 867 867 867 867 867 867 867 867 870 870 870 870 870 870 867 870 870 870 870 870 870 870 870 873 873 876 876 876 876 873 873 873 870 870 870 867 867 867 867 867 867 870 870 870 870 870 867 867 867 867 867 867 867 870 870 870 870 876 885 897 930 963 993 1023 1050 1071 1089 1107 1119 1131 1137 1140 1140 1125 1110 1095 1077 1062 1044 1029 1011 987 963 942 927 912 906 900 894 891 885 885 885 888 894 903 909 912 918 912 906 900 897 891 891 894 897 903 906 909 906 906 909 912 921 942 966 984 996 1005 1011 1017 1023 1026 1032 1032 1029 1026 1029 1032 1038 1044 1053 1062 1074 1086 1107 1131 1146 1155 1164 1170 1176 1179 1182 1182 1179 1176 1170 1158 1146 1131 1113 1098 1080 1065 1047 1020 996 972 954 933 939 951 966 996 1023 1047 1068 1092 1098 1104 1101 1086 1071 1047 1017 990 969 945 942 957 972 987 1002 1017 1026 1035 1047 1059 1071 1086 1101 1116 1125 1137 1134 1131 1128 1125 1119 1122 1125 1128 1134 1140 1143 1143 1143 1143 1140 1137 1137 1137 1137 1137 1140 1143 1143 1146 1149 1152 1152 1152 1149 1155 1158 1164 1182 1197 1206 1209 1212 1212
888 888 888 888 888 888 888 888 888 888 888 888 888 888 888 888 888 888 888 885 885 885 885 885 885 885 885 885 885 885 885 882 882 882 882 882 882 882 882 882 882 882 882 882 882 882 882 882 882 882 882 879 879 879 879 879 879 879 879 879 876 876 876 876 876 876 876 876 873 873 873 873 873 873 873 870 870 870 870 870 870 867 867 867 867 867 867 867 867 867 867 867 867 867 867 867 867 867 867 867 867 867 867 867 867 867 867 867 867 867 867 867 867 867 867 867 867 867 867 867 867 870 870 870 870 870 870 870 870 870 870 870 870 870 870 870 870 870 870 870 867 867 867 867 867 867 867 867 870 870 870 870 870 870 867 867 870 870 870 870 870 870 870 870 870 867 867 867 867 867 867 867 867 867 870 870 870 870 870 870 867 867 870 870 870 870 870 870 870 870 873 873 873 873 873 873 873 873 873 870 870 870 867 867 867 867 870 870 867 867 867 867 867 867 867 867 867 867 867 870 870 870 870 876 882 894 927 963 993 1023 1053 1074 1092 1110 1125 1140 1146 1149 1149 1131 1116 1098 1083 1065 1050 1038 1026 1005 984 963 942 918 912 903 897 891 888 888 888 891 897 903 909 909 912 909 903 897 897 897 897 903 906 912 918 921 918 918 921 927 936 960 981 999 1011 1020 1026 1032 1038 1044 1050 1053 1050 1050 1053 1056 1062 1071 1083 1092 1098 1110 1128 1149 1167 1182 1197 1203 1209 1209 1200 1191 1182 1170 1158 1143 1125 1110 1092 1077 1059 1041 1023 999 975 957 945 933 951 969 990 1017 1044 1065 1086 1104 1107 1113 1107 1092 1077 1047 1014 981 957 930 927 942 960 975 993 1011 1026 1041 1056 1074 1089 1101 1113 1122 1128 1137 1137 1137 1137 1131 1125 1122 1125 1125 1131 1140 1143 1146 1146 1143 1137 1131 1131 1131 1131 1134 1137 1140 1143 1146 1149 1152 1152 1149 1146 1149 1149 1155 1173 1191 1200 1203 1209 1209
891 888 888 888 888 888 888 888 888 888 888 888 888 888 888 888 888 888 885 885 885 885 885 885 885 885 885 885 885 885 882 882 882 882 882 882 882 882 882 882 882 882 882 882 882 882 882 882 882 882 882 882 882 879 879 879 879 879 879 879 879 876 876 876 876 876 876 876 873 873 873 873 873 873 873 873 870 870 870 870 870 867 867 867 867 867 867 867 867 867 867 867 867 867 867 867 867 867 867 867 867 867 867 867 867 867 867 867 867 867 867 867 867 867 867 867 867 867 867 867 867 867 867 870 870 870 870 873 873 873 873 873 873 873 870 870 870 870 867 867 867 867 867 867 867 867 867 867 870 870 870 870 870 867 867 867 870 870 870 870 870 870 870 870 870 867 867 867 867 867 867 867 867 870 870 870 870 870 870 870 867 867 870 870 870 870 870 870 870 870 873 873 873 873 873 873 873 873 873 873 870 870 870 870 867 867 870 870 867 867 867 867 867 867 867 867 867 867 867 870 870 870 870 873 879 888 921 957 987 1020 1050 1071 1089 1107 1125 1140 1146 1149 1149 1134 1119 1101 1086 1068 1056 1047 1035 1017 996 975 948 924 915 906 897 894 891 891 891 894 900 909 912 909 909 903 900 897 900 903 906 909 915 924 936 942 948 951 951 954 954 975 996 1011 1023 1038 1041 1047 1053 1059 1068 1074 1077 1080 1080 1083 1089 1101 1110 1119 1128 1137 1152 1167 1182 1197 1212 1215 1218 1218 1206 1197 1179 1161 1143 1122 1104 1089 1074 1056 1041 1026 1011 990 969 957 954 948 969 993 1017 1044 1071 1089 1107 1122 1122 1122 1113 1095 1074 1041 1005 969 948 924 921 936 954 969 987 1002 1020 1038 1059 1080 1101 1113 1125 1134 1137 1143 1143 1143 1140 1134 1128 1125 1125 1125 1131 1137 1143 1143 1146 1140 1134 1128 1128 1128 1131 1131 1134 1137 1137 1140 1143 1146 1146 1146 1143 1143 1143 1149 1164 1182 1191 1197 1203 1203
891 891 888 888 888 888 888 888 888 888 888 888 891 888 888 888 888 885 885 885 885 885 885 885 885 885 885 885 885 885 882 882 882 882 882 882 882 882 882 882 882 882 882 882 882 882 882 882 882 882 882 882 882 882 882 879 879 879 879 879 879 876 876 876 876 876 876 876 876 873 873 873 873 873 870 870 870 870 870 870 870 870 867 867 867 867 867 867 867 867 867 867 867 867 867 867 867 867 867 867 867 867 867 867 867 867 867 867 867 867 867 867 867 867 867 867 867 867 867 867 867 867 867 867 867 867 867 870 873 876 879 879 879 876 873 870 870 870 867 867 867 867 867 867 867 867 867 867 870 870 870 870 867 867 867 867 870 870 870 870 870 870 870 870 870 870 867 867 867 867 867 867 867 870 870 870 870 870 870 870 870 870 870 870 870 870 870 870 870 870 870 870 873 873 873 873 873 873 876 876 873 870 870 870 870 870 870 867 867 867 867 867 867 867 867 867 867 867 867 870 870 870 870 873 876 885 918 951 981 1014 1044 1065 1080 1098 1116 1134 1140 1143 1143 1128 1113 1101 1089 1074 1065 1059 1047 1026 1005 978 951 927 915 906 900 897 891 894 897 900 909 918 921 915 909 906 903 903 912 918 924 930 936 948 960 972 975 981 978 972 966 987 1005 1023 1038 1053 1059 1065 1071 1080 1089 1095 1101 1107 1107 1110 1116 1125 1137 1146 1155 1164 1176 1185 1197 1209 1221 1224 1224 1221 1206 1194 1176 1152 1128 1107 1086 1068 1053 1038 1023 1011 999 984 972 966 966 966 990 1014 1038 1065 1092 1113 1128 1140 1137 1134 1122 1098 1074 1038 996 960 939 921 918 933 951 963 978 993 1011 1032 1056 1080 1107 1122 1134 1143 1146 1149 1146 1143 1137 1134 1128 1125 1128 1128 1131 1134 1137 1140 1140 1137 1131 1125 1128 1131 1131 1131 1128 1131 1131 1134 1137 1140 1140 1140 1140 1140 1140 1143 1158 1173 1182 1191 1200 1200
891 891 891 891 891 891 891 891 891 888 888 888 888 888 888 888 888 885 885 885 885 885 885 885 885 885 885 885 885 885 885 885 882 882 882 882 882 882 882 885 885 885 885 885 885 885 885 882 882 882 882 882 882 882 882 882 882 879 879 879 879 876 876 876 876 876 876 876 876 873 873 873 873 873 873 870 870 870 870 870 870 867 867 867 867 867 867 867 867 867 867 867 867 867 867 867 867 867 867 867 867 867 867 867 867 867 867 867 867 867 867 867 867 867 867 867 867 867 867 867 867 867 867 867 867 867 867 870 870 873 876 876 876 879 876 873 873 870 870 870 867 867 867 867 867 867 867 867 870 870 870 867 867 867 867 867 870 870 870 870 870 870 870 870 870 870 870 867 867 867 867 867 867 870 870 870 870 870 870 870 870 870 870 870 870 870 870 870 870 870 870 870 870 873 873 873 873 876 876 876 876 873 873 870 870 870 870 867 867 867 867 867 867 867 867 867 867 867 867 870 870 870 870 873 873 882 912 942 975 1008 1038 1056 1074 1089 1107 1122 1128 1131 1131 1119 1107 1098 1089 1080 1074 1068 1059 1032 1008 981 954 924 915 906 900 897 894 897 903 909 918 930 933 921 912 909 909 915 927 942 951 960 969 981 996 1005 1005 1005 996 984 975 993 1011 1029 1050 1068 1077 1086 1092 1101 1110 1116 1122 1131 1134 1137 1143 1149 1158 1167 1176 1185 1197 1206 1215 1224 1233 1230 1227 1218 1203 1188 1167 1140 1116 1092 1071 1050 1035 1017 1005 996 984 981 975 975 981 987 1008 1032 1056 1083 1110 1128 1143 1158 1149 1143 1128 1101 1074 1038 996 960 939 918 915 930 942 954 969 981 1002 1020 1044 1071 1095 1107 1116 1125 1125 1128 1128 1125 1122 1122 1119 1119 1122 1125 1125 1125 1125 1128 1131 1128 1125 1122 1122 1125 1125 1125 1125 1125 1128 1131 1131 1134 1134 1134 1134 1134 1137 1143 1158 1173 1182 1191 1200 1200
891 891 891 891 891 891 891 891 891 891 888 888 888 888 888 888 888 888 885 885 885 885 885 885 885 885 885 885 885 885 885 885 885 885 885 885 885 885 885 885 885 885 885 885 885 885 885 885 885 885 885 885 882 882 882 882 882 882 879 879 879 879 876 876 876 876 876 876 876 873 873 873 873 873 873 870 870 870 870 870 867 867 867 867 867 867 867 867 867 867 867 867 867 867 867 867 867 867 867 867 867 867 867 867 867 867 867 867 867 867 867 867 867 867 867 867 867 867 867 867 867 867 867 867 870 870 870 870 870 870 870 873 876 876 876 876 873 873 870 870 870 870 870 870 870 867 867 867 870 870 867 867 867 867 867 867 870 870 870 870 870 870 870 870 870 870 867 867 867 867 867 867 870 870 870 870 870 870 870 870 870 870 870 870 870 870 870 870 873 870 870 870 870 870 873 873 873 876 879 879 876 876 873 873 870 870 870 867 867 867 867 867 867 867 867 867 867 867 867 870 870 870 870 870 873 879 906 936 966 1002 1035 1053 1068 1080 1092 1104 1110 1110 1110 1104 1098 1092 1086 1080 1074 1068 1059 1032 1005 981 954 927 918 909 903 900 897 903 909 915 924 933 936 930 921 930 942 951 969 987 996 996 999 1011 1023 1029 1026 1023 1011 993 981 996 1011 1029 1050 1071 1083 1092 1101 1110 1119 1125 1134 1143 1149 1155 1161 1170 1176 1188 1197 1206 1215 1221 1227 1233 1236 1230 1224 1215 1197 1179 1155 1131 1104 1083 1059 1041 1029 1017 1011 1008 1002 999 993 993 996 1002 1023 1047 1071 1098 1125 1143 1155 1170 1158 1149 1134 1107 1083 1044 1005 966 945 921 915 924 933 945 957 969 990 1008 1032 1053 1074 1083 1089 1095 1101 1104 1107 1110 1113 1110 1110 1113 1116 1119 1116 1113 1113 1116 1119 1119 1116 1116 1119 1122 1122 1122 1122 1125 1125 1128 1131 1131 1131 1131 1128 1131 1134 1140 1155 1170 1182 1191 1200 1200
894 891 891 891 891 891 891 891 891 891 891 891 888 888 888 888 888 888 888 885 885 885 885 885 885 885 885 885 885 885 885 885 885 885 885 885 885 885 885 885 885 885 885 885 885 885 885 885 885 885 885 885 885 885 882 882 882 882 882 879 879 879 879 876 876 876 876 876 876 876 873 873 873 873 873 870 870 870 870 870 870 867 867 867 867 867 867 867 867 867 867 867 867 867 867 867 867 867 867 867 867 867 867 867 867 867 867 867 867 867 867 867 867 867 867 867 867 867 867 867 867 867 867 870 870 873 873 873 873 870 870 870 870 870 870 870 870 873 873 873 876 876 873 873 870 870 867 867 867 867 867 867 867 867 867 867 867 867 867 867 870 870 870 870 870 870 870 870 867 867 867 867 867 867 870 870 870 870 870 870 870 870 870 870 870 870 870 870 870 870 870 870 870 870 873 873 876 876 879 879 879 879 876 873 870 870 870 867 867 867 867 867 867 867 867 867 870 870 870 870 870 870 870 870 873 876 900 921 951 987 1023 1041 1059 1071 1080 1089 1089 1086 1086 1080 1074 1071 1068 1068 1065 1062 1056 1029 1002 978 951 927 918 912 906 903 903 909 915 924 930 939 942 942 939 954 972 990 1002 1017 1020 1020 1020 1029 1038 1044 1041 1038 1023 1005 987 999 1008 1023 1044 1065 1080 1092 1104 1113 1122 1134 1143 1155 1164 1173 1182 1191 1197 1209 1218 1227 1230 1236 1239 1239 1239 1230 1221 1209 1191 1170 1146 1122 1095 1074 1050 1035 1029 1023 1023 1026 1029 1023 1017 1014 1014 1014 1035 1059 1083 1110 1137 1155 1167 1179 1167 1155 1137 1113 1089 1053 1014 978 951 924 915 918 924 933 942 957 975 996 1014 1032 1047 1053 1059 1065 1074 1080 1089 1098 1104 1101 1101 1101 1107 1110 1107 1104 1104 1107 1110 1110 1107 1107 1113 1119 1122 1125 1125 1128 1128 1131 1131 1131 1131 1131 1128 1128 1131 1137 1149 1164 1179 1188 1197 1197
894 894 894 891 891 891 891 891 891 891 891 891 891 888 888 888 888 888 888 888 888 888 888 888 888 888 885 885 885 885 885 885 885 885 885 885 885 885 885 885 885 885 885 885 885 885 885 885 885 885 885 885 885 885 882 882 882 882 882 879 879 879 879 879 876 876 876 876 876 876 876 873 873 873 873 870 870 870 870 870 870 870 870 867 867 867 867 867 867 867 867 867 867 867 867 867 867 867 867 867 867 867 867 867 867 867 867 867 867 867 867 867 867 867 867 867 867 867 867 867 867 867 867 870 870 873 873 873 870 870 867 867 870 870 870 870 870 870 870 873 873 873 873 873 873 873 870 870 870 870 867 867 867 867 867 867 867 867 867 867 867 870 870 870 870 870 870 870 867 867 867 867 867 867 870 870 870 870 870 870 870 870 870 870 870 870 870 870 870 870 870 870 870 870 873 873 876 876 879 879 879 879 876 873 870 870 870 867 867 867 867 867 867 867 867 867 870 870 870 870 870 870 870 870 870 873 891 906 936 972 1008 1029 1047 1062 1068 1074 1071 1068 1062 1056 1050 1047 1050 1050 1053 1053 1050 1023 996 972 948 924 918 912 909 909 909 918 927 936 942 945 951 957 963 981 1005 1023 1029 1032 1032 1029 1026 1035 1047 1053 1053 1053 1038 1014 996 999 1002 1014 1035 1053 1068 1083 1098 1110 1122 1134 1146 1161 1173 1185 1197 1209 1221 1230 1236 1242 1245 1248 1245 1242 1236 1227 1215 1200 1182 1161 1140 1116 1089 1071 1050 1038 1038 1041 1044 1047 1050 1047 1041 1035 1032 1029 1047 1071 1095 1122 1149 1164 1173 1182 1170 1158 1140 1116 1089 1053 1014 978 951 924 912 912 915 921 930 939 957 972 990 1005 1020 1032 1044 1056 1071 1083 1092 1101 1107 1101 1098 1098 1101 1104 1104 1104 1104 1107 1113 1116 1116 1119 1122 1125 1128 1125 1125 1128 1128 1128 1131 1131 1131 1128 1128 1131 1134 1140 1149 1161 1170 1182 1191 1191
894 894 894 894 894 894 894 891 891 891 891 891 891 891 888 888 888 888 888 888 888 888 888 888 888 888 888 888 885 885 885 885 885 885 885 885 885 885 885 885 885 888 888 888 888 885 885 885 885 885 885 885 885 885 885 882 882 882 882 879 879 879 879 879 879 876 876 876 876 876 876 873 873 873 873 873 870 870 870 870 870 870 870 870 867 867 867 867 867 867 867 867 867 867 867 867 867 867 867 867 867 867 867 867 867 867 867 867 867 867 867 867 867 867 867 867 867 867 867 867 867 870 870 870 870 870 870 870 870 870 867 867 867 870 870 870 870 870 870 870 870 870 873 873 873 873 873 870 870 870 870 870 870 870 867 867 867 867 867 867 867 870 870 870 870 870 870 870 870 867 867 870 870 870 870 870 870 870 870 870 870 870 870 870 870 870 870 870 870 870 870 870 870 870 873 876 876 876 876 876 873 873 873 870 870 870 870 870 867 867 867 867 867 867 867 867 870 870 870 870 870 870 870 870 870 873 885 897 921 954 990 1014 1038 1059 1065 1071 1068 1059 1053 1050 1047 1047 1053 1056 1056 1053 1044 1017 990 966 948 927 924 918 915 918 918 933 954 975 978 981 984 987 987 1005 1026 1041 1047 1050 1047 1041 1035 1041 1047 1053 1056 1056 1044 1023 1005 1002 999 1005 1023 1038 1053 1068 1083 1098 1110 1125 1140 1155 1173 1188 1203 1215 1230 1239 1245 1248 1251 1251 1248 1239 1233 1218 1200 1185 1167 1149 1125 1104 1080 1062 1047 1038 1047 1053 1062 1068 1074 1068 1062 1056 1047 1038 1056 1074 1095 1122 1149 1164 1170 1179 1167 1158 1140 1116 1092 1056 1017 981 954 927 912 912 909 915 921 927 942 957 975 993 1011 1029 1047 1065 1080 1095 1101 1107 1110 1104 1095 1095 1098 1101 1104 1104 1107 1113 1116 1119 1122 1125 1125 1125 1125 1122 1122 1122 1122 1125 1125 1128 1128 1128 1125 1131 1137 1143 1149 1155 1164 1173 1182 1182
894 894 894 894 894 894 894 894 894 894 891 891 891 891 891 888 888 888 888 888 888 888 888 888 888 888 888 888 888 888 888 888 888 885 885 885 885 885 888 888 888 888 888 888 888 888 888 888 888 885 885 885 885 885 885 885 882 882 882 879 879 879 879 879 876 876 876 876 876 876 876 873 873 873 873 873 873 870 870 870 870 870 870 867 867 867 867 867 867 867 867 867 867 867 867 867 867 867 867 867 867 867 867 867 867 867 867 867 867 867 867 867 867 867 867 867 867 867 867 867 870 870 870 870 870 870 870 870 870 870 867 867 867 867 870 870 870 870 867 867 867 867 867 870 870 870 873 873 873 870 870 870 870 870 867 867 867 867 867 867 867 867 870 870 870 870 870 870 870 870 870 870 867 870 870 870 870 870 870 870 870 870 870 870 870 870 870 870 870 870 870 870 870 873 873 876 879 876 876 876 873 870 870 870 870 870 870 870 870 867 867 867 867 867 867 867 870 870 870 870 870 870 870 870 870 873 879 885 906 933 963 990 1017 1041 1053 1065 1068 1065 1065 1062 1059 1056 1056 1056 1047 1038 1026 1002 978 960 948 936 930 927 924 927 927 948 975 999 1008 1020 1023 1023 1020 1032 1047 1059 1065 1068 1065 1059 1050 1053 1056 1059 1062 1062 1050 1035 1020 1008 999 999 1011 1023 1038 1053 1068 1083 1098 1113 1131 1149 1167 1185 1203 1218 1233 1239 1245 1251 1251 1251 1245 1236 1224 1206 1188 1167 1149 1131 1110 1089 1068 1056 1044 1044 1056 1068 1080 1089 1098 1092 1083 1074 1062 1050 1062 1074 1092 1116 1143 1155 1164 1170 1164 1155 1140 1119 1095 1062 1026 990 963 933 918 915 909 912 912 918 933 945 966 990 1017 1041 1068 1089 1101 1113 1119 1119 1116 1107 1095 1092 1095 1098 1104 1110 1116 1119 1122 1122 1122 1122 1119 1116 1113 1113 1113 1113 1116 1116 1119 1122 1122 1122 1122 1131 1137 1143 1146 1149 1158 1167 1173 1173
894 894 894 894 894 894 894 894 894 894 894 891 891 891 891 891 891 888 888 888 888 888 888 888 888 888 888 888 888 888 888 888 888 888 888 888 888 888 888 888 888 888 888 888 888 888 888 888 888 888 888 885 885 885 885 885 882 882 882 882 879 879 879 879 876 876 876 876 876 876 876 876 873 873 873 873 873 873 870 870 870 870 870 870 867 867 867 867 867 867 867 867 867 867 867 867 867 867 867 867 867 867 867 867 867 867 867 867 867 867 867 867 867 867 867 867 867 867 867 867 870 870 870 870 870 870 870 870 870 870 870 870 867 867 870 870 870 870 867 867 867 867 867 867 867 870 873 873 873 873 873 870 870 870 867 867 867 867 867 867 867 867 870 870 870 870 870 870 870 870 870 870 870 870 870 870 870 870 870 870 870 870 870 870 870 870 870 870 870 870 870 870 870 873 873 876 879 876 876 876 873 870 870 870 870 870 870 870 870 867 867 867 867 867 867 867 870 870 870 870 870 870 870 870 870 873 873 876 891 912 930 960 990 1017 1038 1059 1068 1074 1080 1077 1074 1068 1059 1050 1032 1017 999 981 963 954 951 948 945 942 939 936 936 957 984 1014 1035 1056 1065 1062 1059 1068 1074 1083 1086 1089 1089 1083 1077 1077 1074 1071 1074 1074 1065 1050 1035 1020 1005 999 1002 1005 1017 1032 1047 1065 1080 1101 1119 1140 1161 1182 1200 1215 1230 1236 1242 1245 1245 1245 1239 1224 1212 1191 1170 1149 1131 1110 1089 1071 1053 1050 1047 1053 1071 1086 1098 1113 1122 1116 1110 1101 1089 1077 1077 1083 1089 1110 1128 1140 1149 1155 1152 1149 1140 1125 1110 1083 1056 1026 993 963 942 927 912 912 915 921 936 951 975 1005 1032 1053 1074 1089 1098 1110 1113 1113 1113 1104 1095 1095 1098 1101 1107 1113 1119 1119 1122 1119 1119 1116 1113 1110 1110 1110 1110 1113 1116 1116 1119 1122 1122 1122 1125 1128 1134 1137 1140 1140 1149 1161 1170 1170
894 894 894 894 894 894 894 894 894 894 894 894 891 891 891 891 891 891 891 891 891 891 888 888 888 888 888 888 888 888 888 888 888 888 888 888 888 888 888 888 888 888 888 888 888 888 888 888 888 888 888 885 885 885 885 885 882 882 882 882 882 879 879 879 879 876 876 876 876 876 876 876 873 873 873 873 873 873 870 870 870 870 870 870 867 867 867 867 867 867 867 867 867 867 867 867 867 867 867 867 867 867 867 867 867 867 867 867 867 867 867 867 867 867 867 867 867 867 867 867 867 870 870 870 870 870 870 870 870 870 870 870 867 867 870 870 873 870 870 867 867 867 867 867 867 870 870 870 873 873 873 873 870 870 867 867 867 867 867 867 867 867 867 870 870 870 870 870 870 870 870 870 870 870 870 870 870 873 873 873 870 870 870 870 870 870 870 870 870 870 870 870 870 870 873 873 876 876 876 876 873 870 870 870 870 870 870 870 870 870 870 870 867 867 867 870 870 870 870 870 870 870 870 870 870 870 873 873 879 888 897 924 954 984 1011 1038 1053 1062 1071 1065 1059 1050 1038 1029 1011 993 978 969 960 960 960 963 960 960 960 957 954 972 999 1026 1050 1074 1086 1089 1092 1095 1101 1104 1101 1101 1098 1098 1098 1098 1098 1098 1101 1101 1089 1077 1062 1044 1029 1020 1014 1011 1017 1023 1032 1050 1065 1083 1107 1128 1152 1173 1194 1212 1230 1236 1239 1242 1239 1233 1224 1209 1194 1176 1155 1137 1116 1095 1080 1068 1059 1062 1065 1074 1089 1104 1116 1125 1134 1131 1128 1122 1116 1107 1104 1101 1104 1113 1125 1134 1140 1143 1143 1143 1140 1128 1119 1098 1077 1053 1020 990 963 942 918 918 918 924 939 957 984 1014 1044 1059 1074 1086 1092 1101 1104 1104 1104 1101 1098 1098 1098 1101 1107 1110 1116 1116 1116 1116 1113 1110 1107 1107 1107 1110 1113 1113 1116 1119 1119 1122 1125 1125 1125 1128 1128 1131 1131 1134 1143 1155 1167 1167
894 894 894 894 894 894 894 894 894 894 894 894 894 894 891 891 891 891 891 891 891 891 891 891 891 891 891 891 891 891 891 888 888 888 888 888 888 888 888 888 888 888 888 888 888 888 888 888 888 888 888 885 885 885 885 885 882 882 882 882 882 879 879 879 879 879 876 876 876 876 876 876 873 873 873 873 873 873 870 870 870 870 870 870 867 867 867 867 867 867 867 867 867 867 867 867 867 867 867 867 867 867 867 867 867 867 867 867 867 867 867 867 867 867 867 867 867 867 867 867 867 867 870 870 870 870 870 873 873 873 873 870 870 867 870 870 873 870 870 870 867 867 867 870 870 870 870 870 873 873 873 873 873 870 870 870 870 870 870 867 867 867 867 870 870 870 870 870 870 870 870 870 870 870 870 870 870 873 873 870 870 870 870 870 870 870 870 870 870 870 870 870 870 870 870 873 873 873 876 876 873 870 870 870 870 870 870 870 870 870 870 870 870 870 870 870 870 870 870 870 870 870 870 870 870 870 870 870 873 879 882 903 924 951 981 1011 1023 1032 1038 1032 1029 1020 1008 999 987 972 963 963 966 966 972 975 975 975 975 975 972 990 1014 1038 1059 1080 1095 1101 1110 1113 1113 1113 1110 1104 1104 1107 1110 1113 1116 1119 1122 1122 1113 1101 1086 1071 1053 1041 1035 1026 1026 1026 1026 1038 1050 1071 1092 1116 1140 1167 1188 1209 1227 1233 1236 1236 1230 1224 1215 1200 1185 1164 1143 1125 1107 1089 1080 1077 1074 1080 1089 1098 1110 1119 1128 1137 1143 1143 1146 1143 1140 1137 1131 1125 1122 1125 1128 1131 1134 1137 1137 1140 1137 1128 1122 1107 1089 1071 1044 1014 987 954 924 921 921 924 945 963 990 1023 1050 1062 1071 1080 1083 1089 1092 1095 1098 1098 1098 1101 1101 1101 1101 1101 1101 1104 1107 1107 1104 1101 1104 1107 1110 1113 1116 1116 1116 1119 1122 1125 1125 1125 1125 1125 1125 1125 1128 1131 1143 1155 1167 1167
897 897 897 897 894 894 894 894 894 894 894 894 894 894 894 894 894 894 891 891 891 891 891 891 891 891 891 891 891 891 891 891 891 891 891 891 891 891 891 891 891 888 888 888 888 888 888 888 888 888 888 885 885 885 885 885 882 882 882 882 882 882 879 879 879 879 879 876 876 876 876 876 873 873 873 873 873 873 873 870 870 870 870 870 867 867 867 867 867 867 867 867 867 867 867 867 867 867 867 867 867 867 867 867 867 867 867 867 867 867 867 867 867 867 867 867 867 867 867 867 867 867 870 870 870 870 870 873 873 873 873 870 870 867 870 870 870 870 870 870 870 867 867 867 870 870 870 870 870 870 873 873 873 873 873 870 870 870 870 870 870 870 870 870 870 870 870 870 870 870 870 870 870 870 870 870 870 870 870 870 870 870 870 870 870 870 870 870 870 870 870 873 870 870 870 870 870 873 873 873 870 870 870 870 870 870 870 870 870 870 870 870 870 870 870 870 870 870 870 870 870 870 870 870 870 870 870 870 873 873 876 888 903 921 948 975 987 993 996 990 984 978 972 966 960 957 957 966 972 978 981 984 984 987 987 990 993 1008 1029 1050 1065 1080 1092 1104 1113 1113 1116 1113 1104 1098 1098 1104 1113 1119 1128 1134 1134 1137 1128 1119 1107 1092 1077 1068 1062 1056 1050 1041 1038 1038 1041 1056 1080 1107 1134 1158 1182 1203 1221 1227 1230 1230 1230 1227 1218 1203 1185 1164 1143 1125 1113 1104 1101 1104 1107 1110 1110 1116 1125 1134 1140 1149 1155 1158 1158 1158 1158 1155 1149 1143 1137 1134 1134 1134 1134 1134 1134 1134 1128 1122 1113 1101 1086 1068 1041 1017 987 957 927 924 921 924 945 963 987 1014 1038 1050 1065 1074 1080 1083 1086 1089 1089 1089 1089 1086 1083 1077 1077 1074 1074 1077 1077 1080 1086 1089 1092 1098 1101 1104 1107 1107 1110 1113 1116 1122 1122 1122 1122 1122 1119 1119 1122 1125 1137 1149 1161 1161
897 897 897 897 897 897 894 894 894 894 894 894 894 894 894 894 894 894 894 894 891 891 891 891 891 891 891 891 891 891 891 891 891 891 891 891 891 891 891 891 891 891 891 891 891 888 888 888 888 888 888 885 885 885 885 885 885 882 882 882 882 882 879 879 879 879 879 876 876 876 876 876 876 873 873 873 873 873 873 873 870 870 870 870 870 867 867 867 867 867 867 867 867 867 867 867 867 867 867 867 867 867 867 867 867 867 867 867 867 867 867 867 867 867 867 867 867 867 867 867 870 870 870 870 870 870 870 873 873 873 873 873 870 867 870 870 870 870 873 870 870 867 867 867 867 870 870 870 870 870 870 873 873 873 873 873 873 870 870 870 870 870 870 870 867 867 867 870 870 870 870 870 870 870 870 870 870 870 870 870 870 870 870 870 870 870 870 870 870 870 870 870 870 870 870 870 870 870 873 873 870 870 870 870 870 870 870 870 870 870 870 870 870 870 870 870 870 870 870 870 870 870 870 870 870 870 870 870 870 873 876 882 891 906 927 948 957 960 963 960 954 951 948 945 948 954 957 969 978 984 987 990 993 996 996 999 1002 1017 1032 1050 1068 1086 1098 1104 1110 1107 1104 1098 1089 1080 1083 1092 1104 1110 1119 1125 1128 1131 1131 1125 1122 1116 1107 1101 1095 1089 1077 1065 1056 1050 1044 1056 1074 1095 1122 1149 1173 1194 1212 1221 1227 1233 1230 1230 1218 1200 1182 1161 1137 1119 1116 1116 1119 1125 1134 1131 1131 1131 1137 1140 1146 1155 1164 1167 1173 1176 1173 1170 1164 1155 1149 1146 1143 1140 1134 1131 1128 1122 1116 1107 1101 1089 1077 1059 1035 1008 984 960 933 933 930 933 948 960 978 999 1020 1035 1050 1062 1068 1074 1077 1080 1083 1080 1080 1074 1068 1059 1056 1053 1050 1053 1053 1059 1065 1071 1080 1086 1089 1092 1095 1095 1098 1101 1107 1113 1116 1116 1116 1116 1113 1113 1116 1119 1128 1143 1155 1155
897 897 897 897 897 897 897 897 894 894 894 894 894 894 894 894 894 894 894 894 894 894 894 891 891 891 891 891 891 891 891 891 891 891 891 891 891 891 891 891 891 891 891 891 891 891 888 888 888 888 888 885 885 885 885 885 885 882 882 882 882 882 882 879 879 879 879 876 876 876 876 876 876 873 873 873 873 873 873 873 873 870 870 870 870 867 867 867 867 867 867 867 867 867 867 867 867 867 867 867 867 867 867 867 867 867 867 867 867 867 867 867 867 867 867 867 867 867 867 870 870 870 870 870 870 870 870 870 870 873 873 873 870 867 870 870 870 870 870 870 867 867 867 870 870 870 873 873 873 873 873 873 873 870 870 870 870 870 873 873 873 873 870 870 870 870 870 870 870 867 870 870 870 870 870 870 870 870 870 870 870 870 870 870 870 870 870 870 870 870 870 870 870 870 870 870 870 870 873 873 870 870 870 870 870 870 870 870 870 870 870 870 870 870 870 870 870 870 870 870 870 870 870 870 870 870 870 870 870 873 876 882 891 903 918 933 939 942 942 939 936 933 933 933 942 951 960 969 981 987 990 993 996 996 999 1002 1005 1017 1032 1047 1068 1086 1098 1101 1104 1098 1092 1083 1074 1065 1071 1080 1092 1098 1104 1110 1116 1119 1125 1128 1128 1131 1131 1131 1125 1119 1104 1089 1077 1065 1053 1059 1071 1086 1113 1140 1164 1185 1206 1218 1230 1236 1233 1230 1218 1197 1176 1152 1131 1116 1122 1128 1137 1149 1158 1155 1152 1149 1146 1146 1152 1164 1173 1179 1188 1191 1185 1182 1176 1170 1161 1158 1152 1143 1137 1128 1119 1107 1101 1092 1083 1074 1062 1047 1020 993 975 963 948 948 951 951 954 954 966 981 996 1014 1029 1041 1050 1059 1062 1068 1071 1068 1068 1062 1056 1050 1044 1041 1041 1041 1038 1044 1047 1053 1062 1074 1080 1080 1083 1080 1077 1077 1083 1092 1095 1098 1098 1098 1098 1098 1098 1101 1116 1134 1149 1149
897 897 897 897 897 897 897 897 897 897 897 894 894 894 894 894 894 894 894 894 894 894 894 894 894 891 891 891 891 891 891 891 891 891 891 894 894 894 894 891 891 891 891 891 891 891 891 888 888 888 888 888 885 885 885 885 885 885 882 882 882 882 882 879 879 879 879 876 876 876 876 876 876 876 876 873 873 873 873 873 873 870 870 870 870 867 867 867 867 867 867 867 867 867 867 867 867 867 867 867 867 867 867 867 867 867 867 867 867 867 867 867 867 867 867 867 867 870 870 870 870 870 870 867 867 867 870 870 870 870 873 873 870 870 870 867 867 867 867 867 867 867 867 870 870 873 873 873 873 873 873 873 870 870 870 870 870 870 873 873 873 873 873 870 870 870 870 870 870 870 870 870 870 870 870 870 870 870 870 870 870 870 870 870 870 870 870 870 870 870 870 870 870 870 870 870 870 870 873 873 873 873 870 870 870 870 870 870 870 870 870 870 870 870 870 870 870 870 870 870 870 870 870 870 870 870 870 870 870 873 876 885 894 906 918 930 933 930 930 927 921 921 924 927 936 948 960 969 981 984 987 990 993 993 996 999 1002 1014 1029 1044 1062 1083 1092 1092 1092 1086 1083 1077 1065 1056 1059 1068 1074 1080 1083 1089 1095 1101 1110 1119 1128 1137 1143 1146 1143 1140 1128 1113 1101 1083 1068 1065 1071 1077 1104 1128 1155 1179 1203 1221 1233 1245 1239 1233 1215 1191 1164 1149 1131 1125 1137 1152 1164 1176 1188 1185 1182 1176 1173 1170 1176 1185 1194 1197 1203 1200 1194 1185 1176 1164 1155 1149 1143 1137 1128 1122 1107 1095 1083 1074 1065 1053 1041 1026 1005 981 972 969 969 969 969 966 957 951 957 972 984 999 1017 1029 1038 1047 1050 1053 1056 1056 1056 1053 1047 1044 1041 1041 1041 1041 1038 1041 1041 1044 1050 1056 1059 1062 1065 1065 1065 1068 1074 1080 1080 1080 1080 1080 1080 1080 1083 1083 1101 1119 1137 1137
897 897 897 897 897 897 897 897 897 897 897 897 897 897 897 894 894 894 894 894 894 894 894 894 894 894 894 894 894 894 894 894 894 894 894 894 894 894 894 894 891 891 891 891 891 891 891 888 888 888 888 888 885 885 885 885 885 885 885 882 882 882 882 879 879 879 879 876 876 876 876 876 876 876 876 876 873 873 873 873 873 870 870 870 870 870 867 867 867 867 867 867 867 867 867 867 867 867 867 867 867 867 867 867 867 867 867 867 867 867 867 867 867 867 867 867 870 870 870 870 870 870 870 867 867 867 870 870 870 870 873 873 870 870 870 867 867 867 867 867 867 867 867 870 870 873 873 873 873 873 873 870 870 870 870 870 873 873 873 873 873 873 873 873 870 870 870 870 870 870 870 870 870 870 870 870 870 870 870 870 870 870 870 870 870 870 870 870 870 870 870 870 870 870 870 870 870 870 873 873 873 873 873 870 870 870 870 870 870 870 870 870 870 870 870 870 870 870 870 870 870 870 870 870 870 870 870 870 870 873 873 879 888 894 906 915 915 915 915 915 912 915 918 924 933 945 957 966 975 981 981 984 984 984 984 990 993 1008 1023 1041 1059 1077 1089 1092 1092 1089 1083 1074 1062 1050 1050 1053 1059 1062 1068 1074 1080 1083 1098 1110 1125 1134 1143 1149 1149 1152 1143 1134 1122 1107 1089 1080 1077 1077 1098 1122 1146 1173 1200 1218 1236 1248 1242 1233 1218 1191 1164 1152 1140 1137 1152 1167 1182 1197 1209 1209 1206 1203 1200 1194 1197 1203 1206 1206 1206 1203 1194 1185 1173 1158 1146 1140 1134 1128 1122 1113 1098 1083 1068 1056 1044 1035 1023 1014 999 987 984 987 993 990 987 981 972 960 966 975 987 1002 1014 1023 1032 1038 1041 1041 1044 1044 1044 1047 1047 1047 1050 1053 1053 1053 1050 1047 1044 1041 1041 1041 1044 1047 1050 1053 1056 1059 1065 1068 1071 1068 1065 1065 1065 1065 1068 1071 1086 1104 1122 1122
897 897 897 897 900 897 897 897 897 897 897 897 897 897 897 897 897 894 894 894 897 894 894 894 894 894 894 894 894 894 894 894 894 894 894 894 894 894 894 894 894 894 891 891 891 891 891 891 891 888 888 888 888 888 885 885 885 885 885 882 882 882 882 879 879 879 879 876 876 876 876 876 876 876 876 876 876 873 873 873 873 870 870 870 870 870 870 870 867 867 867 867 867 867 867 867 867 867 867 867 867 867 867 867 867 867 867 867 867 867 867 867 867 867 867 867 870 870 870 867 867 867 867 867 867 867 870 870 870 873 876 876 873 873 870 870 870 870 867 867 867 867 870 870 870 873 873 873 873 873 873 870 870 870 870 873 873 873 870 870 870 870 870 870 873 870 870 870 870 870 870 870 870 870 870 870 870 870 870 870 870 870 870 870 870 870 870 870 870 870 870 870 870 870 870 870 870 873 873 873 873 873 873 870 870 870 870 870 870 870 870 870 870 870 870 870 870 870 870 870 870 870 870 870 870 870 870 870 870 873 873 876 882 888 894 903 903 903 906 906 906 909 915 918 930 942 954 963 972 975 975 975 975 972 975 978 984 999 1017 1032 1050 1068 1080 1083 1086 1083 1074 1068 1053 1041 1038 1041 1041 1047 1050 1056 1062 1071 1083 1101 1116 1128 1137 1146 1152 1161 1158 1152 1146 1128 1113 1101 1092 1083 1098 1113 1134 1164 1194 1218 1236 1251 1242 1236 1218 1194 1170 1161 1155 1155 1167 1182 1194 1209 1224 1224 1227 1227 1221 1218 1215 1212 1209 1206 1203 1197 1191 1185 1167 1152 1137 1131 1125 1116 1110 1101 1086 1071 1056 1041 1026 1017 1011 1008 1008 1008 1011 1014 1020 1014 1005 999 990 984 987 999 1008 1017 1026 1029 1032 1035 1035 1032 1032 1035 1038 1044 1056 1065 1074 1083 1089 1086 1083 1074 1065 1053 1047 1041 1038 1038 1038 1041 1044 1047 1056 1062 1062 1062 1059 1059 1059 1059 1062 1065 1077 1089 1101 1101
897 897 897 900 900 900 900 900 897 897 897 897 897 897 897 897 897 897 897 897 897 897 897 894 894 894 894 894 894 894 894 894 894 894 894 894 894 894 894 894 894 894 894 894 894 891 891 891 891 891 891 888 888 888 888 888 885 885 885 885 882 882 882 879 879 879 879 876 876 876 876 876 876 876 876 876 876 873 873 873 873 870 870 870 870 870 870 870 870 867 867 867 867 867 867 867 867 867 867 867 867 867 867 867 867 867 867 867 867 867 867 867 867 867 870 870 870 870 870 870 870 867 867 867 867 867 870 870 873 873 876 876 876 876 876 873 873 870 870 867 867 867 870 870 873 873 873 873 873 873 873 870 870 870 870 870 870 870 870 870 870 870 870 870 873 870 870 870 870 870 870 870 870 870 870 870 870 870 870 870 870 870 870 870 870 870 870 870 870 870 870 870 870 870 870 870 873 873 873 873 873 873 873 870 870 870 870 870 870 870 870 870 870 870 870 870 870 870 870 870 870 870 870 870 870 870 870 870 870 870 873 876 876 879 888 894 897 897 897 900 903 906 909 915 924 936 948 957 966 966 966 963 963 960 960 966 972 987 1005 1020 1038 1053 1062 1065 1068 1062 1056 1047 1041 1032 1029 1026 1023 1029 1032 1041 1050 1059 1074 1092 1107 1119 1131 1143 1152 1161 1164 1167 1164 1149 1137 1122 1107 1095 1101 1110 1125 1155 1185 1209 1230 1248 1245 1242 1227 1206 1185 1182 1179 1179 1188 1197 1203 1212 1221 1221 1221 1221 1215 1212 1212 1209 1206 1200 1191 1185 1182 1179 1167 1152 1140 1131 1119 1107 1098 1086 1068 1053 1038 1026 1014 1017 1023 1032 1038 1044 1047 1047 1050 1038 1026 1017 1011 1005 1011 1023 1032 1035 1041 1041 1041 1038 1035 1032 1032 1041 1047 1059 1071 1086 1095 1107 1113 1113 1116 1110 1098 1089 1074 1062 1050 1044 1038 1038 1038 1041 1047 1050 1053 1056 1056 1056 1056 1056 1056 1059 1068 1077 1086 1086
900 900 900 900 900 900 900 900 900 900 900 897 897 897 897 897 897 897 897 897 897 897 897 897 897 897 897 897 897 897 894 894 894 894 894 894 894 894 894 894 894 894 894 894 894 894 891 891 891 891 891 891 888 888 888 888 888 885 885 885 885 882 882 882 879 879 879 879 879 876 876 876 876 876 876 876 876 873 873 873 873 870 870 870 870 870 870 870 870 867 867 867 867 867 867 867 867 867 867 867 867 867 867 867 867 867 867 867 867 867 867 867 867 867 870 870 870 870 870 870 870 870 870 867 867 867 870 870 870 873 873 873 876 879 879 879 876 873 870 870 870 870 870 870 873 873 873 873 873 873 873 873 873 873 870 870 870 867 867 867 867 867 870 870 870 870 870 870 870 870 870 870 870 870 870 870 870 870 870 870 870 870 870 870 870 870 870 870 870 870 870 870 870 870 870 873 873 873 873 873 873 873 873 870 870 870 870 870 870 870 870 870 870 870 870 870 870 870 870 870 870 870 870 870 870 870 870 870 870 873 873 876 876 879 882 888 891 891 894 897 900 903 906 909 921 930 942 951 957 960 957 954 951 948 948 954 960 975 996 1014 1026 1038 1041 1038 1038 1032 1029 1026 1020 1014 1014 1014 1014 1023 1029 1038 1047 1056 1068 1077 1092 1104 1116 1128 1143 1155 1164 1173 1176 1164 1155 1143 1128 1116 1116 1119 1131 1155 1182 1203 1224 1242 1245 1245 1236 1221 1206 1200 1200 1197 1200 1203 1209 1212 1215 1215 1212 1209 1206 1200 1197 1197 1194 1185 1179 1176 1173 1173 1164 1158 1146 1128 1113 1098 1086 1071 1056 1038 1029 1023 1017 1026 1041 1053 1062 1071 1074 1074 1074 1059 1044 1032 1029 1023 1032 1041 1053 1053 1056 1053 1047 1044 1041 1038 1038 1050 1062 1074 1089 1104 1116 1125 1134 1137 1143 1137 1131 1122 1101 1080 1065 1053 1041 1038 1038 1038 1038 1041 1044 1047 1053 1053 1053 1056 1053 1053 1062 1068 1077 1077
900 900 900 900 900 900 900 900 900 900 900 900 897 897 897 897 900 900 900 900 900 900 900 897 897 897 897 897 897 897 897 897 897 897 897 897 897 897 894 894 894 894 894 894 894 894 891 891 891 891 891 891 888 888 888 888 888 885 885 885 885 882 882 882 882 879 879 879 879 879 876 876 876 876 876 876 876 873 873 873 873 873 870 870 870 870 870 870 870 867 867 867 867 867 867 867 867 867 867 867 867 867 867 867 867 867 867 867 867 867 867 867 867 867 870 870 870 870 870 870 870 870 870 870 870 870 870 870 870 870 870 873 876 879 879 879 879 876 873 870 870 870 870 870 873 873 873 873 870 870 870 870 870 870 870 867 867 867 867 867 867 870 870 870 870 870 870 870 870 870 870 870 870 870 870 870 870 870 870 870 870 870 870 870 870 870 870 870 870 870 870 870 870 873 873 873 873 873 873 873 873 873 873 873 873 870 870 870 870 870 870 870 870 870 870 870 870 870 870 870 870 870 870 870 870 870 870 870 870 873 873 876 876 879 882 885 888 888 891 894 897 897 900 903 915 924 936 942 948 951 948 945 942 936 939 945 951 966 987 1005 1017 1026 1029 1020 1011 1008 1005 1002 996 993 993 999 1005 1017 1026 1038 1044 1050 1056 1062 1071 1086 1098 1113 1131 1146 1161 1173 1182 1176 1173 1164 1149 1137 1137 1134 1143 1161 1182 1200 1221 1236 1242 1245 1242 1233 1224 1221 1218 1215 1212 1209 1209 1209 1209 1206 1203 1197 1191 1182 1179 1176 1173 1170 1164 1164 1167 1170 1167 1161 1152 1128 1107 1089 1074 1056 1044 1029 1023 1026 1032 1044 1059 1071 1080 1086 1089 1089 1092 1077 1062 1050 1044 1041 1047 1056 1065 1068 1068 1065 1056 1050 1050 1050 1056 1068 1083 1095 1107 1119 1131 1140 1149 1152 1155 1149 1143 1137 1116 1095 1077 1062 1047 1041 1041 1038 1038 1035 1038 1041 1044 1047 1050 1053 1056 1056 1062 1071 1074 1074
900 900 900 900 900 900 900 900 900 900 900 900 900 900 900 900 900 900 900 900 900 900 900 900 897 897 897 897 897 897 897 897 897 897 897 897 897 897 894 894 894 894 894 897 897 894 894 891 891 891 891 891 888 888 888 888 888 885 885 885 885 882 882 882 882 882 882 879 879 879 879 876 876 876 876 876 876 876 873 873 873 873 873 873 873 870 870 870 870 870 870 867 867 870 870 867 867 867 867 867 867 867 867 867 867 867 867 867 867 867 867 867 867 867 867 867 870 870 870 870 870 870 870 870 870 870 870 870 873 870 870 873 876 879 879 879 879 876 873 873 870 870 870 870 870 870 870 870 870 870 870 870 870 867 867 867 867 867 867 867 870 870 870 870 870 870 870 870 870 870 870 870 870 870 870 870 870 870 870 870 870 870 870 870 870 870 870 870 870 870 870 873 873 873 873 873 873 873 873 873 873 873 873 873 873 873 870 870 870 870 870 870 870 870 870 870 870 870 870 870 870 870 870 870 870 870 870 870 870 870 873 873 876 879 882 882 885 888 891 891 894 894 897 900 909 918 930 933 939 939 936 933 930 927 930 936 942 960 978 999 1011 1026 1023 1011 999 990 981 975 969 963 969 978 990 1005 1020 1029 1032 1035 1038 1044 1050 1065 1080 1098 1116 1134 1152 1170 1182 1185 1185 1179 1170 1161 1158 1158 1161 1176 1188 1200 1212 1224 1233 1242 1242 1239 1239 1236 1233 1230 1224 1221 1215 1209 1203 1197 1191 1188 1179 1173 1167 1158 1152 1149 1149 1149 1152 1155 1152 1152 1143 1122 1101 1080 1062 1044 1041 1035 1035 1044 1050 1062 1074 1083 1089 1095 1098 1101 1104 1089 1077 1065 1056 1047 1053 1062 1068 1071 1071 1068 1059 1053 1056 1062 1071 1083 1095 1107 1119 1131 1140 1152 1158 1158 1161 1155 1149 1140 1119 1101 1086 1068 1053 1047 1044 1044 1041 1038 1038 1041 1047 1050 1053 1056 1062 1065 1071 1077 1080 1080
900 900 900 900 900 900 900 900 900 900 900 900 900 900 900 900 900 900 900 900 900 900 900 900 900 897 897 897 897 897 897 897 897 897 897 897 897 897 897 897 894 894 897 897 897 894 894 894 891 891 891 891 891 888 888 888 888 885 885 885 885 882 882 882 882 882 882 882 879 879 879 879 876 876 876 876 876 876 876 876 876 876 873 873 873 873 870 870 870 870 870 870 870 870 867 867 867 867 867 867 867 867 867 867 867 867 867 867 867 870 867 867 867 867 867 867 867 867 867 867 867 867 870 870 870 870 870 873 873 873 870 873 879 882 882 882 879 876 876 873 873 870 870 870 870 870 870 867 867 867 867 867 867 867 867 867 867 867 867 867 870 870 870 870 870 870 870 870 870 870 870 870 870 870 870 870 870 870 870 870 870 870 870 870 870 870 870 870 873 873 873 873 873 873 873 873 870 873 873 873 873 873 873 873 870 870 870 870 870 870 870 870 870 870 870 870 870 870 870 870 870 870 870 870 870 870 870 870 870 870 870 873 876 876 879 882 882 885 888 891 891 891 894 894 903 912 921 927 930 930 927 924 921 918 921 927 933 951 969 987 1002 1017 1020 1008 999 981 963 948 942 936 942 957 972 990 1008 1020 1023 1023 1026 1029 1032 1050 1068 1086 1107 1125 1146 1167 1185 1191 1194 1194 1188 1182 1179 1179 1182 1188 1194 1200 1206 1212 1221 1230 1233 1236 1236 1236 1236 1233 1227 1224 1215 1206 1200 1191 1185 1179 1170 1164 1155 1143 1137 1134 1134 1134 1137 1140 1137 1137 1128 1110 1095 1077 1059 1044 1047 1050 1053 1065 1074 1080 1089 1095 1098 1101 1107 1110 1113 1101 1092 1080 1068 1059 1059 1062 1065 1068 1068 1065 1059 1053 1062 1074 1086 1095 1107 1116 1128 1140 1149 1161 1167 1167 1167 1158 1146 1137 1119 1104 1086 1074 1059 1053 1053 1050 1044 1041 1041 1044 1047 1053 1056 1062 1068 1077 1080 1083 1086 1086
900 900 900 900 900 900 900 900 900 900 900 900 900 900 900 900 900 900 900 900 900 900 900 900 900 897 897 897 897 897 897 897 897 897 897 897 897 897 897 897 897 897 897 897 894 894 894 894 894 891 891 891 891 888 888 888 888 885 885 885 885 882 882 882 882 882 882 879 879 879 879 879 876 876 876 876 876 876 876 876 876 876 876 876 873 873 870 870 870 870 870 870 870 870 867 867 867 867 867 867 867 867 867 867 867 870 870 870 870 870 870 870 867 867 867 867 867 867 867 867 867 867 870 870 870 870 870 873 873 876 876 879 879 882 879 879 876 873 873 870 870 870 870 870 870 870 867 867 867 867 867 867 867 867 867 867 867 867 867 867 867 870 870 870 870 870 870 870 870 870 870 870 870 870 870 870 870 870 870 870 870 870 870 870 870 870 870 870 873 873 873 873 873 873 873 870 870 870 873 873 873 873 873 870 870 870 870 870 870 870 870 870 870 870 870 870 870 870 870 870 870 870 870 870 870 870 870 870 870 870 870 873 873 876 879 879 882 885 888 888 888 888 888 888 897 906 912 918 921 921 915 912 912 912 912 921 927 942 960 975 993 1011 1014 1005 999 972 948 927 918 912 921 942 960 981 999 1011 1014 1017 1017 1017 1020 1038 1059 1077 1101 1122 1146 1167 1185 1194 1203 1206 1203 1200 1200 1197 1197 1197 1200 1200 1203 1203 1209 1215 1221 1221 1224 1227 1227 1227 1224 1221 1212 1206 1197 1188 1182 1173 1164 1158 1146 1131 1122 1122 1122 1122 1122 1122 1119 1116 1110 1101 1089 1080 1071 1062 1068 1074 1080 1089 1098 1101 1104 1107 1107 1107 1110 1113 1116 1110 1104 1095 1083 1071 1065 1062 1059 1056 1056 1053 1053 1053 1065 1080 1095 1107 1116 1128 1140 1149 1158 1167 1173 1170 1167 1155 1140 1128 1113 1098 1086 1074 1062 1059 1053 1050 1047 1044 1041 1044 1044 1053 1059 1065 1071 1077 1080 1086 1089 1089
903 900 900 900 900 903 903 903 903 903 900 900 900 900 900 900 903 903 903 903 903 900 900 900 900 897 897 897 897 897 897 897 897 897 897 897 897 897 897 897 897 897 897 894 894 894 894 894 894 891 891 891 891 891 888 888 888 885 885 885 885 885 882 882 882 882 882 879 879 879 879 879 876 876 876 876 876 876 876 876 876 876 876 873 873 870 870 870 870 870 870 870 870 870 867 867 867 867 867 867 867 867 867 867 867 870 870 870 870 870 870 870 870 870 867 867 867 867 867 867 867 870 870 870 870 870 870 870 873 876 876 876 876 876 876 879 876 873 870 870 870 870 870 867 867 867 867 867 867 867 867 867 867 867 867 867 867 867 867 867 867 870 870 870 870 870 870 870 870 870 870 870 870 870 870 870 870 870 870 870 870 870 870 870 870 870 870 870 873 873 873 873 870 870 870 870 870 870 870 870 870 870 870 870 870 870 870 870 873 873 873 870 870 870 870 870 870 870 870 870 870 870 870 870 870 870 870 870 870 870 870 873 873 876 879 879 882 885 885 885 885 885 885 882 888 897 903 906 912 909 906 903 903 903 906 912 921 936 951 966 984 1002 1008 1002 996 969 942 918 909 900 915 936 960 978 993 1005 1005 1008 1011 1014 1020 1038 1059 1080 1104 1128 1149 1173 1191 1203 1212 1218 1218 1218 1212 1206 1200 1197 1194 1194 1194 1197 1200 1206 1209 1212 1215 1215 1218 1218 1212 1206 1200 1194 1185 1179 1173 1164 1155 1146 1137 1128 1119 1113 1110 1107 1104 1101 1098 1092 1089 1083 1077 1074 1071 1068 1074 1080 1089 1098 1110 1113 1116 1119 1122 1122 1125 1128 1128 1125 1119 1113 1101 1089 1080 1074 1065 1059 1053 1050 1053 1056 1071 1089 1104 1116 1125 1137 1146 1155 1161 1167 1170 1161 1152 1140 1125 1113 1101 1092 1083 1071 1062 1059 1059 1056 1053 1047 1050 1050 1053 1059 1068 1071 1071 1074 1080 1086 1089 1089
903 903 903 903 903 903 903 903 903 903 903 903 900 903 903 903 903 903 903 906 906 906 909 909 906 903 900 900 897 897 897 897 900 900 900 900 903 900 900 900 897 897 897 894 894 894 897 894 894 894 891 891 891 891 888 888 888 885 885 885 885 885 882 882 882 882 882 879 879 879 879 879 876 876 876 876 876 876 876 876 876 876 873 873 873 870 870 870 870 870 870 870 870 867 867 867 867 867 867 867 867 867 867 867 867 867 867 867 870 870 870 870 870 870 870 867 867 867 867 867 867 870 870 870 870 870 870 870 870 870 870 870 870 867 873 876 876 876 873 870 870 870 867 867 867 867 867 867 867 870 870 867 867 867 867 867 867 867 867 867 870 870 870 870 870 870 870 870 870 870 870 870 870 870 870 870 870 870 870 870 870 870 870 870 870 870 870 870 870 870 870 870 870 870 870 870 870 870 870 870 870 870 870 870 870 873 873 873 876 876 876 873 870 870 870 870 870 870 870 870 870 870 870 870 870 870 870 870 870 870 870 873 873 876 876 879 882 885 885 885 885 882 882 879 882 888 891 894 897 897 897 894 897 897 900 909 918 930 942 957 972 987 993 990 990 963 936 915 906 897 909 930 951 966 984 993 996 999 1005 1014 1023 1044 1062 1086 1110 1134 1158 1179 1197 1209 1221 1227 1227 1230 1218 1209 1200 1191 1182 1182 1182 1182 1185 1191 1194 1197 1200 1203 1206 1206 1200 1197 1188 1179 1170 1167 1161 1155 1149 1140 1134 1125 1116 1107 1095 1089 1086 1083 1077 1071 1068 1068 1068 1071 1074 1080 1083 1089 1098 1110 1122 1128 1131 1134 1134 1134 1137 1137 1140 1137 1131 1125 1116 1104 1095 1086 1077 1065 1056 1053 1059 1065 1080 1095 1110 1122 1134 1143 1149 1158 1161 1164 1161 1146 1134 1122 1110 1098 1092 1086 1077 1071 1062 1062 1062 1059 1059 1056 1059 1062 1065 1071 1074 1077 1074 1071 1077 1083 1089 1089
903 903 903 903 903 903 903 903 903 903 903 903 903 903 903 903 903 903 906 909 912 918 921 924 915 909 906 903 900 900 900 900 900 903 903 906 906 906 903 903 900 897 897 894 894 897 897 897 894 894 891 891 891 888 888 888 888 885 885 885 885 885 885 882 882 882 882 882 879 879 879 879 879 876 876 876 876 876 876 876 876 876 873 873 873 873 873 870 870 870 870 870 867 867 867 867 867 867 867 867 867 867 867 867 867 867 867 867 870 870 870 870 870 870 867 867 867 867 867 867 867 870 870 873 873 873 870 870 867 870 870 870 867 867 870 873 873 873 873 870 870 867 867 867 867 867 867 867 867 867 867 867 867 867 867 867 867 867 867 867 867 870 870 870 870 870 870 870 870 870 870 870 870 870 870 870 870 870 870 870 870 870 870 870 870 870 870 870 870 870 870 870 870 870 870 870 870 870 870 870 870 870 870 873 873 873 876 876 876 879 876 873 873 870 870 870 870 870 870 870 870 870 870 870 870 870 870 870 870 870 870 873 873 876 876 879 882 882 885 885 885 882 879 876 879 879 882 885 888 888 888 888 891 891 897 903 912 921 933 942 957 969 975 975 975 954 933 915 906 894 903 921 936 951 966 978 984 990 1002 1014 1029 1047 1068 1092 1116 1143 1164 1185 1203 1215 1227 1233 1236 1239 1224 1212 1197 1185 1170 1167 1164 1164 1167 1173 1176 1182 1185 1188 1194 1194 1191 1188 1179 1167 1155 1152 1146 1143 1140 1137 1131 1122 1113 1098 1086 1077 1068 1062 1059 1056 1053 1056 1056 1068 1083 1098 1101 1104 1113 1125 1137 1143 1146 1149 1146 1143 1143 1143 1143 1140 1137 1131 1122 1113 1104 1092 1083 1074 1068 1065 1074 1080 1089 1101 1110 1122 1131 1140 1149 1158 1158 1161 1155 1137 1122 1110 1101 1095 1089 1083 1074 1068 1062 1059 1059 1059 1062 1065 1071 1074 1077 1077 1077 1080 1080 1083 1083 1083 1086 1086
903 903 903 903 903 903 903 903 903 903 903 903 903 903 903 903 906 906 912 924 936 942 948 951 945 942 933 927 918 912 906 903 903 903 903 906 906 906 906 903 900 897 897 897 894 894 894 894 894 894 894 891 891 891 888 888 888 888 885 885 885 885 885 882 882 882 882 882 879 879 879 879 879 876 876 876 876 876 876 876 876 876 876 876 876 873 873 870 870 870 870 867 867 867 867 867 870 870 870 870 870 870 870 867 867 867 870 870 870 870 870 870 870 870 867 867 867 867 867 867 867 870 870 873 873 876 873 870 867 867 870 867 867 867 870 870 870 870 873 870 870 870 867 867 867 867 867 867 867 867 867 867 867 867 867 867 867 867 867 867 867 870 870 870 870 870 870 870 870 870 870 870 870 870 870 870 870 870 870 870 870 870 870 870 870 870 870 870 870 870 870 870 870 870 870 870 870 870 870 870 870 870 873 873 876 876 879 879 876 876 876 873 873 873 870 870 870 870 870 870 870 870 870 870 870 870 870 870 870 870 870 873 873 873 876 879 879 882 882 882 882 882 879 876 876 876 876 879 879 882 882 882 885 885 888 894 900 906 915 924 933 942 948 951 954 939 924 912 900 891 894 903 912 927 939 954 966 981 996 1014 1029 1050 1068 1092 1119 1143 1164 1188 1203 1215 1224 1230 1230 1230 1218 1209 1194 1176 1158 1152 1143 1140 1146 1152 1158 1164 1170 1176 1182 1188 1188 1188 1179 1167 1155 1149 1143 1137 1137 1137 1131 1125 1116 1101 1089 1077 1065 1053 1050 1047 1047 1056 1065 1080 1095 1113 1119 1125 1131 1143 1152 1152 1155 1152 1146 1140 1137 1134 1131 1131 1128 1125 1119 1113 1107 1098 1089 1086 1080 1080 1083 1086 1086 1086 1089 1101 1110 1122 1137 1149 1149 1149 1143 1128 1113 1104 1098 1089 1083 1080 1074 1065 1059 1059 1059 1062 1071 1080 1083 1083 1083 1077 1074 1074 1077 1083 1083 1080 1080 1080
903 903 903 903 903 903 903 903 903 903 903 903 903 903 903 903 906 909 921 936 951 957 963 969 966 966 960 951 942 930 918 909 906 903 903 906 906 906 903 903 900 897 897 897 897 897 894 894 894 894 894 891 891 891 891 888 888 888 888 885 885 885 885 882 882 882 882 882 879 879 879 879 879 879 876 876 876 876 876 876 876 876 876 879 876 873 873 870 870 870 870 867 867 867 867 867 870 870 870 870 870 870 870 870 870 870 870 870 870 870 870 870 870 870 867 867 867 867 867 867 867 870 870 870 873 876 873 870 867 867 867 867 867 867 867 867 870 870 873 870 870 870 870 867 867 867 867 867 867 867 867 867 870 870 870 870 867 867 867 867 870 870 870 870 870 870 870 870 870 870 870 870 870 870 870 870 870 870 870 870 870 870 870 870 870 870 870 870 870 870 870 870 870 870 870 870 870 870 870 870 873 873 873 873 876 876 876 876 876 876 873 873 873 873 870 870 870 870 870 870 870 870 870 870 870 870 870 870 870 870 870 870 873 873 876 876 879 879 882 882 879 879 876 876 876 876 876 876 876 879 879 879 882 882 885 885 888 894 903 909 915 924 927 927 930 921 909 900 894 888 891 894 900 909 918 933 951 969 990 1011 1032 1050 1068 1089 1116 1143 1164 1185 1200 1209 1218 1218 1221 1218 1209 1200 1185 1167 1149 1137 1125 1119 1122 1125 1134 1143 1152 1164 1173 1182 1182 1185 1179 1167 1158 1149 1140 1134 1134 1134 1128 1122 1113 1098 1083 1071 1056 1044 1044 1041 1047 1059 1074 1089 1107 1122 1134 1143 1149 1158 1164 1161 1158 1155 1146 1137 1131 1125 1119 1119 1116 1116 1113 1110 1104 1101 1095 1092 1092 1092 1092 1092 1083 1071 1065 1074 1083 1098 1116 1134 1134 1131 1128 1116 1107 1101 1095 1086 1080 1074 1068 1065 1059 1059 1059 1065 1080 1092 1095 1089 1083 1074 1068 1065 1071 1074 1074 1074 1074 1074
906 906 906 906 906 906 906 906 903 903 903 903 903 903 903 906 909 915 924 945 963 969 975 981 981 984 981 975 969 951 933 921 912 903 903 903 903 903 903 900 900 897 897 897 897 897 897 897 894 894 894 891 891 891 891 891 888 888 888 885 885 885 885 882 882 882 882 882 879 879 879 879 879 879 876 876 876 876 876 876 876 876 879 879 876 873 873 870 870 870 870 870 870 870 867 867 867 867 867 870 870 870 870 870 870 870 870 870 870 870 870 870 870 870 870 867 867 867 867 867 867 870 870 870 873 873 873 870 870 867 867 867 867 867 867 867 870 870 873 873 870 870 870 867 867 867 867 867 867 867 870 870 870 870 870 870 870 870 870 870 870 870 870 870 870 870 870 870 870 870 870 870 870 870 870 870 870 870 870 870 870 870 870 870 870 870 870 870 870 870 870 870 870 870 870 870 870 870 870 873 873 873 873 876 876 876 876 876 876 873 873 873 873 873 873 873 870 870 870 870 870 870 870 870 870 870 870 870 870 870 870 870 870 873 873 876 876 879 879 879 879 879 876 873 873 873 873 876 876 876 876 879 879 879 879 882 882 885 891 897 903 909 909 909 906 900 894 891 888 885 888 891 894 897 903 915 939 960 984 1011 1035 1050 1065 1086 1113 1140 1161 1179 1194 1200 1203 1206 1206 1206 1197 1188 1176 1155 1137 1122 1107 1095 1095 1095 1104 1119 1131 1149 1164 1176 1179 1182 1179 1170 1164 1152 1143 1134 1131 1125 1119 1110 1101 1083 1065 1053 1044 1035 1038 1041 1050 1065 1080 1098 1113 1128 1143 1155 1164 1170 1176 1167 1161 1152 1140 1131 1122 1113 1104 1104 1104 1104 1104 1104 1101 1098 1095 1095 1098 1098 1098 1098 1083 1068 1059 1062 1068 1077 1092 1104 1107 1110 1110 1107 1104 1098 1092 1086 1080 1074 1068 1062 1056 1056 1056 1062 1077 1092 1092 1086 1080 1077 1071 1071 1077 1083 1083 1080 1080 1080
906 906 906 906 906 906 906 906 906 906 906 906 906 906 906 906 912 918 930 948 966 975 984 990 993 996 993 987 981 960 942 927 915 906 903 903 903 903 903 900 900 897 897 897 897 897 897 897 894 894 894 894 891 891 891 891 891 888 888 885 885 885 885 882 882 882 882 882 882 879 879 879 879 879 879 876 876 876 876 876 876 876 879 879 876 876 873 870 870 870 870 870 870 870 870 870 867 867 870 870 870 870 870 870 870 870 870 870 870 870 870 870 870 870 870 870 870 867 870 870 870 870 870 870 870 873 873 870 870 870 870 867 867 867 867 867 870 870 873 873 873 873 870 870 867 867 867 867 867 870 870 870 870 870 870 870 870 870 870 870 870 870 870 870 870 870 870 870 870 870 870 870 870 870 870 870 870 870 870 870 870 870 870 870 870 870 870 870 870 870 870 870 870 870 870 870 870 870 873 873 873 876 876 873 873 876 876 876 873 873 873 873 873 873 873 873 870 870 870 870 870 870 870 870 870 870 870 870 870 870 870 870 870 873 873 876 876 879 879 879 879 876 876 873 873 873 876 876 876 876 876 876 879 879 879 879 879 879 882 885 888 891 894 894 894 891 888 885 885 885 885 888 891 897 903 915 933 954 981 1011 1038 1053 1071 1092 1113 1137 1155 1176 1188 1191 1194 1194 1197 1197 1188 1182 1167 1146 1125 1107 1089 1074 1074 1074 1086 1107 1125 1140 1158 1170 1173 1176 1173 1167 1164 1152 1143 1131 1122 1113 1104 1095 1083 1068 1053 1047 1047 1044 1050 1056 1065 1077 1089 1104 1119 1134 1149 1164 1170 1173 1176 1167 1158 1146 1137 1125 1113 1101 1089 1092 1092 1092 1095 1095 1095 1095 1092 1098 1101 1104 1104 1104 1086 1071 1056 1059 1059 1065 1077 1086 1089 1095 1098 1098 1101 1095 1089 1083 1077 1071 1065 1059 1053 1053 1056 1062 1077 1089 1092 1086 1083 1080 1080 1080 1086 1089 1086 1083 1080 1080
906 906 906 906 906 906 906 906 906 906 906 906 906 906 906 906 912 918 930 951 969 978 987 996 999 1002 999 993 987 966 948 933 921 912 906 906 903 903 903 903 900 900 897 897 897 897 897 897 894 894 894 894 894 894 894 891 891 888 888 888 885 885 885 885 882 882 882 882 882 882 879 879 879 879 879 876 876 876 876 876 876 876 879 879 876 876 873 873 870 870 870 870 870 870 870 870 870 870 870 870 870 870 870 870 870 870 870 870 870 870 870 870 870 870 870 870 870 870 870 870 870 870 870 870 870 873 870 870 870 870 870 867 867 867 867 867 870 873 873 873 873 873 870 870 867 867 867 867 867 867 867 870 870 870 870 870 870 870 870 870 870 870 870 870 870 870 870 870 870 870 870 870 870 870 870 870 870 870 870 870 870 870 870 870 870 870 870 870 870 870 870 870 870 870 870 870 870 873 873 873 873 873 873 873 873 873 873 873 873 873 873 873 873 873 873 873 873 873 873 870 870 870 870 870 870 870 870 870 870 870 870 870 873 873 873 876 876 879 879 879 879 879 876 873 873 873 873 876 876 876 876 876 876 879 879 879 879 879 879 879 882 885 885 885 885 885 882 882 882 882 885 888 891 897 900 912 930 948 978 1008 1038 1059 1080 1098 1119 1137 1152 1167 1179 1176 1176 1179 1182 1185 1179 1173 1158 1137 1116 1095 1074 1059 1059 1062 1077 1098 1119 1134 1149 1158 1161 1164 1164 1164 1161 1155 1146 1137 1122 1110 1101 1092 1083 1071 1059 1056 1059 1062 1068 1074 1080 1089 1098 1110 1125 1140 1152 1167 1173 1170 1170 1161 1152 1143 1131 1119 1107 1095 1083 1083 1083 1083 1086 1089 1089 1092 1092 1098 1104 1107 1107 1110 1092 1074 1062 1059 1056 1059 1065 1074 1080 1086 1092 1095 1095 1092 1086 1080 1074 1068 1062 1059 1053 1053 1056 1062 1077 1089 1092 1089 1083 1089 1092 1092 1089 1089 1083 1077 1071 1071
906 906 906 906 906 906 906 906 906 906 906 906 906 906 906 906 912 918 930 951 969 981 990 999 999 1002 999 993 990 972 954 939 927 918 912 912 909 906 906 903 903 900 900 897 897 897 897 897 894 894 894 894 894 891 891 891 891 891 888 888 888 885 885 885 885 885 885 885 882 882 882 879 879 879 879 879 876 876 876 876 876 879 879 882 879 876 876 873 870 870 870 870 870 870 870 870 870 870 870 870 870 870 870 870 870 870 870 870 870 867 870 870 870 870 870 870 870 870 870 870 870 870 870 870 870 870 870 870 870 870 870 870 867 867 870 870 870 873 873 873 873 873 873 870 870 870 867 870 870 870 870 870 870 870 870 870 870 870 870 870 870 870 867 870 870 870 870 870 870 870 870 870 870 870 873 870 870 870 870 870 870 870 870 870 870 870 870 870 870 870 870 870 870 870 870 870 870 873 873 873 873 873 873 873 873 873 873 873 873 873 873 873 873 873 873 873 873 873 873 873 870 870 870 870 870 870 870 870 870 873 873 873 873 873 873 876 876 879 879 879 879 879 876 873 873 873 873 873 873 876 876 876 876 879 879 879 879 879 876 876 879 879 879 879 879 879 879 879 879 882 882 885 888 894 900 912 927 945 972 1005 1035 1062 1089 1107 1125 1140 1152 1161 1164 1161 1158 1161 1164 1170 1167 1164 1152 1131 1107 1086 1062 1047 1050 1053 1071 1095 1119 1128 1137 1146 1149 1155 1155 1158 1161 1158 1158 1149 1140 1128 1122 1116 1110 1101 1092 1089 1089 1089 1092 1095 1098 1101 1107 1119 1131 1143 1155 1167 1170 1167 1161 1152 1143 1134 1125 1116 1107 1101 1095 1092 1089 1086 1089 1089 1089 1092 1092 1095 1098 1101 1104 1107 1095 1077 1065 1062 1056 1059 1062 1068 1074 1080 1086 1089 1092 1089 1083 1077 1071 1065 1059 1056 1050 1056 1059 1068 1080 1095 1098 1095 1095 1095 1098 1095 1089 1083 1077 1071 1068 1068
1068 1068 1068 1068 1068 1068 1068 1068 1068 1068 1068 1068 1068 1068 1068 1068 1068 1068 1068 1068 1068 1068 1068 1068 1068 1068 1068 1068 1068 1068 1068 1068 1068 1068 1068 1068 1068 1068 1068 1068 1068 1068 1068 1068 1068 1068 1068 1068 1068 1068 1068 1068 1068 1068 1068 1068 1068 1068 1068 1068 1068 1068 1068 1068 1068 1068 1068 1068 1068 1068 1068 1068 1068 1068 1068 1068 1068 1068 1068 1068 1068 1068 1068 1068 1068 1068 1068 1068 1068 1068 1068 1068 1068 1068 1068 1068 1068 1068 1068 1068 1068 1068 1068 1068 1068 1068 1068 1068 1068 867 870 870 870 870 870 870 870 870 870 870 870 870 867 870 870 870 870 873 870 870 870 870 870 870 870 870 870 873 873 873 873 873 873 870 870 870 870 870 870 870 873 873 873 873 873 870 870 870 870 870 867 867 867 870 870 870 870 870 870 870 870 870 870 873 873 873 870 870 870 870 870 870 870 870 870 870 870 870 870 870 870 870 870 870 870 870 873 873 873 873 873 873 873 873 873 873 873 873 873 873 873 870 870 873 873 873 873 873 873 873 873 873 870 870 870 870 870 870 870 870 870 870 873 873 873 873 876 879 879 879 879 876 876 873 873 873 873 873 873 873 876 876 876 876 876 876 876 876 876 876 876 876 879 879 879 879 879 879 879 879 882 885 885 891 897 909 927 942 969 996 1026 1053 1080 1098 1113 1128 1137 1149 1152 1146 1140 1140 1146 1149 1149 1149 1140 1122 1104 1080 1056 1041 1044 1047 1062 1083 1104 1113 1119 1128 1134 1140 1146 1152 1155 1158 1158 1155 1146 1140 1134 1131 1128 1122 1119 1116 1113 1110 1113 1113 1116 1119 1125 1131 1140 1149 1158 1164 1164 1158 1155 1146 1137 1128 1122 1116 1110 1107 1101 1098 1098 1095 1092 1092 1092 1089 1092 1095 1101 1104 1107 1107 1095 1083 1071 1065 1059 1062 1065 1068 1074 1080 1083 1086 1089 1086 1080 1077 1068 1062 1059 1056 1050 1062 1071 1080 1092 1104 1104 1104 1104 1101 1101 1098 1089 1080 1074 1071 1068 1068
1074 1074 1074 1074 1074 1074 1074 1074 1074 1074 1074 1074 1074 1074 1074 1074 1074 1074 1074 1074 1074 1074 1074 1074 1074 1074 1074 1074 1074 1074 1074 1074 1074 1074 1074 1074 1074 1074 1074 1074 1074 1074 1074 1074 1074 1074 1074 1074 1074 1074 1074 1074 1074 1074 1074 1074 1074 1074 1074 1074 1074 1074 1074 1074 1074 1074 1074 1074 1074 1074 1074 1074 1074 1074 1074 1074 1074 1074 1074 1074 1074 1074 1074 1074 1074 1074 1074 1074 1074 1074 1074 1074 1074 1074 1074 1074 1074 1074 1074 1074 1074 1074 1074 1074 1074 1074 1074 1074 1074 1074 1074 1074 1074 1074 1074 1074 1074 1074 1074 1074 1074 1074 1074 1074 1074 1074 1074 1074 1074 1074 1074 1074 1074 1074 1074 1074 1074 1074 1074 1074 1074 1074 1074 1074 1074 1074 1074 1074 1074 1074 1074 1074 1074 1074 1074 1074 1074 1074 1074 1074 1074 1074 1074 1074 1074 1074 1074 1074 1074 1074 1074 1074 1074 1074 1074 1074 1074 1074 1074 1074 1074 1074 1074 1074 1074 1074 1074 1074 1074 1074 1074 1074 1074 1074 1074 1074 1074 1074 1074 1074 1074 1074 1074 1074 1074 1074 1074 1074 1074 1074 1074 1074 1074 1074 1074 1074 1074 1074 1074 1074 1074 1074 1074 1074 1074 1074 1074 1074 1074 1074 1074 1074 1074 1074 1074 1074 1074 1074 1074 1074 1074 1074 1074 1074 1074 1074 1074 1074 1074 1074 1074 1074 1074 1074 1074 1074 1074 1074 1074 1074 1074 1074 1074 1074 1074 1074 1074 1074 1074 1074 1074 1074 1074 1074 1074 1074 1074 1074 1074 1074 1074 1074 1074 1074 1074 1074 1074 1074 1074 1074 1074 1074 1074 1074 1074 1074 1074 1074 1074 1074 1074 1074 1074 1074 1074 1074 1074 1074 1074 1074 1074 1074 1074 1074 1074 1074 1074 1074 1074 1074 1074 1074 1074 1074 1074 1074 1134 1131 1134 1137 1137 1140 1143 1146 1152 1155 1158 1158 1158 1152 1149 1143 1134 1128 1125 1119 1113 1110 1107 1104 1104 1101 1098 1095 1092 1089 1089 1095 1104 1107 1107 1110 1098 1086 1074 1071 1065 1065 1065 1068 1074 1077 1080 1083 1086 1083 1080 1074 1068 1062 1059 1056 1056 1068 1083 1098 1107 1116 1116 1113 1110 1104 1101 1095 1089 1083 1080 1077 1074 1074
