ncols 300
nrows 300
xllcorner 14.58471997753562
yllcorner 46.21482397449162
cellsize 100
NODATA_value -9999
101 101 32 32 32 2 2 2 2 2 2 2 2 2 2 2 2 2 2 2 32 32 32 2 32 32 32 101 101 101 101 32 32 2 2 2 32 32 32 32 2 32 32 101 101 32 101 101 101 32 101 101 32 2 2 2 2 2 32 2 2 32 32 2 2 2 2 2 2 2 32 32 32 101 101 101 101 101 101 101 32 2 2 2 2 2 2 2 2 2 2 2 2 2 2 2 2 2 2 2 2 2 2 2 2 2 2 32 32 32 32 2 32 32 2 2 32 32 32 32 32 32 32 32 2 2 32 32 32 32 101 101 101 32 32 32 32 32 101 101 101 32 2 2 2 2 2 2 2 2 2 2 2 2 2 2 2 2 2 2 2 2 2 2 2 2 2 2 2 2 2 2 2 2 2 2 2 2 2 2 2 2 2 2 2 2 2 2 101 101 32 2 2 2 2 2 2 2 2 2 2 2 2 2 2 2 2 2 32 32 32 2 2 2 2 2 2 2 2 2 2 2 2 2 2 2 2 2 2 2 2 2 2 2 2 2 2 2 2 2 2 2 2 2 2 2 2 2 2 2 2 2 2 2 2 2 2 2 2 2 2 2 2 2 2 2 2 2 2 2 2 2 2 2 2 2 2 2 2 2 2 32 2 32 2 2 2 32 2 2 2 2 2 2 2 2 2 2 32 2
101 101 32 2 2 32 32 2 2 2 2 2 2 2 2 2 2 2 2 2 32 32 2 2 2 32 101 101 101 101 101 32 32 2 2 2 2 2 2 2 2 2 32 101 32 32 32 101 101 32 32 101 101 101 32 32 2 2 2 2 2 32 32 2 2 2 2 2 2 2 32 32 101 32 101 101 101 101 101 32 2 2 2 2 2 2 2 2 2 2 2 2 2 2 2 2 2 2 2 2 2 2 2 32 32 32 32 32 32 32 32 32 32 32 32 32 32 32 32 32 32 32 32 32 32 32 32 32 32 32 32 32 32 32 32 32 32 32 32 101 32 32 32 32 32 32 32 2 2 2 2 2 2 2 2 2 2 2 2 2 2 2 2 2 2 2 2 2 2 2 2 32 2 2 2 2 2 2 2 2 2 2 2 2 2 2 2 2 32 101 32 2 2 2 2 2 2 2 2 2 2 2 2 2 2 32 32 2 2 32 101 32 2 2 2 2 2 2 2 2 2 2 2 2 2 2 2 2 2 2 2 2 2 2 2 2 2 2 2 2 2 2 2 2 2 2 2 2 2 2 2 2 2 2 2 2 2 2 2 2 2 2 2 2 2 2 2 2 2 2 2 2 2 2 2 2 2 2 2 2 2 32 2 2 32 2 2 2 2 2 2 2 2 2 2 2 2 2 2 2
32 101 101 32 32 32 32 32 32 32 32 32 32 32 32 32 2 2 32 32 2 32 2 32 32 32 32 101 101 101 101 32 32 32 2 2 2 2 2 2 2 2 2 32 101 101 101 32 32 32 32 32 101 101 32 32 32 32 2 2 2 32 32 2 2 2 2 2 2 32 32 101 101 101 101 101 101 101 32 2 2 2 2 32 2 2 2 2 2 2 2 2 2 32 2 2 2 2 2 2 2 2 32 32 32 32 32 32 2 2 32 32 32 2 2 32 32 32 32 32 32 32 32 32 32 32 2 2 32 2 2 32 2 2 2 32 32 32 32 32 32 32 32 32 32 32 32 32 32 32 32 32 2 2 2 2 2 2 2 2 2 2 2 2 2 2 2 2 2 2 2 32 2 2 2 2 2 2 2 2 2 2 2 2 2 2 2 2 2 32 2 2 2 2 2 2 2 2 2 2 2 2 2 2 2 2 32 2 2 2 32 32 2 2 2 2 2 2 2 2 2 2 2 2 2 2 2 2 2 2 2 2 2 2 2 2 2 2 2 2 2 2 2 2 2 2 2 2 2 2 2 2 2 2 2 2 2 2 2 2 2 2 2 2 2 2 2 2 2 2 2 2 2 2 2 2 2 2 2 2 32 32 2 2 2 2 2 2 2 2 2 2 2 2 2 2 2 32 2 2
32 32 32 101 101 101 101 32 101 101 101 101 32 32 32 32 32 32 32 32 32 32 32 32 101 101 32 32 32 32 32 32 32 32 32 2 2 2 2 2 2 2 32 32 32 32 32 2 2 32 32 32 101 32 101 32 32 32 32 2 2 32 2 2 2 2 2 2 2 32 101 101 101 101 101 101 101 32 2 2 2 2 2 2 2 2 2 2 2 2 2 2 2 2 2 2 2 2 2 2 2 32 32 32 32 32 32 2 2 2 32 32 32 32 2 2 32 32 32 101 101 32 32 32 32 32 2 2 2 32 32 32 32 32 32 32 2 2 32 32 2 2 32 2 2 2 32 32 32 32 32 32 32 32 2 2 2 2 2 2 2 2 2 2 2 2 2 2 2 32 32 32 2 2 2 32 2 2 2 2 2 2 2 2 2 2 2 2 2 2 2 2 2 2 2 2 2 2 2 2 2 2 2 2 2 2 2 2 2 32 32 2 2 2 2 2 2 2 2 2 2 2 2 2 2 2 2 2 2 2 2 2 2 2 2 2 2 2 2 2 2 2 2 2 2 2 2 2 2 2 2 2 2 2 2 2 2 2 2 2 2 2 2 2 2 2 2 2 2 2 2 2 2 2 2 2 2 2 32 32 32 2 2 2 2 2 2 2 2 2 2 2 2 2 2 2 2 32 32 2
32 32 32 101 32 101 101 101 101 101 101 101 101 32 32 32 101 32 32 32 101 101 32 32 32 32 32 32 2 32 32 32 32 2 32 2 2 2 2 2 2 2 2 32 2 2 2 32 2 2 32 32 32 32 101 101 32 32 32 2 32 32 2 2 2 2 2 2 32 101 101 101 101 32 101 101 2 2 2 2 2 2 2 2 2 2 2 2 2 2 2 2 2 2 2 2 2 2 2 2 2 2 32 2 32 2 2 2 2 2 32 32 32 32 2 2 32 32 32 32 101 101 101 32 32 32 2 32 2 2 32 32 2 2 2 2 2 2 32 32 32 2 2 2 2 2 32 32 32 32 32 32 32 32 32 2 2 2 2 2 2 2 2 2 2 32 32 32 32 101 32 2 2 2 2 2 2 2 2 2 2 2 2 2 2 2 2 2 2 2 2 2 2 2 2 2 2 2 2 2 2 2 2 2 2 2 2 2 32 32 2 2 2 2 2 2 2 2 2 2 2 2 2 2 2 2 2 2 2 2 2 2 2 2 2 2 2 2 2 2 2 2 2 2 2 2 2 2 2 2 2 2 2 2 2 2 2 2 2 2 2 2 2 2 2 2 2 2 2 2 2 2 2 2 2 2 2 2 32 2 2 2 2 2 2 2 2 2 2 2 2 2 2 2 2 2 2 2 32 32
32 32 32 101 101 101 101 101 101 101 101 32 32 32 32 101 101 32 32 32 32 32 32 32 32 32 2 2 32 32 32 32 32 32 32 2 2 2 2 2 2 2 32 2 2 2 2 2 2 2 2 32 32 32 32 101 101 32 32 32 32 2 2 2 2 2 2 2 32 101 101 101 101 101 32 2 2 2 2 2 2 2 2 2 2 2 2 2 2 2 2 2 2 2 2 2 2 2 2 2 2 2 2 2 2 2 2 2 2 2 2 32 32 32 32 32 32 32 32 32 101 101 101 101 2 2 2 2 32 32 32 32 2 2 2 2 2 2 2 32 32 2 2 2 2 2 2 32 32 32 32 32 32 32 32 2 2 2 2 2 2 2 2 2 2 32 32 32 32 32 2 2 2 2 2 2 32 32 2 2 2 2 2 2 2 2 2 2 2 2 2 2 2 2 2 2 2 2 2 2 2 2 2 2 2 2 2 2 101 101 2 2 2 2 2 2 2 2 2 2 2 2 2 2 2 2 2 2 2 2 2 2 2 2 2 2 2 2 2 2 2 2 2 2 2 2 2 2 2 2 2 2 2 2 2 2 2 2 2 2 2 2 2 2 2 2 2 2 2 2 2 2 2 2 2 2 2 2 2 2 2 32 32 2 2 2 2 2 2 2 2 2 2 2 2 2 2 2 32 32
32 32 101 101 101 32 101 101 101 101 101 32 32 32 32 101 101 101 101 32 32 32 32 32 32 32 32 32 32 32 32 32 32 32 32 32 32 32 2 2 2 2 32 32 32 2 2 2 2 2 2 2 2 32 32 32 32 32 32 32 32 2 2 2 2 2 2 32 32 101 32 101 101 101 32 2 2 2 2 2 2 2 2 2 2 2 2 2 2 2 2 2 2 2 2 2 2 2 2 2 2 2 2 2 2 2 2 2 2 2 2 32 32 32 2 32 32 32 32 32 32 32 32 32 2 2 2 2 32 32 32 32 32 32 2 2 2 32 32 2 2 2 2 2 2 2 32 32 32 32 32 32 32 32 32 2 2 2 2 2 32 2 2 2 32 32 32 2 2 2 2 2 2 2 2 2 2 2 2 2 2 2 2 2 2 2 2 2 2 2 2 2 2 2 2 2 2 2 2 2 2 2 2 2 2 2 2 2 101 101 2 2 2 2 2 2 2 2 2 2 2 2 2 2 2 2 2 2 2 2 2 2 2 2 2 2 2 2 2 2 2 2 2 2 2 2 2 2 2 2 2 2 2 2 2 2 2 2 2 2 2 2 2 2 2 2 2 2 2 2 2 2 2 2 2 2 2 2 2 2 2 101 101 2 2 2 2 2 2 2 2 2 2 2 2 2 2 2 2 32
32 32 32 32 101 101 101 32 32 101 101 32 32 32 32 101 101 101 101 101 32 32 32 101 101 32 32 101 101 32 32 32 32 101 101 32 32 32 32 32 32 2 2 32 32 32 32 32 32 32 32 32 32 32 32 32 32 32 32 32 32 32 32 2 2 2 2 32 101 101 101 101 101 101 32 2 2 2 2 2 2 2 32 32 32 101 32 32 32 32 32 2 2 2 2 2 2 2 2 2 2 2 2 2 2 2 2 32 32 2 2 32 32 32 32 32 32 32 32 2 2 2 2 2 2 2 2 2 2 2 32 32 32 32 32 32 2 32 32 2 2 2 2 2 2 2 2 32 32 2 2 2 2 32 32 2 2 2 2 2 2 2 2 2 32 32 2 2 2 2 2 2 32 32 2 2 2 2 2 2 2 2 2 2 2 2 2 2 2 2 2 2 2 2 2 2 2 2 2 2 2 2 2 2 2 2 2 32 101 101 32 2 2 2 2 2 2 2 2 2 2 2 2 2 2 2 2 2 2 2 2 2 2 2 2 2 2 2 2 2 2 2 2 2 2 2 2 2 2 2 2 2 2 2 2 2 2 2 2 2 2 2 2 2 2 2 2 2 2 2 2 2 2 2 2 2 2 2 2 2 2 101 32 2 2 2 2 2 2 2 2 2 2 2 2 2 2 2 2 32
2 2 32 32 101 101 32 2 2 2 2 32 32 32 101 101 101 101 101 101 101 101 32 32 32 32 32 101 101 32 101 32 32 32 101 101 101 32 32 32 32 2 2 2 32 32 32 32 32 32 32 32 32 32 2 2 32 101 32 2 2 32 32 32 32 2 32 32 101 101 101 101 101 32 2 2 32 32 32 2 2 32 101 101 101 101 101 32 32 32 32 32 32 32 101 101 32 32 32 32 32 32 32 2 2 2 2 32 32 2 2 2 32 32 32 32 2 2 2 2 2 2 2 2 2 2 2 2 2 2 2 2 2 32 32 32 32 32 2 2 2 2 2 32 32 2 2 2 2 2 2 2 2 2 2 2 2 2 2 2 2 2 2 2 32 2 2 2 2 2 2 2 2 32 32 2 2 2 2 2 2 2 2 2 2 2 2 2 2 2 2 2 2 2 2 2 2 2 2 2 2 2 2 2 2 2 2 2 101 101 32 2 2 2 2 2 2 2 2 2 2 2 2 2 2 2 2 2 2 2 2 2 2 2 2 2 2 2 2 2 2 2 2 2 2 2 2 2 2 2 2 2 2 2 2 2 2 2 2 2 2 2 2 2 2 2 2 2 2 2 2 2 2 2 2 2 2 2 2 2 2 32 32 2 2 2 2 2 2 2 2 2 2 2 2 2 2 2 2 32
2 2 32 32 101 101 32 2 2 2 2 2 101 101 32 101 101 32 101 101 101 101 32 32 32 32 32 32 101 32 101 32 32 32 32 101 32 32 101 101 101 101 32 2 2 2 32 101 101 32 32 2 32 32 32 32 32 32 32 32 32 32 2 2 32 32 2 2 32 101 101 101 101 32 2 32 32 2 2 2 32 101 101 101 101 101 2 2 2 2 2 2 2 2 101 101 32 101 101 101 101 101 32 32 32 2 2 2 2 2 2 2 2 2 2 2 2 2 2 2 2 2 2 2 2 2 2 2 2 2 2 2 2 32 2 2 2 2 2 2 2 2 2 2 32 2 2 2 2 2 2 2 2 2 2 2 2 2 2 2 2 2 2 2 32 2 2 2 2 2 2 2 2 2 2 2 2 2 2 2 2 2 2 2 2 2 2 2 2 2 2 2 2 2 2 2 2 2 2 2 2 2 2 2 2 2 2 2 32 32 32 2 2 2 2 2 2 2 2 2 2 2 2 2 2 2 2 2 2 2 2 2 2 2 2 2 2 2 2 2 2 2 2 2 2 2 2 2 2 2 2 2 2 2 2 2 2 2 2 2 2 2 2 2 2 2 2 2 2 2 2 2 2 2 2 2 2 2 2 2 2 2 2 2 2 2 2 2 2 2 2 2 2 2 2 2 2 2 2 32
2 2 32 32 101 101 32 32 32 2 2 32 101 101 2 32 32 32 32 32 101 101 32 2 32 32 32 32 32 101 101 101 32 32 2 32 32 32 101 101 101 101 101 32 32 101 32 32 101 101 32 32 32 32 101 101 32 32 32 101 32 32 2 2 2 32 2 32 101 101 101 101 101 101 2 32 101 2 2 101 101 101 101 101 32 2 2 2 2 2 2 2 2 2 2 2 32 101 101 101 32 32 32 32 32 32 32 2 2 2 2 2 2 2 2 2 2 2 2 2 2 2 2 2 2 2 2 2 2 2 2 2 2 2 2 2 2 2 2 2 2 2 2 2 2 2 2 2 2 2 2 2 2 2 2 2 2 2 2 2 2 2 32 32 32 2 2 2 2 2 2 2 2 2 2 2 2 2 2 2 2 2 2 2 2 2 2 2 2 2 2 2 2 2 2 2 2 2 2 2 2 2 2 2 2 2 2 32 101 32 2 2 2 2 2 2 2 2 2 2 2 2 2 2 2 2 2 2 2 2 2 2 2 2 2 2 2 2 2 2 2 2 2 2 2 2 2 2 2 2 2 2 2 2 2 2 2 2 2 2 2 2 2 2 2 2 2 2 2 2 2 2 2 2 2 2 2 2 2 2 2 2 2 2 2 2 2 2 2 2 2 2 2 2 2 2 2 2 2 32
32 32 32 32 101 101 101 32 32 32 32 101 101 101 32 32 32 32 32 101 101 101 32 32 32 32 32 32 32 101 101 101 101 32 32 32 32 32 101 101 101 101 101 101 101 101 101 101 101 101 101 32 32 101 101 32 32 32 101 101 32 32 32 2 2 32 32 32 101 101 101 101 101 101 2 32 32 2 32 101 101 101 2 2 2 2 2 2 2 2 2 2 2 2 2 2 2 2 2 2 2 2 2 32 101 101 101 32 2 2 2 2 2 2 2 2 2 2 2 2 2 2 2 2 2 2 2 2 2 2 2 2 2 2 2 2 2 2 2 2 2 2 2 2 2 2 2 2 2 2 2 2 2 2 2 2 2 2 2 32 32 32 32 32 32 32 32 2 2 2 2 32 2 2 2 2 2 2 2 2 2 2 2 2 2 2 2 2 2 2 2 2 2 2 2 2 2 2 2 2 2 2 2 2 2 2 2 32 32 2 2 2 2 2 2 2 2 2 2 2 2 2 2 2 2 2 2 2 2 2 2 2 2 2 2 2 2 2 2 2 2 2 2 2 2 2 2 2 2 2 2 2 2 2 2 2 2 2 2 2 2 2 2 2 2 2 2 2 2 2 2 2 2 2 2 2 2 2 2 2 2 2 2 2 2 2 2 2 2 2 2 2 2 2 2 2 2 2 2 32
32 32 32 32 101 32 101 32 2 32 101 101 101 32 32 32 32 32 32 32 32 32 32 32 32 32 32 32 32 32 101 32 32 32 32 32 32 32 32 32 32 101 101 101 101 101 101 101 101 32 32 101 101 101 32 32 32 32 32 101 101 101 32 32 32 32 32 32 101 101 101 101 101 32 2 32 2 32 101 101 101 2 2 2 2 2 2 2 2 2 2 2 2 2 2 2 2 2 2 2 2 2 2 2 32 32 32 32 101 32 32 2 2 2 2 2 2 2 2 2 2 2 2 2 2 2 2 2 2 2 2 2 2 2 2 2 2 2 2 2 2 2 2 2 2 2 2 2 2 2 2 2 2 2 32 32 32 32 32 32 32 32 32 32 32 2 2 2 32 2 2 2 2 2 2 32 2 2 2 2 2 2 2 2 2 2 2 2 2 2 2 2 2 2 2 2 2 2 2 2 2 2 2 2 2 32 32 32 2 2 2 2 2 2 2 2 2 2 2 2 2 2 2 2 2 2 2 2 2 2 2 2 2 2 2 2 2 2 2 2 2 2 2 2 2 2 2 2 2 2 2 2 2 2 2 2 2 2 2 2 2 2 2 2 2 2 2 2 2 2 2 2 2 2 2 2 2 2 2 2 2 2 2 2 2 2 2 2 2 2 2 2 2 2 2 2 2 2 2 32
2 2 2 32 101 101 32 2 2 2 32 101 32 32 32 2 2 2 2 2 2 2 2 2 2 2 2 2 2 2 2 2 2 32 32 32 32 32 32 2 2 32 32 101 101 101 32 32 32 32 101 101 101 101 101 32 32 32 32 32 101 101 32 32 32 32 2 101 101 101 101 101 101 32 2 2 2 101 101 101 101 2 2 2 2 2 2 2 2 2 2 2 2 2 32 2 2 2 2 2 2 2 2 2 2 2 2 2 32 32 32 32 2 2 2 2 2 2 2 2 2 2 2 2 2 2 32 2 2 2 2 2 2 2 2 2 2 2 2 2 2 2 2 2 2 2 2 2 2 2 2 2 2 32 32 32 32 32 32 32 32 32 32 32 32 2 32 32 32 2 2 2 2 2 2 32 32 32 32 32 2 2 2 2 2 2 2 2 2 2 2 2 2 2 2 2 2 2 2 2 2 2 2 2 101 101 32 32 2 2 2 2 2 2 2 2 2 2 2 2 2 2 2 2 2 2 2 2 2 2 2 2 2 2 2 2 2 2 2 2 2 2 2 2 2 2 2 2 2 2 2 2 2 2 2 2 2 2 2 2 2 2 2 2 2 2 2 2 2 2 2 2 2 2 2 2 2 2 2 2 2 2 2 2 2 2 2 32 2 2 2 2 2 2 2 2 2 2 2 32
2 2 32 32 101 101 32 2 2 32 32 32 32 32 32 2 2 2 2 2 2 2 2 2 2 2 2 2 32 32 2 2 2 2 2 32 32 32 32 32 32 32 2 2 32 32 2 2 2 2 32 101 101 101 101 32 32 32 32 32 32 32 32 32 101 32 2 101 101 101 101 101 101 32 2 32 101 101 101 32 2 2 2 2 2 2 2 2 2 2 2 2 2 2 32 2 2 2 2 2 2 2 2 2 2 2 2 2 2 32 32 32 32 32 32 32 32 32 2 2 2 2 2 2 2 2 2 2 2 2 2 2 2 2 2 32 32 2 2 2 2 2 32 2 2 32 32 32 32 2 2 2 2 32 32 32 101 101 101 101 101 101 101 101 101 32 2 2 2 2 2 2 2 2 2 2 2 32 32 32 32 32 2 2 2 2 2 2 2 2 2 2 2 2 2 2 2 2 2 2 2 2 2 32 101 101 32 2 2 2 2 2 2 2 2 2 2 2 2 2 2 2 2 2 2 2 2 2 2 2 32 2 2 2 2 2 2 2 2 2 2 2 2 2 2 2 2 2 2 2 2 2 2 2 2 2 2 2 2 2 2 2 2 2 2 2 2 2 2 2 2 2 2 2 2 2 2 2 2 2 2 2 2 2 2 2 2 2 2 2 2 2 2 2 2 2 2 2 32 101
2 2 32 101 101 101 32 32 32 32 32 32 32 2 2 2 2 2 2 2 2 2 2 2 2 2 2 2 2 32 2 2 2 2 2 32 32 32 32 2 32 32 2 2 2 2 2 2 2 2 2 2 2 32 101 32 32 32 32 32 32 101 101 101 32 2 2 101 101 101 101 101 101 32 32 101 101 101 32 2 2 2 2 2 2 2 2 2 2 32 32 2 2 2 2 2 2 2 2 2 2 2 2 2 2 2 2 2 2 2 32 32 32 32 32 32 32 32 101 32 32 32 32 2 2 32 2 2 2 2 2 2 2 2 2 2 2 32 2 2 2 32 32 32 32 32 32 32 32 2 2 2 2 2 32 32 101 101 101 32 32 101 101 101 101 32 2 2 2 2 2 2 32 32 2 2 2 2 2 32 2 32 32 32 2 32 2 2 2 2 2 2 2 2 2 2 2 2 2 2 2 2 2 32 101 2 2 2 2 2 2 2 2 2 2 2 2 2 2 2 2 2 2 2 2 2 2 2 2 2 2 2 2 2 2 2 2 2 2 2 2 2 2 2 2 2 2 2 2 2 2 2 2 2 2 2 2 2 2 2 2 2 2 2 2 2 2 2 2 2 2 2 2 2 2 2 2 2 2 2 2 2 2 2 2 2 2 2 2 2 2 2 2 2 2 2 2 2 101 101
2 32 32 32 101 101 101 32 32 32 32 32 32 32 2 2 2 2 2 2 2 2 2 2 2 2 2 2 2 32 32 32 32 32 32 32 32 32 32 2 2 2 2 2 2 2 2 2 2 2 2 2 2 2 2 2 32 32 32 101 101 101 101 32 2 2 2 101 101 101 101 101 101 101 101 101 101 32 2 2 2 2 2 2 2 2 2 2 2 32 32 2 2 2 2 2 2 2 2 2 2 2 2 2 2 2 2 2 2 2 2 2 2 2 2 2 2 32 32 32 32 32 101 101 101 101 101 101 101 101 101 32 2 2 2 2 2 2 2 32 2 2 2 32 2 32 32 101 32 32 2 32 2 2 32 32 32 101 101 101 101 101 101 101 101 32 2 2 2 2 2 2 101 32 2 2 2 2 2 2 2 2 2 2 2 2 2 2 2 2 2 2 2 2 2 2 2 2 2 2 2 2 32 101 32 2 2 2 2 2 2 2 2 2 2 2 2 2 2 2 2 2 2 2 2 2 2 2 2 2 2 2 2 2 2 2 32 2 2 2 2 2 2 2 2 2 2 2 2 2 2 2 2 2 2 2 2 2 2 2 2 2 2 2 2 2 2 2 2 2 2 2 2 2 2 2 2 2 2 2 2 2 2 2 2 2 2 2 2 2 2 2 2 2 2 2 2 2 101 101
2 32 32 32 32 32 101 32 32 32 32 32 32 32 32 32 32 2 2 2 2 2 2 2 2 2 2 2 2 2 32 32 32 32 32 32 2 32 32 2 2 2 2 2 2 2 2 2 2 2 2 2 2 2 2 2 2 2 2 101 101 101 101 32 32 2 2 101 101 101 101 101 101 101 101 101 32 2 2 2 2 2 2 2 2 2 2 2 2 101 101 32 2 2 2 2 2 2 2 2 2 2 2 2 2 2 2 2 2 2 2 2 2 2 2 2 2 2 2 2 2 2 2 2 2 101 101 101 101 101 101 101 101 32 32 2 2 2 2 32 32 32 2 2 2 2 32 32 32 2 32 32 32 32 32 32 32 32 32 101 101 32 101 101 101 32 32 2 2 2 2 2 2 2 2 2 2 2 2 2 2 2 2 2 2 2 2 2 2 2 2 2 2 2 2 2 2 2 2 2 2 2 101 101 101 32 2 2 2 2 2 2 2 2 2 2 2 2 2 2 2 2 2 2 2 2 2 2 2 2 2 2 2 2 2 2 2 2 2 2 2 2 2 2 2 2 2 2 2 2 2 2 2 2 2 2 2 2 2 2 2 2 2 2 2 32 2 2 2 2 2 2 2 2 2 2 2 2 2 2 2 2 2 2 2 2 2 2 2 2 2 2 2 2 2 2 2 2 101 101
32 32 2 32 32 2 32 32 2 2 2 2 32 32 2 32 32 32 2 2 2 2 2 2 2 2 2 2 32 2 32 32 32 32 2 32 32 32 32 32 2 2 2 2 2 2 2 2 2 2 2 2 2 2 2 2 2 2 2 2 32 101 101 101 101 32 32 32 101 101 101 101 101 101 32 32 32 2 2 2 2 2 2 2 32 32 2 2 2 101 101 2 32 32 32 32 32 2 2 2 2 2 2 2 2 2 2 2 2 2 2 2 2 2 2 2 2 2 2 2 2 2 2 2 2 2 2 2 32 32 32 32 101 101 101 101 32 32 32 32 32 101 32 2 2 2 2 32 32 32 101 101 101 101 101 101 101 32 101 101 101 32 32 32 101 101 101 2 2 2 2 2 2 2 2 2 2 2 2 2 2 2 2 2 2 2 2 2 2 2 2 2 2 2 2 2 2 2 2 2 2 32 101 101 32 32 2 2 2 2 2 2 2 2 2 2 2 2 2 2 2 2 2 2 2 2 2 2 2 2 2 2 2 2 2 2 2 2 2 2 2 2 2 2 2 2 2 2 2 2 2 2 2 2 2 2 2 2 2 2 2 2 2 2 2 2 2 2 2 2 2 2 2 2 2 2 2 2 2 2 2 2 2 2 2 2 2 2 2 2 2 2 2 2 2 2 2 32 101 101
32 32 32 101 101 32 32 101 101 2 2 2 2 32 32 32 32 2 32 2 2 2 2 2 2 2 2 2 32 32 32 32 2 32 32 32 32 32 2 32 2 2 2 2 2 2 2 2 2 2 2 2 2 2 2 2 2 2 2 2 2 101 101 101 101 101 32 101 32 101 101 101 101 101 32 101 32 32 2 2 2 2 2 32 32 2 2 2 2 32 101 32 32 32 32 32 32 2 2 2 2 2 2 2 2 2 2 2 2 2 2 2 2 2 2 2 2 2 2 2 2 2 2 2 2 2 2 2 2 2 2 2 2 101 101 101 101 101 101 101 101 101 101 101 101 32 32 32 32 32 32 32 32 101 101 101 101 101 101 101 101 101 101 32 101 32 32 2 2 2 32 2 2 2 2 2 2 2 2 2 2 2 2 2 2 2 2 2 2 2 2 2 2 2 2 2 2 2 2 2 32 101 101 101 32 32 32 2 2 2 2 2 2 2 2 2 2 2 2 2 2 2 2 2 2 2 2 2 2 2 2 2 2 2 2 2 2 2 2 2 2 2 2 2 2 2 2 2 2 2 2 2 2 2 2 2 2 2 2 2 2 2 2 2 32 2 2 2 2 2 2 2 2 2 2 2 2 2 2 2 2 2 2 2 2 2 2 2 2 2 2 2 2 2 2 2 2 101 101 101
2 32 32 101 101 32 32 101 101 2 2 2 2 2 32 2 2 32 2 2 2 2 2 2 2 2 2 2 2 2 2 32 32 32 32 32 2 2 2 2 2 2 2 2 2 2 2 2 2 2 2 2 2 2 2 2 2 2 2 2 2 32 101 101 101 101 101 101 101 101 101 101 101 101 32 32 32 32 32 2 2 2 2 2 2 2 2 2 2 32 32 32 32 32 32 32 32 2 2 2 2 2 2 2 2 2 2 2 2 2 2 2 2 2 2 2 2 2 2 2 2 2 2 2 2 2 2 2 2 2 2 2 2 32 32 32 32 32 32 32 32 101 101 101 101 101 32 32 2 2 2 32 32 32 101 101 101 101 101 101 101 101 101 101 101 101 101 32 32 32 2 2 2 2 2 2 2 2 2 2 2 2 2 2 32 2 2 2 2 2 2 2 2 2 2 2 2 2 2 32 32 101 101 101 32 32 32 32 2 2 2 2 32 32 32 2 2 2 2 2 2 2 2 2 2 2 2 2 2 2 2 2 2 2 2 2 2 2 2 2 2 2 2 2 2 2 2 2 2 2 2 2 2 2 2 2 2 2 2 2 2 2 2 2 2 2 2 2 2 2 2 2 2 2 2 2 2 2 2 2 2 2 2 2 2 2 2 2 2 2 2 2 2 2 2 2 32 101 101 32
2 2 101 101 101 101 32 101 101 2 2 2 2 2 2 2 2 2 2 2 2 2 2 2 2 2 2 2 2 2 2 2 2 2 2 32 2 2 2 2 2 2 2 2 2 2 2 2 2 2 2 2 2 2 2 2 2 2 2 2 2 2 32 101 101 101 101 101 101 101 101 101 32 32 32 32 32 2 32 2 2 2 2 2 2 2 2 2 2 32 32 2 32 32 32 32 2 2 2 2 2 2 2 2 2 2 2 2 2 2 2 2 2 2 2 2 2 2 2 2 2 2 2 2 2 2 2 2 2 2 2 2 2 2 2 2 2 2 2 2 2 2 32 32 32 32 2 2 2 2 2 2 2 32 101 101 101 101 101 101 101 101 101 101 101 101 101 101 101 32 32 32 2 2 2 2 2 2 2 2 2 2 2 2 2 32 2 2 2 2 2 2 2 2 2 2 2 2 32 32 101 101 101 101 32 2 32 32 32 2 2 2 2 32 32 2 2 2 2 2 2 2 2 2 2 2 2 2 2 2 2 2 2 2 2 2 2 2 2 2 2 2 2 2 2 2 2 2 2 2 2 2 2 2 2 2 2 2 2 2 2 2 2 2 2 2 2 2 2 2 2 2 2 2 2 2 2 2 2 2 2 2 2 2 2 2 2 2 2 2 2 2 2 2 2 2 32 101 101 2
2 2 32 32 101 32 32 32 32 32 32 2 32 2 2 2 2 2 2 2 2 2 2 2 2 2 2 2 2 2 2 2 2 32 101 101 32 2 2 2 2 2 2 2 2 2 2 2 2 2 2 2 2 2 2 2 2 2 2 2 2 2 2 101 101 101 101 101 101 101 101 101 101 32 32 32 2 2 32 32 32 32 2 2 2 2 2 2 2 32 32 2 32 32 32 32 2 2 2 2 2 2 2 2 2 2 2 2 2 2 2 2 2 2 2 2 2 2 2 2 2 2 2 2 2 2 2 2 2 2 2 2 2 2 2 2 2 2 2 2 2 2 2 2 2 2 2 2 2 2 2 2 2 2 32 101 101 101 101 101 101 101 101 101 101 101 101 101 101 32 32 101 101 101 32 32 32 32 2 2 2 2 2 2 2 32 32 2 2 2 2 2 2 2 2 2 32 32 101 101 101 101 101 101 32 2 2 32 32 2 2 2 2 2 2 2 2 2 2 2 2 2 2 2 2 2 2 2 2 2 2 2 2 2 2 2 2 2 2 2 2 2 2 2 2 2 2 2 2 2 2 2 2 2 2 2 2 2 2 2 2 2 2 2 2 2 2 2 2 2 2 2 2 2 2 2 2 2 2 2 2 2 2 2 2 2 2 2 2 2 2 2 2 2 2 32 101 101 101 2
2 2 2 32 32 32 32 2 2 2 32 32 32 32 2 2 2 2 2 2 2 2 2 2 2 2 2 2 2 2 2 2 2 32 101 101 32 2 2 2 2 2 2 2 2 2 2 2 2 2 2 2 2 2 2 2 2 2 2 2 2 2 2 32 101 101 101 101 101 101 101 101 101 2 2 32 32 32 32 32 32 32 32 2 2 2 2 2 2 32 32 32 32 32 32 2 2 2 2 2 2 2 2 2 2 2 2 2 2 2 2 2 2 2 2 2 2 2 2 2 2 2 2 2 2 2 2 2 2 2 2 2 2 2 2 2 2 2 2 2 2 2 2 2 2 2 2 2 2 2 2 32 2 2 2 2 2 32 32 2 2 2 2 32 101 101 101 101 101 101 101 101 101 101 101 101 32 32 32 2 2 2 2 2 2 32 32 32 32 32 32 32 32 2 2 32 101 32 101 101 101 101 101 101 32 32 32 32 32 32 32 32 32 2 2 2 2 2 2 2 2 2 2 2 2 2 2 2 2 2 2 2 2 2 2 2 2 2 2 2 2 2 2 2 2 2 2 2 2 2 2 2 2 2 2 2 2 2 2 2 2 2 2 2 2 2 2 2 2 2 2 2 2 2 2 2 2 2 2 2 2 2 2 2 2 2 2 2 2 2 2 2 2 2 32 32 101 101 101 32
2 2 2 2 32 32 32 2 2 2 2 32 32 32 32 32 32 32 32 2 2 2 2 2 2 2 2 2 2 2 2 2 2 32 32 32 2 2 2 2 2 2 2 2 2 2 2 2 2 2 2 32 101 101 32 2 2 2 2 2 2 2 2 2 32 101 101 101 101 101 101 101 32 2 2 2 32 32 32 32 32 32 32 2 2 2 2 2 2 2 2 2 2 2 32 32 2 2 2 2 2 2 2 2 2 2 2 2 2 2 2 2 2 2 2 2 2 2 2 2 2 2 2 2 2 2 32 2 2 2 2 2 2 2 2 2 2 2 2 2 2 2 2 2 2 2 2 2 2 2 2 2 2 2 2 2 2 2 2 2 2 2 2 2 2 32 32 101 101 101 101 101 101 101 101 101 101 32 32 2 2 32 2 32 32 32 32 32 32 32 32 32 32 32 32 32 101 32 32 101 101 101 101 101 32 2 32 2 32 32 32 32 32 32 2 2 2 2 2 2 2 2 2 2 2 2 2 2 2 2 2 2 2 2 2 2 2 2 2 2 2 2 2 2 2 2 2 2 2 2 2 2 2 2 2 2 2 2 2 2 2 2 2 2 2 2 2 2 2 2 2 2 2 2 2 2 2 2 2 2 2 2 2 2 2 2 2 2 2 32 32 32 32 32 101 101 101 101 101 101
2 2 2 2 2 2 2 2 2 2 2 2 32 32 32 32 32 32 32 2 2 2 2 2 2 2 2 32 32 32 2 2 2 2 2 2 2 2 2 2 32 2 32 32 2 2 2 2 2 2 32 101 101 101 101 2 2 2 2 2 2 2 2 2 2 32 32 32 101 101 32 32 32 2 2 2 2 32 32 32 32 101 32 32 2 2 2 2 2 2 2 2 2 2 2 2 32 2 2 2 2 2 2 2 2 2 2 2 2 2 2 2 2 2 2 2 2 2 2 2 2 2 2 2 2 32 32 2 2 2 2 2 2 2 2 2 2 2 2 2 2 2 2 2 2 2 2 2 2 2 2 2 2 2 2 2 2 32 2 2 2 2 2 2 2 2 2 2 101 101 32 101 101 101 101 101 101 32 32 32 32 2 32 32 32 32 32 32 32 32 32 32 32 32 32 32 32 32 101 101 101 101 32 32 32 2 32 32 2 32 32 32 32 32 2 2 2 2 2 2 2 32 2 2 2 2 2 2 2 2 2 2 2 2 2 2 2 2 2 2 2 2 2 2 2 2 2 2 2 2 2 2 2 2 2 2 2 2 2 2 2 2 2 2 2 32 32 2 2 32 32 2 2 2 2 2 2 2 2 2 2 2 32 32 32 32 32 32 32 32 32 32 32 32 101 101 101 101 101 101
2 2 2 2 2 2 2 2 2 2 2 2 2 32 32 32 32 32 2 2 2 2 2 2 32 32 101 101 101 32 32 32 2 32 2 2 2 2 32 32 2 2 2 32 32 32 32 32 32 32 32 101 101 101 32 2 2 2 2 2 32 2 2 2 2 32 101 101 101 101 32 32 32 101 32 32 2 32 32 32 32 32 32 32 2 2 2 2 2 2 2 2 2 2 2 2 2 2 2 2 2 2 2 2 2 2 2 2 2 2 2 2 2 2 2 2 2 2 2 2 2 2 2 2 2 2 2 2 2 2 2 2 2 2 2 2 2 2 2 2 2 2 2 2 2 2 2 2 2 2 2 2 2 2 2 2 2 2 2 2 2 2 2 2 2 2 2 2 2 32 32 32 32 101 101 101 101 32 2 2 2 2 2 32 32 32 32 32 32 32 32 32 32 32 32 32 32 32 32 101 101 101 101 101 101 2 32 2 2 32 32 32 32 32 2 2 2 2 2 32 32 32 32 2 2 2 2 2 2 2 2 2 2 2 2 2 2 2 2 2 2 2 2 2 2 2 2 2 2 2 2 2 2 2 2 2 2 2 2 2 2 2 2 2 2 32 32 32 32 101 32 32 32 32 32 32 2 32 32 32 32 32 32 32 32 32 101 32 32 2 32 32 32 32 101 101 101 101 101 101
2 2 2 2 2 2 2 2 2 2 2 2 2 2 2 32 32 2 2 2 2 32 32 32 101 101 101 101 32 32 32 32 32 2 2 2 2 2 2 2 2 2 2 2 32 2 32 32 32 32 32 32 32 32 2 2 2 2 2 32 32 32 32 2 2 32 101 101 101 101 32 101 32 101 32 32 32 32 32 32 32 32 32 32 2 2 2 2 2 2 2 2 2 2 2 2 2 2 2 2 2 2 2 2 2 2 2 2 2 2 2 2 2 2 2 2 2 2 2 2 2 2 2 2 2 2 2 2 2 2 2 2 2 2 2 2 2 2 2 2 2 2 2 2 2 2 2 2 2 2 2 2 2 2 2 2 2 2 2 2 2 2 2 2 2 2 2 2 2 2 2 32 32 32 32 101 101 32 32 2 2 2 2 32 32 32 32 32 101 101 32 32 2 2 2 32 32 32 32 101 101 101 101 101 2 2 32 2 2 2 32 32 32 2 2 2 2 2 2 32 32 32 32 2 2 2 2 2 2 2 2 2 2 2 2 2 2 2 2 2 2 2 2 2 2 2 2 2 2 2 2 2 2 2 2 2 2 2 2 2 2 32 101 32 32 2 32 32 32 101 101 101 32 32 32 32 32 32 32 32 32 32 101 101 101 101 32 32 2 32 32 32 32 32 32 101 101 101 101 101
2 2 2 2 2 2 2 2 2 2 2 2 2 2 2 2 2 2 32 32 32 32 32 32 32 101 101 32 32 32 32 2 2 2 2 2 2 2 2 2 2 2 2 2 2 2 2 2 2 2 2 2 2 2 2 2 2 2 2 32 32 32 2 2 2 2 32 101 101 101 32 32 101 32 32 32 32 32 32 32 32 32 32 32 2 2 2 2 2 2 2 2 2 2 2 2 2 2 2 2 2 2 2 2 2 2 2 2 2 2 2 2 2 2 2 2 2 2 2 2 2 2 2 2 2 2 2 2 2 2 32 32 2 2 2 2 2 2 2 2 2 2 2 2 2 2 2 2 2 2 2 2 2 2 2 2 2 2 2 2 2 2 2 2 2 2 2 2 2 2 2 2 2 2 2 2 32 32 32 32 32 2 2 2 2 32 32 101 101 101 32 32 2 2 2 32 2 32 32 101 101 101 32 32 2 2 2 2 2 2 2 2 2 2 2 2 2 2 2 32 32 32 2 2 2 2 2 2 2 2 2 32 2 2 2 2 2 2 2 2 2 2 2 2 2 2 2 2 2 2 2 2 2 2 2 2 32 32 2 32 32 101 101 32 32 32 32 101 101 101 101 32 32 32 2 2 32 32 32 32 32 32 32 101 101 32 32 32 32 32 2 2 2 2 2 32 101 101 101 101
2 2 2 2 2 2 2 2 2 2 2 2 2 2 32 32 2 32 32 32 32 2 32 32 32 32 32 32 32 32 32 2 2 2 2 2 2 2 2 2 2 2 2 2 2 2 2 2 2 2 2 2 2 2 2 2 2 2 2 32 2 2 2 2 2 2 32 101 101 101 32 32 101 101 32 32 32 2 32 32 32 32 32 2 2 2 2 2 2 2 2 2 2 2 2 2 2 2 2 2 2 2 2 2 2 2 2 2 2 2 2 2 2 2 2 2 2 2 2 2 2 2 2 2 2 2 2 2 2 2 2 32 2 2 2 2 2 2 2 2 2 2 2 2 2 2 2 2 2 2 32 2 2 2 2 2 2 2 2 2 2 2 2 2 2 2 2 2 2 2 2 2 2 2 2 2 2 2 2 32 32 32 32 32 2 2 2 101 101 101 32 32 32 32 32 32 32 32 32 101 101 32 32 2 2 2 2 2 2 2 2 2 2 2 2 2 2 2 2 32 32 32 2 2 2 2 2 2 2 2 2 2 2 2 2 2 2 2 2 2 2 2 2 2 2 2 2 2 2 2 32 101 32 32 32 32 32 101 32 101 101 101 101 101 32 32 101 101 101 32 32 32 32 32 2 2 2 32 32 32 32 32 32 32 32 32 32 32 32 2 2 2 2 2 2 32 32 32 32 101
2 2 2 2 2 2 2 2 2 2 2 2 32 32 32 32 32 32 32 32 32 32 32 32 32 32 32 32 32 32 32 32 2 2 2 2 2 2 2 2 2 2 2 2 32 2 2 2 2 2 2 2 2 2 2 2 2 2 2 2 2 2 2 2 2 32 32 101 101 101 32 32 32 101 101 32 2 32 32 32 32 32 2 2 2 2 2 2 2 2 2 2 2 2 2 2 2 2 2 2 2 2 2 2 2 2 2 2 2 2 2 2 2 2 2 2 2 2 2 2 2 2 32 2 2 2 2 2 2 2 2 2 2 32 32 32 32 32 2 2 2 2 2 2 2 2 2 2 2 2 2 2 2 2 2 2 2 2 2 2 2 2 2 2 2 2 2 2 2 2 2 2 2 2 2 2 2 2 2 2 32 32 101 101 101 32 32 32 32 101 32 101 101 101 101 101 101 101 101 101 101 101 32 32 32 32 2 32 2 2 2 2 2 2 2 2 2 2 2 2 32 2 2 2 2 2 2 2 2 2 2 2 2 2 2 2 2 2 2 2 2 2 2 2 2 2 2 2 2 32 101 32 32 32 32 32 32 32 101 101 101 32 32 32 32 32 2 2 32 32 32 32 32 32 32 2 32 32 32 32 32 32 32 101 32 101 32 2 2 2 2 2 2 2 2 2 32 32 2 2
2 2 2 2 2 2 2 2 2 2 2 2 32 32 32 32 32 32 32 32 32 32 32 32 32 32 32 32 32 32 32 32 2 2 2 2 2 2 2 2 2 2 32 32 32 2 2 2 2 2 2 2 2 2 2 2 2 2 2 2 2 2 2 2 2 32 101 101 101 101 32 32 32 101 101 32 32 32 32 32 32 32 2 2 2 2 2 2 2 2 2 2 2 2 2 2 2 2 2 2 2 2 2 2 2 2 2 2 2 2 2 2 2 2 2 32 32 2 2 2 2 2 2 32 32 32 2 2 2 2 2 2 2 32 32 32 101 101 32 2 2 2 2 2 2 2 2 2 2 2 2 2 2 2 2 32 2 2 2 2 2 2 2 2 2 2 2 2 2 2 2 2 2 2 2 2 2 2 2 2 2 2 32 32 101 101 101 101 101 101 101 101 101 101 101 101 101 101 101 101 101 101 101 32 32 32 32 32 32 2 2 2 2 2 2 2 2 2 2 2 2 2 2 2 2 2 2 2 2 2 2 2 2 2 2 2 2 2 2 2 2 2 2 2 2 2 2 32 32 32 2 32 32 32 32 101 101 32 101 101 101 32 2 2 2 2 2 32 32 32 101 32 32 32 32 2 32 32 32 32 32 32 32 32 32 101 2 2 2 2 2 2 2 2 2 2 2 2 2 32
2 2 2 2 2 2 2 2 2 2 2 2 32 32 32 32 32 32 32 32 32 32 32 32 101 101 32 32 32 32 32 32 2 2 2 2 2 2 2 32 32 32 32 32 32 32 2 32 2 2 2 2 2 2 2 2 2 2 2 2 2 2 32 32 32 32 32 101 101 32 32 32 32 101 101 101 32 32 32 32 2 32 32 2 2 2 2 2 2 2 2 2 2 2 2 2 2 2 2 2 2 2 2 2 2 2 2 2 2 2 2 2 2 2 32 101 101 32 2 2 2 2 2 32 32 32 32 2 2 2 2 2 2 32 32 32 101 101 32 2 2 2 2 2 2 2 2 2 2 2 2 2 2 2 2 2 2 2 2 2 2 2 2 2 2 2 2 2 2 2 2 2 2 2 2 2 2 2 2 2 2 2 2 2 32 101 101 101 101 101 101 101 101 101 101 101 32 101 101 101 32 32 32 2 32 32 32 32 32 32 32 32 2 2 2 2 2 2 2 2 2 2 2 2 2 2 2 2 2 2 2 2 2 2 2 2 2 2 2 2 2 2 2 2 2 2 2 2 32 32 32 32 32 32 32 101 101 32 101 101 32 2 2 2 2 2 2 2 32 32 101 101 32 2 2 2 2 2 2 2 2 2 2 2 2 2 2 2 2 2 2 2 2 2 2 2 2 2 32 32
2 2 2 32 2 2 2 2 2 2 32 32 2 2 2 32 32 32 32 32 32 32 32 32 32 32 2 32 32 32 32 32 32 2 2 2 2 2 2 32 32 32 2 32 32 32 32 32 32 101 32 32 2 2 2 2 2 2 2 2 32 101 32 32 32 32 32 101 101 32 32 32 32 32 101 101 101 101 32 2 2 2 32 32 2 2 2 2 2 2 2 2 2 2 2 2 2 2 2 2 2 2 2 2 2 2 2 2 2 2 2 2 2 2 32 101 101 32 32 2 2 2 2 32 32 32 32 2 2 2 2 2 2 32 32 32 32 32 32 2 2 2 2 2 2 2 2 2 2 2 2 2 2 2 2 2 2 2 2 2 2 2 2 2 2 2 2 2 2 2 2 2 2 2 2 2 2 2 2 2 2 2 2 2 2 32 32 32 32 32 101 101 32 32 32 2 2 2 2 32 2 2 2 2 2 32 32 32 2 32 32 32 32 32 32 32 32 2 2 2 2 2 2 2 2 2 2 2 2 2 2 2 2 2 2 2 2 2 2 2 2 2 2 2 2 2 2 32 32 32 32 32 2 2 2 32 101 101 101 32 32 2 2 2 2 2 2 2 2 32 32 32 32 32 2 2 2 2 2 2 2 2 2 2 2 2 2 2 2 2 2 2 2 32 32 32 2 2 32 32
2 2 2 32 32 2 2 2 2 2 2 2 2 2 2 2 2 32 32 32 32 32 32 32 32 32 2 2 32 32 32 32 32 2 2 2 2 2 2 32 32 32 32 32 32 101 32 32 32 32 32 101 101 32 32 2 2 2 2 32 32 101 32 32 32 32 32 101 101 32 32 32 32 32 101 101 32 32 32 32 2 2 2 32 2 2 2 2 2 2 2 2 2 2 2 2 2 2 2 2 2 2 2 2 2 2 2 2 2 2 2 2 2 2 32 32 32 32 32 32 2 2 32 32 2 2 32 32 2 2 2 2 2 2 2 2 32 32 2 2 2 2 32 2 2 2 2 2 2 2 32 32 2 32 2 2 32 2 2 2 2 2 2 2 2 2 2 2 2 2 2 2 2 2 2 2 2 2 2 2 2 2 2 2 2 2 2 2 2 2 2 2 2 2 2 2 2 2 2 2 2 2 2 2 2 2 32 32 32 32 32 2 2 2 32 32 101 101 101 2 2 2 2 2 2 2 2 2 2 2 2 2 2 2 32 2 2 2 2 2 2 2 2 32 32 32 32 32 32 2 2 2 2 2 2 32 101 101 101 2 2 2 2 2 2 2 2 2 32 32 32 32 32 2 32 32 32 2 2 2 2 2 2 2 2 2 2 2 2 2 32 32 32 32 32 2 32 2 2 32
2 2 2 32 2 2 2 2 2 2 2 2 2 2 2 2 2 32 32 2 2 32 32 32 101 101 32 32 32 32 32 32 32 2 2 2 2 2 2 2 32 32 2 32 32 32 32 32 32 2 32 32 32 32 32 2 2 32 32 32 32 101 32 32 32 101 32 101 101 32 32 32 32 101 101 101 32 32 101 32 32 32 2 32 2 2 2 2 2 2 2 2 2 2 2 2 2 2 2 2 2 2 2 2 2 2 2 2 2 2 2 2 2 2 2 32 32 32 32 32 2 2 32 2 2 2 2 2 32 2 2 2 2 2 2 2 32 32 32 2 2 2 32 2 2 2 2 2 2 2 2 2 2 32 32 32 32 2 2 2 2 2 2 2 2 2 2 2 2 2 2 2 2 2 2 2 2 2 2 2 2 2 2 2 2 2 2 2 2 2 2 2 2 2 2 2 2 2 2 2 2 2 2 2 2 2 32 32 32 32 32 32 32 32 32 32 32 101 101 32 2 2 2 2 2 2 2 2 2 2 32 32 2 2 2 2 2 32 32 32 32 32 32 32 32 32 32 32 32 2 2 2 2 2 2 32 32 32 2 2 2 2 2 2 2 2 2 32 32 32 32 32 32 2 32 32 2 2 2 2 2 2 2 2 2 2 2 2 2 2 32 32 32 2 2 2 32 2 32 32
2 2 2 2 2 2 2 2 2 2 2 2 2 2 2 2 2 2 2 2 2 32 32 32 101 101 101 32 32 32 32 32 32 32 2 2 2 2 2 2 2 2 2 2 32 32 32 32 32 32 32 32 32 32 32 32 32 32 32 32 32 101 32 2 32 101 32 101 101 101 32 32 32 32 101 101 32 32 101 101 101 32 32 32 32 32 32 32 2 2 2 2 2 2 2 2 2 2 2 2 2 2 2 2 2 2 2 2 2 2 2 2 2 2 2 2 2 2 2 32 32 32 32 32 2 2 2 2 32 32 2 2 2 2 2 2 32 32 32 2 2 2 32 32 2 2 2 2 2 2 2 2 2 32 32 32 32 32 2 2 2 2 2 2 2 2 2 2 2 2 2 2 2 2 2 2 2 2 2 2 2 2 2 2 2 2 2 2 2 2 2 2 2 2 2 2 2 2 2 2 2 2 2 2 32 32 2 2 32 32 32 101 101 101 32 32 32 32 101 101 2 2 2 2 2 2 2 2 2 2 32 101 101 32 32 32 32 32 32 32 32 32 32 32 32 101 32 32 32 32 2 2 2 2 32 32 101 32 2 2 2 2 2 2 2 2 32 32 32 32 32 32 2 2 2 2 2 2 2 2 2 2 2 2 2 2 2 2 2 2 2 2 2 2 32 32 32 32 32 2
2 2 2 2 2 2 2 2 2 2 2 2 2 2 2 2 2 2 2 2 2 32 32 32 32 101 101 32 32 32 32 32 32 32 32 32 2 2 2 2 2 2 2 2 2 32 32 32 32 32 32 32 32 32 32 32 32 32 32 32 32 32 2 2 32 32 101 101 101 101 32 32 32 32 101 101 101 32 32 101 101 101 32 32 32 32 32 2 2 2 2 2 2 2 2 2 2 2 2 2 2 2 2 2 2 2 2 2 2 2 2 2 2 2 2 2 2 2 2 2 2 32 32 32 32 32 2 2 2 2 2 2 2 2 32 2 2 32 32 2 2 2 2 32 2 2 2 2 2 2 2 2 2 2 2 2 2 2 2 2 2 2 2 2 2 2 2 2 2 2 2 2 2 2 2 2 2 2 2 2 2 2 2 2 2 2 2 2 2 2 2 2 2 2 2 2 2 2 2 2 2 2 2 32 32 32 32 32 32 32 101 101 101 101 32 101 101 101 101 101 101 32 32 32 32 32 32 2 32 32 32 32 101 32 32 32 32 2 32 32 32 32 32 2 2 32 32 32 32 101 101 32 2 2 2 32 101 2 2 2 2 2 2 32 2 32 32 32 2 2 2 2 2 2 2 2 2 2 2 2 2 2 2 2 2 2 2 2 2 2 2 2 2 2 32 32 32 32 2 2
32 32 32 2 2 2 2 2 2 2 2 2 2 2 2 2 2 2 2 2 2 32 32 32 32 32 101 32 32 32 32 32 32 32 32 2 2 2 2 2 2 2 2 2 2 2 2 2 32 32 32 32 32 32 32 32 32 32 32 2 32 32 2 2 32 32 32 101 101 101 101 32 32 32 32 101 32 32 32 32 101 32 32 101 101 32 2 2 2 2 2 2 2 2 2 2 2 2 2 2 2 2 2 2 2 2 2 2 2 2 2 2 2 2 2 2 2 2 2 2 2 2 32 101 32 32 32 2 2 2 2 2 32 32 32 32 32 32 32 2 2 2 2 32 2 2 2 2 2 2 2 2 2 2 2 2 2 2 2 2 2 2 2 2 2 2 2 2 2 2 2 2 2 2 2 2 2 2 2 2 2 2 2 2 2 2 2 2 2 2 2 2 2 2 2 2 2 2 2 2 2 2 2 32 32 32 101 101 101 101 101 101 101 101 101 101 101 101 101 101 101 101 101 32 101 32 32 101 101 101 32 32 32 32 32 101 32 2 2 2 32 2 2 32 2 2 32 32 101 101 32 2 2 2 2 2 2 2 2 2 2 2 2 32 2 32 32 32 32 32 2 2 32 2 2 32 2 2 2 2 2 2 2 2 2 2 2 2 2 2 2 2 2 2 2 2 2 2 2 2
32 101 32 2 2 2 32 2 2 2 2 2 2 2 2 2 2 2 2 2 2 32 32 32 32 32 32 32 101 32 32 32 32 32 32 2 2 2 2 2 2 2 2 2 2 2 2 2 32 32 32 32 32 32 32 32 32 32 32 2 32 32 32 32 32 101 101 101 32 101 101 101 101 101 32 32 101 101 32 32 32 32 32 32 101 32 2 2 2 2 2 2 2 2 2 2 2 2 2 2 2 2 2 2 2 2 2 2 2 2 2 2 2 2 2 2 2 2 2 2 2 2 2 32 101 32 32 2 2 2 2 2 32 32 32 32 32 32 32 2 2 2 2 32 2 2 2 32 2 2 2 2 2 2 2 2 2 2 2 2 2 2 2 2 2 2 2 2 2 2 2 2 2 2 2 2 2 2 2 2 2 2 2 2 2 2 2 2 2 2 2 2 2 2 2 2 2 2 2 2 2 2 2 32 32 101 101 101 101 101 101 101 101 101 101 101 101 101 101 101 101 101 101 101 101 101 101 101 101 32 32 32 32 32 32 101 32 32 32 32 32 32 101 101 101 32 2 2 32 2 2 2 2 2 2 2 2 2 2 2 2 2 32 32 2 32 32 32 2 32 32 2 2 32 32 32 2 2 2 2 2 2 2 32 32 32 2 2 2 2 2 2 2 2 2 2 2 2 2 2
2 2 32 32 32 2 2 2 2 32 32 2 2 2 2 2 2 2 2 2 2 32 32 32 32 32 32 32 32 32 32 32 32 2 2 2 2 2 2 2 2 2 2 2 2 2 2 2 2 2 2 2 32 32 32 32 32 32 32 2 101 32 32 32 32 101 101 32 101 32 101 101 101 101 101 101 101 101 101 101 32 32 32 32 32 32 2 2 2 2 2 32 2 2 2 32 2 2 2 2 2 2 2 2 2 2 2 2 2 2 2 2 2 2 2 2 2 2 2 2 2 2 2 2 32 32 32 2 2 2 2 32 2 32 32 32 32 32 32 2 2 2 2 32 2 2 2 32 32 32 2 2 2 2 2 2 2 2 2 2 2 2 2 2 2 2 2 2 32 2 2 2 2 2 2 2 2 2 2 2 2 2 2 2 2 2 2 2 2 2 2 2 2 2 2 2 2 2 2 2 2 2 2 32 32 101 101 101 101 101 101 101 101 101 101 101 101 101 101 101 101 101 101 101 101 101 101 101 101 32 32 32 101 32 32 101 32 32 32 32 32 101 101 101 101 2 2 2 2 2 2 2 2 2 2 2 2 2 2 2 2 2 2 32 32 32 32 2 2 2 2 2 2 2 32 32 2 2 32 2 2 2 2 2 2 2 2 2 2 2 2 2 2 2 2 2 2 2 2 2
2 2 2 32 32 32 2 2 2 32 32 2 2 2 2 2 2 2 2 2 2 2 2 2 2 2 32 32 32 32 32 32 2 2 2 2 2 2 2 2 2 2 2 2 2 2 2 2 2 2 2 2 2 2 2 2 2 32 32 32 101 101 101 101 32 101 32 32 101 32 32 32 101 101 101 101 101 101 101 101 32 32 32 2 2 2 32 32 2 2 2 32 2 2 2 32 2 2 2 2 2 2 2 2 2 2 2 2 2 2 2 2 2 2 2 2 2 2 2 2 2 2 2 2 32 32 32 2 32 2 2 2 2 32 32 32 32 32 32 2 2 2 32 32 2 2 2 32 32 32 32 32 2 2 2 2 2 32 2 2 2 2 2 2 2 2 2 2 2 2 2 2 2 2 2 2 2 2 2 2 2 2 2 2 2 2 2 2 2 2 2 2 2 2 2 2 2 2 2 2 2 2 2 2 32 101 101 101 101 101 101 101 101 101 101 101 101 101 101 101 101 101 101 101 101 32 32 32 32 32 32 32 101 101 32 101 101 32 101 101 101 101 32 32 2 2 2 2 2 2 2 2 2 2 2 2 2 2 2 2 2 2 2 32 2 32 32 2 2 2 2 2 2 2 2 2 2 2 2 2 2 2 2 2 2 2 2 2 2 2 2 2 2 2 2 2 2 2 2 2
2 2 32 32 32 32 32 2 2 32 32 2 2 2 2 2 2 2 2 2 2 2 2 2 2 2 2 32 2 32 2 2 2 2 2 2 2 2 2 2 2 2 2 2 2 2 2 2 2 32 32 32 2 2 2 2 2 2 32 32 101 101 101 101 101 101 101 32 101 32 32 32 101 101 32 101 101 101 32 32 32 32 32 2 2 32 32 32 32 2 2 2 2 2 32 32 2 2 2 2 2 2 2 2 2 2 2 2 2 2 2 2 2 2 2 2 2 2 2 2 2 2 2 2 2 32 32 32 32 2 2 2 2 32 32 32 32 32 32 2 2 2 101 101 32 2 2 2 32 32 32 32 32 32 32 32 32 32 32 2 2 2 2 2 2 32 32 2 2 2 2 2 2 2 2 2 2 2 2 2 2 2 2 2 2 2 2 2 2 2 2 2 2 2 2 2 2 2 2 2 2 2 2 2 2 32 101 101 101 101 101 101 101 101 101 101 101 101 101 101 101 101 101 101 101 101 2 2 2 32 32 32 32 32 32 101 32 32 32 32 32 32 32 32 2 2 2 2 2 2 2 2 2 2 2 2 2 2 2 2 2 32 32 32 32 32 32 32 32 2 2 2 2 2 2 2 2 2 2 2 2 2 2 2 2 2 2 2 2 2 2 2 2 2 2 2 2 2 2 2
2 2 32 32 32 32 32 2 32 2 2 2 2 2 2 2 2 2 2 2 2 2 2 2 2 2 2 2 32 32 2 2 2 2 2 2 2 2 2 2 2 2 2 2 2 2 2 2 2 2 2 2 2 2 2 2 2 2 32 32 101 101 101 101 101 101 101 101 32 32 32 32 32 101 101 32 101 101 32 101 32 32 32 32 32 32 32 32 32 32 32 2 2 2 32 2 2 2 2 2 2 2 2 2 2 2 2 2 2 2 2 2 2 2 2 2 2 2 2 2 2 2 2 2 2 32 32 32 32 2 2 2 32 32 32 32 32 32 101 32 32 32 101 101 101 2 2 2 2 2 2 32 32 2 2 2 32 32 32 2 2 2 2 2 2 32 32 2 2 2 2 2 2 2 2 2 2 2 2 2 2 2 2 2 2 2 2 2 2 2 2 2 2 2 2 2 2 2 2 2 2 2 2 2 2 2 2 101 101 101 101 101 101 101 101 101 101 101 101 101 101 101 101 101 101 32 2 2 2 2 2 2 2 2 2 32 32 101 101 101 32 32 32 2 2 2 2 2 2 2 2 2 2 2 2 2 2 2 2 2 2 2 32 32 2 2 32 101 32 32 32 32 2 2 2 2 2 2 2 2 2 2 2 2 2 2 2 2 2 2 2 2 2 2 2 2 2 2 2 2
2 2 2 32 2 2 2 2 2 2 2 2 2 2 2 2 2 2 2 2 2 2 2 2 2 2 2 2 32 32 2 2 2 2 2 2 2 2 2 2 2 2 2 2 2 2 2 2 2 2 2 2 2 2 2 2 2 2 32 32 101 101 101 101 101 101 101 101 101 32 32 2 32 101 32 101 101 101 101 32 32 32 32 32 32 32 32 2 2 32 32 2 2 2 32 32 2 2 2 32 2 2 2 2 2 2 2 2 2 2 2 2 2 2 2 2 2 2 2 2 2 2 2 2 2 32 32 32 32 32 32 2 32 32 32 32 32 32 32 32 32 32 32 101 32 32 2 2 2 2 2 2 2 32 2 2 2 32 32 2 2 2 2 2 2 2 2 2 2 2 2 2 2 2 2 2 2 2 2 2 2 2 2 2 2 2 2 2 2 2 2 2 2 2 2 2 2 2 2 2 2 2 2 2 2 2 2 32 32 101 101 101 101 101 101 101 101 101 101 101 101 101 101 101 101 32 32 2 2 2 2 2 2 2 2 32 101 101 101 101 32 2 2 2 2 2 2 2 2 2 2 2 2 32 2 2 2 2 32 32 2 2 2 32 2 2 32 101 101 101 32 32 32 2 2 2 2 2 2 2 2 2 2 2 2 2 2 2 2 2 2 2 2 2 2 2 2 2 2 2
2 2 2 2 2 2 2 2 2 2 2 2 2 32 32 2 2 2 2 2 2 2 2 2 2 2 2 2 32 32 32 32 2 2 2 2 2 2 2 2 2 2 2 2 2 2 2 2 2 2 2 2 2 2 2 2 2 2 2 2 32 101 101 101 101 101 32 101 32 32 32 2 32 32 101 101 101 32 101 101 32 32 32 32 32 2 2 2 2 2 32 32 2 2 32 2 2 2 2 32 2 2 2 2 2 2 2 2 2 2 2 2 2 2 2 2 2 2 2 2 2 2 2 2 2 2 32 32 32 32 32 32 32 32 101 32 32 32 32 32 32 32 32 32 2 2 32 2 2 2 2 2 32 32 32 32 32 32 32 2 2 2 2 2 2 2 2 2 2 2 2 2 2 2 2 2 2 2 2 2 2 2 2 2 2 2 2 2 2 2 2 2 2 2 2 2 2 2 2 2 2 2 2 2 2 2 2 2 2 2 2 32 101 101 101 101 101 101 101 101 101 101 101 101 101 101 32 32 2 2 2 2 2 2 2 32 101 101 32 32 2 2 2 2 2 32 2 2 2 2 2 2 2 32 2 2 2 2 2 2 2 2 2 2 32 32 32 32 101 101 32 32 2 2 2 2 2 2 2 2 2 2 2 2 2 2 2 2 2 2 2 2 2 2 2 2 2 2 2 2
2 2 2 2 2 2 2 2 2 2 2 2 32 32 32 32 2 2 2 2 2 2 2 2 2 2 2 32 32 32 32 32 32 32 2 2 2 2 2 2 2 2 2 2 2 2 2 2 2 32 2 2 2 2 2 2 2 2 2 2 32 101 101 101 101 101 32 32 101 32 2 2 2 101 101 101 32 32 101 101 32 32 2 2 2 2 2 2 2 2 2 32 32 32 32 2 2 32 2 2 2 2 2 2 2 2 2 2 2 2 2 2 2 32 2 2 2 2 2 2 2 2 2 2 2 2 2 32 32 101 101 101 32 32 32 32 32 32 32 101 32 32 32 32 2 2 2 32 2 2 2 2 32 32 32 32 32 32 32 2 2 2 2 2 2 2 2 2 2 2 2 2 2 2 2 2 2 2 2 2 2 2 2 2 2 2 2 2 2 2 2 2 2 2 2 2 2 2 2 2 2 2 2 2 2 2 2 2 2 2 2 2 32 101 101 101 101 101 101 101 101 101 101 101 101 101 101 32 2 2 2 2 2 2 2 2 32 32 32 2 2 2 2 2 2 2 2 2 2 2 2 2 2 2 2 2 2 2 32 2 32 32 32 32 32 32 32 32 101 101 32 2 2 2 2 2 2 2 2 2 2 2 2 2 2 2 2 2 2 2 32 2 2 2 2 2 2 2 2 2
2 2 32 2 2 2 2 2 2 2 32 32 32 32 32 32 2 2 2 2 2 2 2 2 2 2 2 32 32 32 32 32 32 32 2 2 2 2 2 2 2 2 2 2 2 2 2 2 2 32 2 2 2 2 2 2 2 2 2 2 32 101 32 32 101 101 32 32 101 32 2 2 101 101 101 32 2 101 101 101 32 2 2 2 2 2 2 2 2 2 2 2 32 32 32 2 2 2 2 2 2 2 2 2 2 2 2 2 2 2 2 2 2 2 2 2 2 2 2 2 2 2 2 2 2 2 2 32 32 32 32 101 32 32 32 32 101 32 32 32 32 32 101 32 32 32 2 32 32 2 2 2 2 32 32 32 32 32 32 32 2 2 2 2 2 2 2 2 2 2 2 2 2 2 2 2 2 2 2 2 2 2 2 2 2 2 2 2 2 2 2 2 2 2 2 2 2 2 2 2 2 2 2 2 2 2 2 2 2 2 2 32 32 32 32 101 32 32 101 101 101 101 101 101 101 101 101 32 2 2 2 2 2 2 2 2 2 2 2 2 2 2 2 2 2 2 2 2 2 2 2 2 2 2 2 2 2 2 2 2 2 2 32 2 2 2 32 32 32 32 2 2 2 2 2 2 2 2 2 2 2 2 2 2 2 2 2 2 2 2 32 32 32 2 2 2 2 2 2 2
2 2 2 2 2 2 2 2 2 32 32 32 32 32 32 2 2 2 2 2 2 2 2 2 2 2 2 32 32 32 32 32 32 32 32 2 2 2 2 2 2 2 2 2 2 2 2 2 2 2 2 2 2 2 2 2 2 2 2 2 32 101 101 32 32 32 32 32 101 32 32 32 101 101 101 32 2 101 101 101 101 2 2 2 2 2 2 2 2 2 2 2 32 32 32 2 2 2 2 2 2 2 2 2 2 2 2 2 2 2 2 2 2 2 2 2 2 2 2 2 2 2 2 2 2 2 2 2 32 32 32 32 101 32 2 32 101 32 32 32 32 32 101 101 101 32 2 2 32 32 32 2 2 2 32 32 32 32 32 32 32 2 2 2 2 2 2 2 2 2 2 2 2 2 2 2 2 2 2 2 2 2 2 2 2 2 2 2 2 2 2 2 2 2 2 2 2 2 2 2 2 2 2 2 2 2 2 2 2 2 2 2 32 32 32 32 32 32 32 101 101 101 101 101 101 101 32 2 2 2 2 2 2 2 2 2 2 2 2 2 2 2 2 2 2 2 2 2 2 2 2 2 2 2 2 2 2 2 2 2 2 2 2 2 2 2 2 2 32 32 2 2 2 2 2 2 2 2 2 2 2 2 2 2 2 2 2 2 2 2 2 32 32 2 2 2 2 2 2 2
2 2 2 2 2 2 2 2 2 32 32 32 32 2 2 2 2 2 2 2 2 2 2 2 2 2 2 32 32 32 32 32 32 32 32 2 2 2 2 2 2 2 2 2 2 2 2 2 2 2 2 2 2 2 2 2 2 2 2 2 32 32 32 32 32 32 2 32 101 32 32 2 101 101 32 32 101 101 101 101 101 32 2 2 2 2 2 2 2 2 2 2 2 32 2 2 2 2 2 2 2 2 2 2 2 2 2 2 2 2 2 2 2 2 2 2 2 2 2 2 2 2 2 2 2 2 2 2 2 32 32 32 32 32 32 32 101 32 32 32 32 32 101 101 101 32 32 32 32 32 32 32 32 32 32 32 32 32 32 32 2 2 2 2 2 2 2 2 2 2 2 2 2 2 2 2 2 2 2 2 2 2 2 2 2 2 2 2 2 2 2 2 2 2 2 2 2 2 2 2 2 2 2 2 2 2 2 2 2 2 32 2 2 32 2 2 2 2 2 32 32 32 101 101 101 101 2 2 2 2 2 2 2 2 2 2 2 2 2 2 2 2 2 2 2 2 2 2 2 2 2 2 2 2 2 2 2 2 2 2 2 32 2 2 32 2 2 2 2 2 2 2 2 2 2 2 2 2 2 2 2 2 2 2 2 2 2 2 2 2 2 2 2 2 2 2 2 2 2 2
2 2 2 2 2 2 2 2 2 32 32 32 2 2 2 2 2 2 2 2 2 2 2 2 2 2 32 2 2 32 32 32 32 32 32 32 2 2 2 2 2 2 2 2 2 2 2 2 2 2 2 2 2 2 2 2 2 2 2 2 32 32 32 32 32 32 2 2 101 32 2 32 101 32 2 32 101 101 101 101 101 32 32 32 32 2 2 2 2 2 2 2 2 32 2 2 2 2 2 2 2 2 2 2 2 2 2 2 2 2 2 2 2 2 2 2 2 2 2 2 2 2 2 2 2 2 2 2 2 2 2 32 32 32 32 101 101 32 32 32 32 32 32 32 32 32 32 32 32 101 101 32 32 32 2 32 32 32 32 32 2 2 2 2 2 2 2 2 2 2 2 2 2 2 2 2 2 2 2 2 2 2 2 2 2 2 2 2 2 2 2 2 2 2 2 2 2 2 2 2 2 2 2 2 2 2 2 2 2 2 2 2 2 32 2 2 2 2 2 2 2 2 32 32 32 32 2 2 2 2 2 2 2 2 2 2 2 2 2 2 2 2 2 2 2 2 2 2 2 2 2 2 2 2 2 2 2 2 2 2 2 2 2 2 2 2 2 2 2 2 2 2 2 2 2 2 2 2 2 2 2 2 2 2 2 2 2 2 2 2 2 2 2 2 2 2 2 2 2 2
2 2 2 2 2 2 2 2 2 2 2 32 2 2 2 2 32 32 2 2 2 2 2 2 2 2 2 2 2 2 32 32 32 2 2 32 2 2 2 2 2 2 2 2 2 2 2 2 2 2 2 2 2 2 2 2 2 2 2 2 2 32 32 2 32 32 2 2 32 32 32 101 101 2 2 32 101 32 32 32 32 32 32 32 32 32 2 2 2 2 2 2 2 32 2 2 2 2 2 2 2 2 2 2 2 2 2 2 2 2 2 2 32 32 2 2 2 2 2 2 2 2 2 2 2 2 2 2 2 2 2 2 32 32 32 32 101 32 32 101 101 101 101 101 101 32 32 32 32 101 101 101 32 32 32 32 32 2 2 2 2 2 2 2 2 2 2 2 2 2 2 2 2 2 2 2 2 2 2 2 2 2 2 2 2 2 2 2 2 2 2 2 2 2 2 2 2 2 2 2 2 2 2 2 2 2 2 2 2 2 2 2 32 2 2 2 32 32 2 2 2 2 32 2 2 2 2 2 2 2 2 2 2 2 2 2 2 2 2 2 2 2 2 2 2 2 2 2 2 2 2 2 2 2 2 2 2 2 2 2 2 2 2 2 2 2 2 2 2 2 2 2 2 2 2 2 2 2 2 2 2 2 2 2 2 2 2 2 2 2 2 2 2 2 2 2 2 2 2 2
2 2 2 2 2 2 2 2 2 2 32 32 2 2 2 32 32 32 2 2 2 2 2 2 2 2 2 2 2 2 2 32 32 2 2 2 2 2 2 2 2 2 2 2 2 2 2 2 2 2 2 2 2 2 2 2 2 2 2 2 2 32 32 32 32 2 2 2 32 101 101 101 101 101 2 32 32 32 32 32 2 2 32 32 32 32 2 2 2 2 2 2 2 32 2 2 2 2 32 2 2 2 2 2 2 2 2 2 2 2 32 32 32 32 2 2 2 2 2 2 2 2 2 2 2 2 2 2 2 2 2 2 2 32 32 101 101 101 32 32 32 32 101 101 101 101 101 32 101 101 101 101 32 32 32 32 32 2 2 2 2 2 2 2 2 2 2 2 2 2 2 2 2 2 2 2 2 2 2 2 2 2 2 2 2 2 2 2 2 2 2 2 2 2 2 2 2 2 2 2 2 2 2 2 2 2 2 2 2 2 2 2 2 2 2 2 32 2 2 2 2 2 2 2 2 2 2 2 2 2 2 2 2 2 2 2 2 2 2 2 2 2 2 2 2 2 2 2 2 2 2 2 2 2 2 2 2 2 2 2 2 2 2 2 2 2 2 2 2 2 2 2 2 2 2 2 2 2 2 2 2 2 2 32 32 2 2 2 2 2 2 2 2 2 2 2 2 2 2 2
2 2 2 2 2 2 2 2 2 2 32 2 2 2 2 2 32 32 2 2 2 2 2 2 2 2 2 2 2 2 2 2 2 2 2 2 2 2 2 2 2 2 2 2 2 2 2 2 2 2 2 2 2 2 2 2 2 2 2 2 2 32 32 32 2 2 2 32 101 101 101 101 101 101 2 32 2 32 32 2 2 32 32 32 2 2 2 2 2 2 2 2 2 2 2 2 2 32 32 2 2 2 32 2 2 2 2 2 2 2 32 32 32 32 2 2 2 2 2 2 2 2 2 32 32 32 32 32 2 2 2 2 2 2 2 101 101 101 32 32 32 101 101 101 101 101 101 32 101 101 101 101 32 32 32 32 32 32 2 2 2 2 2 2 2 2 2 2 2 2 2 2 2 2 2 2 2 2 2 2 2 2 2 2 2 2 2 2 2 2 2 2 2 2 2 2 2 2 2 2 2 2 2 2 2 2 2 2 2 2 2 2 2 2 2 2 2 2 2 2 2 2 2 2 2 2 2 2 2 2 2 2 2 2 2 2 2 2 2 2 2 2 2 2 2 2 2 2 2 2 2 2 2 2 2 2 2 2 2 2 2 2 2 2 2 2 2 2 2 2 2 2 2 2 2 2 2 2 2 2 2 2 32 32 32 2 2 2 2 32 2 2 2 2 2 2 2 2 2 32
2 2 2 2 2 2 32 2 2 2 2 2 2 2 2 2 2 2 2 2 2 2 2 2 2 2 2 2 2 2 2 2 2 2 2 2 2 2 2 2 2 2 2 2 2 2 2 2 2 2 2 2 2 2 2 2 2 2 2 2 2 32 32 2 2 2 2 32 101 32 101 101 101 101 32 32 2 2 2 2 32 32 32 2 2 32 32 32 32 2 2 2 2 2 2 2 2 2 2 2 2 2 32 2 2 2 2 2 2 2 2 32 32 32 2 2 2 2 2 2 2 2 2 32 32 32 32 32 32 2 2 2 2 2 2 32 32 32 32 32 101 101 101 101 101 101 101 101 101 32 32 32 32 32 32 32 32 32 32 2 2 2 32 32 2 2 32 2 2 2 2 2 2 2 2 2 2 2 2 2 2 2 2 2 2 2 2 2 2 2 2 2 2 2 2 2 2 2 2 2 2 2 2 2 2 2 2 2 2 2 2 2 2 2 2 2 2 2 2 2 2 32 32 2 2 2 2 2 2 2 2 2 2 2 2 2 2 2 2 2 2 2 2 2 2 2 2 2 2 2 2 2 2 2 2 2 2 2 2 2 2 2 2 2 2 2 2 2 2 2 2 2 2 2 2 2 2 2 2 2 2 2 32 32 2 2 2 2 2 32 32 32 32 2 2 2 2 2 2 2
2 2 2 2 2 32 32 2 2 2 2 2 2 2 2 2 2 2 2 2 2 2 2 2 2 2 2 2 2 2 2 2 2 2 2 2 2 2 2 2 2 2 2 2 2 2 2 2 2 2 2 2 2 2 2 2 2 2 2 32 101 32 32 2 2 32 101 101 101 101 101 101 101 101 101 101 32 2 2 2 32 32 32 2 2 2 32 32 32 2 2 2 2 2 2 2 2 2 2 2 2 2 2 2 2 2 2 2 2 2 2 2 2 2 2 2 2 2 2 2 2 2 2 32 32 32 32 32 32 2 2 2 2 2 2 2 2 2 2 32 32 101 101 32 101 101 101 101 101 32 32 32 32 32 2 2 32 32 2 2 2 2 2 2 2 2 2 2 2 2 32 32 2 2 2 2 2 2 2 2 2 2 2 2 2 2 2 2 2 2 2 2 2 2 2 2 2 2 2 2 2 2 2 2 2 2 2 2 2 2 2 2 2 2 2 2 2 2 2 2 2 32 32 2 2 2 2 2 2 2 2 2 2 2 2 2 2 2 2 2 2 2 2 2 2 2 2 2 2 2 2 2 2 2 2 2 2 2 2 2 2 2 2 2 2 2 2 2 2 2 2 2 2 2 2 2 2 2 2 2 2 32 32 2 2 2 2 2 2 32 32 32 32 32 2 2 2 32 2 2
2 2 2 2 2 32 32 2 2 32 2 2 2 2 2 2 2 2 2 2 2 2 2 2 2 2 2 2 2 2 2 2 2 2 2 2 2 2 2 2 2 2 2 2 2 2 2 2 2 2 2 2 2 2 2 2 2 2 2 32 32 32 32 2 101 101 101 101 101 101 101 101 101 101 101 101 101 32 32 32 32 32 32 2 2 2 32 32 32 2 2 2 2 32 2 2 2 2 2 2 2 2 2 2 2 2 2 2 2 2 2 2 2 2 2 2 2 2 2 2 2 2 32 2 32 32 32 32 32 32 2 2 2 2 2 2 2 32 32 32 32 32 101 32 32 101 32 32 32 2 32 32 32 2 2 2 2 2 2 2 2 2 2 2 2 2 2 2 2 2 2 32 32 2 2 2 2 2 2 2 2 2 2 2 2 2 2 2 2 2 2 2 2 2 2 2 2 2 2 2 2 2 2 2 2 2 2 2 2 2 2 2 2 2 2 2 2 2 2 2 2 2 2 2 2 2 2 2 2 2 2 2 2 2 2 2 2 2 2 2 2 2 2 2 2 2 2 2 2 2 2 2 2 2 2 2 2 2 2 2 2 2 2 2 2 2 2 2 2 2 2 2 2 2 2 2 2 2 2 2 32 32 2 2 2 2 2 2 2 32 32 32 32 2 2 2 32 32 2 2
2 2 2 2 2 2 2 2 2 2 2 2 2 2 2 2 2 2 2 2 2 2 2 2 2 2 2 2 2 2 2 2 2 2 2 2 2 2 2 2 2 2 2 2 2 2 2 32 2 2 2 2 2 2 2 2 2 2 2 32 32 32 32 32 101 101 101 101 101 101 32 101 101 101 101 101 101 32 32 32 32 32 2 2 2 2 32 32 32 2 2 2 32 32 2 2 2 2 2 2 2 2 2 2 2 2 2 2 2 2 2 2 2 2 2 2 2 2 2 2 2 2 32 32 2 32 32 32 32 32 32 2 2 2 2 2 2 32 32 32 32 2 32 32 32 32 32 32 32 32 32 32 32 2 2 2 2 2 2 2 2 2 2 2 2 2 2 2 2 2 2 2 2 2 32 2 32 32 32 2 2 2 2 2 2 2 2 2 2 2 2 2 2 2 2 2 2 2 2 2 2 2 2 2 2 2 2 2 2 2 2 2 2 2 2 2 2 2 2 2 2 2 2 2 2 2 2 2 2 2 2 2 2 2 2 2 2 2 2 2 2 2 2 2 2 2 2 2 2 2 2 2 2 2 2 2 2 2 2 2 2 2 2 2 2 2 2 2 2 2 2 2 2 2 2 2 2 2 2 2 32 32 2 2 2 2 2 2 2 32 32 32 2 2 2 2 32 32 2 2
2 32 32 32 32 2 2 2 2 2 2 2 2 2 2 2 2 2 2 2 2 2 32 32 32 32 2 2 2 2 2 2 2 2 2 2 2 2 2 2 2 2 2 2 2 2 2 2 2 2 2 2 2 2 2 2 2 2 2 2 32 32 32 32 32 32 101 101 101 32 32 101 101 101 101 101 32 32 32 32 2 2 2 2 2 2 2 32 32 32 2 2 32 32 2 2 2 2 2 2 2 2 2 2 2 2 2 2 2 2 2 2 2 2 2 2 2 2 2 2 2 2 32 32 2 2 32 32 32 32 32 32 32 2 32 32 2 32 32 32 2 32 32 32 32 101 32 101 101 32 32 32 32 2 2 2 2 2 32 2 2 2 2 2 2 2 2 2 2 2 2 2 2 2 2 2 32 32 32 32 2 2 2 2 2 2 2 2 2 2 2 2 2 2 2 2 2 2 2 2 2 2 2 2 2 2 2 2 2 2 2 2 2 2 2 2 2 2 2 2 2 2 2 2 2 2 2 2 2 2 2 2 2 2 2 2 2 2 2 2 2 2 2 2 2 2 2 2 2 2 2 2 2 2 2 2 2 2 2 2 2 2 2 2 2 2 2 2 2 2 2 2 2 2 2 2 2 2 2 32 2 2 2 2 2 2 2 2 2 2 2 2 2 2 2 2 2 2 2 2
2 32 32 32 32 32 2 2 2 2 2 2 2 2 2 2 32 32 32 32 32 32 32 2 32 32 2 2 2 2 2 2 2 2 2 2 2 2 2 2 2 2 2 2 2 2 2 2 2 2 2 2 2 2 2 2 2 2 2 32 32 32 32 32 32 32 101 32 32 32 32 101 101 101 101 101 101 32 32 2 2 2 2 2 2 2 2 32 32 32 2 2 32 32 2 2 2 2 2 2 2 2 2 2 2 2 2 2 2 2 2 2 2 2 2 2 2 2 2 2 2 2 32 2 2 2 2 2 32 32 32 32 32 32 2 2 2 32 32 32 32 32 32 32 32 32 32 101 101 32 32 32 32 2 2 2 2 2 32 32 32 2 2 2 2 2 2 2 2 2 2 2 2 2 2 2 2 2 2 2 2 2 2 2 2 2 2 2 2 2 2 2 2 2 2 2 2 2 2 2 2 2 2 2 2 2 2 2 2 2 2 2 2 2 2 2 2 2 2 2 2 2 2 2 2 2 2 2 2 2 2 2 2 2 2 2 2 2 2 2 2 2 2 2 2 2 2 2 2 2 2 2 2 2 2 2 2 2 2 2 2 2 2 2 2 2 2 2 2 2 2 2 2 2 2 2 2 2 2 2 2 2 2 2 2 2 2 2 2 2 2 2 2 2 2 2 2 2 2 2
32 32 32 32 32 32 2 2 32 2 2 32 32 32 32 32 32 32 32 32 32 32 32 32 32 2 2 2 2 2 2 2 2 2 2 2 2 2 2 2 2 2 2 2 2 2 2 2 2 2 2 2 2 2 2 2 2 2 2 32 2 32 32 32 32 2 32 32 32 32 101 101 101 101 101 101 101 101 2 2 2 2 2 2 2 2 32 32 2 2 2 2 32 2 2 2 2 2 2 2 2 2 2 2 2 2 2 2 2 2 2 2 2 2 2 2 2 2 2 2 2 2 2 2 2 2 2 2 2 32 2 2 2 2 2 2 2 2 32 32 32 2 2 2 32 32 32 32 32 101 101 32 32 2 2 2 2 2 32 32 101 32 2 2 2 2 2 2 2 2 2 2 2 2 2 2 2 2 2 2 2 2 2 2 2 32 2 2 2 2 2 2 2 2 2 32 32 2 2 2 2 2 2 2 2 2 2 2 2 2 2 2 2 2 2 2 2 2 2 2 2 2 2 2 2 2 2 2 2 2 2 2 2 2 2 2 2 2 2 2 2 2 2 2 2 2 2 2 2 2 2 2 2 2 2 2 2 2 2 2 2 2 2 2 2 2 2 2 2 2 2 2 2 2 2 2 2 32 2 2 2 2 2 2 2 2 2 2 2 2 2 2 2 2 2 2 2 2 2 2
32 32 32 2 2 32 32 32 32 32 32 101 101 32 32 32 32 32 2 2 2 2 2 2 32 32 2 2 2 2 2 2 2 2 2 2 2 2 2 2 2 2 2 2 2 2 2 32 2 2 2 2 2 2 2 2 32 32 32 32 32 32 32 32 2 2 32 32 32 101 101 101 101 101 101 32 101 101 32 2 2 2 2 2 2 32 32 2 2 2 2 2 2 2 2 2 2 2 2 2 2 2 2 2 2 2 2 2 2 2 2 2 2 2 2 2 2 2 2 2 2 2 2 2 2 2 2 2 2 2 32 32 2 2 2 2 2 2 32 32 32 2 2 2 2 2 2 32 32 32 32 32 32 32 32 32 2 2 2 32 32 32 2 2 2 2 2 2 2 2 2 2 2 2 2 2 2 2 2 2 2 2 2 2 2 2 32 32 2 2 2 2 2 2 2 2 32 32 2 2 2 2 2 2 2 2 2 2 2 2 2 2 2 2 2 2 2 2 2 2 2 2 2 2 2 2 2 2 2 2 2 2 2 2 2 2 2 2 2 2 2 2 2 2 2 2 2 2 2 2 2 2 2 2 32 101 101 32 2 2 2 2 2 2 2 2 2 2 2 2 32 32 2 2 2 32 101 32 2 2 2 2 2 2 2 2 2 2 2 2 2 2 2 2 2 2 2 2 2 2
32 32 32 2 2 2 32 32 32 32 101 101 101 32 2 2 2 2 2 2 2 2 2 2 2 32 32 2 2 2 2 2 2 2 2 2 2 2 2 2 2 2 2 2 2 2 2 2 2 2 2 2 2 2 2 2 32 32 32 32 32 32 32 2 2 32 32 32 101 101 101 101 101 101 101 32 101 101 101 32 2 2 2 2 32 32 2 2 2 2 2 2 2 2 2 2 2 2 2 2 2 2 2 2 2 2 2 2 2 2 2 2 2 2 2 2 2 2 2 2 2 2 2 2 2 2 2 2 2 2 32 32 32 32 2 2 2 2 2 32 32 2 2 2 32 2 32 32 32 32 2 2 2 2 2 2 2 32 32 32 32 2 2 2 2 32 2 2 2 2 2 2 2 2 2 2 2 2 2 2 2 2 2 2 2 2 2 2 2 2 2 2 32 2 2 2 32 32 2 2 2 2 2 2 2 2 2 2 2 2 2 2 2 2 2 32 2 2 2 2 2 2 2 2 2 2 2 2 2 2 2 2 2 2 2 2 2 2 2 2 2 2 2 2 2 2 2 2 2 2 2 2 2 2 32 101 101 32 32 2 2 2 2 2 2 2 2 2 2 32 32 32 32 32 32 101 101 101 101 32 32 32 32 2 2 2 2 2 2 2 2 2 2 2 2 2 2 2 2 2
32 2 2 2 32 32 32 32 32 32 101 101 32 32 32 2 2 2 2 2 2 2 2 2 2 32 32 2 2 2 2 2 2 2 2 2 2 2 2 2 2 2 2 2 2 2 2 2 2 2 2 2 2 2 2 32 32 32 32 32 32 32 32 2 32 32 32 32 101 101 101 101 101 101 101 101 101 101 32 32 32 2 2 2 2 2 2 2 2 2 2 2 2 2 2 2 2 2 2 2 2 2 2 2 2 2 2 2 2 2 2 2 2 2 2 2 2 2 2 2 2 2 2 2 2 2 2 2 2 2 32 32 32 32 32 2 2 2 2 32 32 32 2 2 2 2 2 2 2 2 32 32 32 32 2 2 2 2 32 32 32 32 2 2 32 32 32 2 2 2 2 2 2 2 2 2 2 2 2 2 2 2 2 2 2 2 2 2 2 2 2 2 2 2 32 2 32 32 32 32 2 2 2 2 2 2 2 2 2 2 2 2 2 32 32 32 32 2 2 2 2 2 2 2 2 2 2 2 2 2 2 2 2 2 2 2 2 2 2 2 2 2 2 2 2 2 2 2 2 2 2 2 2 2 32 32 2 2 32 2 2 2 2 2 2 2 2 2 32 32 32 32 101 101 32 32 101 101 101 32 32 32 32 2 2 2 2 2 2 2 2 2 2 2 2 2 2 2 2 2
32 2 2 2 32 2 32 32 101 32 32 32 2 32 2 2 2 2 2 2 2 2 2 2 2 2 2 2 2 2 2 2 2 2 2 2 2 2 2 2 2 2 2 2 2 2 2 2 2 2 2 2 2 2 2 2 32 32 32 32 32 32 32 32 32 32 32 101 101 101 101 101 101 101 101 101 101 101 32 32 32 32 2 2 2 2 2 2 2 2 2 2 2 2 2 2 2 2 2 2 2 2 2 2 2 2 2 2 2 2 2 2 2 2 2 2 2 2 2 2 2 2 2 2 2 2 2 2 2 2 2 2 2 32 32 2 2 32 32 32 32 32 2 2 2 2 2 2 2 2 2 2 2 32 32 32 2 32 2 32 32 32 32 32 101 32 32 2 2 2 2 2 2 2 2 2 2 2 2 2 2 2 2 2 2 2 2 2 2 2 2 2 2 2 2 2 2 32 32 32 2 2 2 2 2 2 2 2 2 2 2 2 2 32 2 32 2 2 2 2 2 2 2 2 2 2 2 2 2 2 2 2 2 2 2 2 2 2 2 2 2 2 2 2 2 32 2 2 2 2 2 2 2 2 2 32 2 2 32 2 2 2 32 32 32 32 2 2 32 101 101 32 101 32 32 32 101 101 32 32 2 32 32 2 2 2 2 2 2 2 2 2 2 2 2 2 2 2 2 2
2 2 2 2 2 2 2 32 32 2 32 32 2 2 2 2 2 2 2 2 2 2 2 2 2 2 2 2 2 2 2 2 2 2 2 2 2 2 2 2 2 2 2 2 2 2 2 2 2 2 2 2 2 2 2 2 2 32 32 101 101 32 32 101 101 32 32 101 101 101 101 101 101 101 32 101 101 32 32 32 2 32 32 2 2 2 2 2 2 2 2 2 2 2 32 2 2 2 2 2 2 2 2 2 2 2 2 2 2 2 2 2 2 2 2 2 2 2 2 2 2 2 2 2 2 2 2 2 2 2 2 2 2 2 32 32 2 2 2 32 32 32 32 32 2 2 2 2 2 32 2 2 32 32 32 32 2 2 2 2 32 32 32 101 101 32 32 2 2 2 2 2 2 2 2 2 2 2 2 2 2 2 2 2 2 2 2 2 2 2 2 2 2 2 2 32 32 2 2 2 2 2 2 2 2 2 2 2 2 2 2 32 32 32 32 2 2 2 2 2 2 2 2 2 2 2 2 2 2 2 2 2 2 2 2 2 2 2 2 2 2 2 2 2 2 2 2 2 2 2 2 2 2 32 2 2 2 2 32 32 32 32 32 32 101 101 32 32 32 101 101 101 32 32 32 32 32 32 32 32 32 32 32 32 2 2 2 2 2 2 2 2 2 2 2 2 2 2 2 2
2 2 2 2 2 32 2 2 2 2 2 2 2 2 2 2 2 2 2 2 2 2 2 2 2 2 2 2 2 2 2 2 2 2 2 2 2 2 2 2 2 2 2 2 2 2 2 2 2 2 32 2 2 2 2 32 32 32 32 101 101 32 101 101 101 32 32 32 101 101 101 101 101 101 32 101 101 32 32 32 2 2 32 32 2 2 2 2 2 2 2 2 2 2 2 2 2 2 2 2 2 2 2 2 2 2 2 2 2 2 2 2 2 2 2 2 2 2 2 2 2 2 2 2 2 2 2 2 2 2 2 2 2 2 32 32 32 32 2 32 32 32 32 32 32 32 2 2 2 2 2 32 32 2 32 32 32 32 32 32 32 101 101 101 32 32 32 2 2 2 2 2 2 2 2 2 2 2 2 2 2 2 2 2 2 2 2 2 2 2 2 2 2 2 2 2 2 2 2 2 2 2 2 32 2 2 32 32 2 2 32 32 32 32 2 2 2 2 2 2 2 2 2 2 2 2 2 2 2 2 2 2 2 2 2 2 2 2 2 2 2 2 2 2 2 2 2 2 2 2 2 2 2 2 2 2 2 2 32 32 32 32 2 2 32 101 101 101 32 32 101 101 101 32 32 2 2 2 2 2 32 32 32 32 2 2 32 2 2 2 2 2 2 2 2 2 32 32 2 2
32 32 32 2 2 2 2 2 2 2 2 2 2 2 2 2 2 2 2 2 2 2 2 2 2 2 2 2 2 2 2 2 2 2 2 2 2 2 2 2 2 2 2 2 2 2 2 2 2 2 32 32 32 32 32 32 101 101 32 101 101 101 101 101 32 32 32 32 32 32 32 101 101 101 101 101 101 101 32 32 2 32 32 2 32 32 32 2 2 2 2 2 2 2 2 2 2 2 2 2 2 2 2 2 2 2 2 2 2 2 2 2 2 2 2 2 2 2 2 2 2 2 2 2 2 2 2 2 2 2 2 2 2 32 32 32 32 32 32 32 32 32 32 32 32 32 32 2 2 2 2 32 32 32 32 32 32 32 32 32 101 101 101 32 32 32 32 2 2 2 2 2 2 2 2 2 2 2 2 2 2 2 2 2 2 2 2 2 2 2 2 2 2 2 2 2 2 2 2 2 2 2 2 32 2 32 32 2 2 2 32 32 32 2 2 2 2 2 2 2 2 2 2 2 2 2 2 2 2 2 2 2 2 2 2 2 2 2 2 2 2 2 2 2 2 2 2 2 2 2 2 2 2 2 2 2 2 2 32 32 32 32 32 2 32 101 101 101 101 32 32 101 101 32 2 2 2 2 32 2 2 32 32 32 2 2 2 2 2 2 2 2 2 32 32 32 32 32 32 2
101 101 32 2 2 2 2 2 2 2 2 2 2 2 2 2 2 2 2 2 2 2 2 2 2 2 2 2 2 2 2 2 2 2 2 2 2 2 2 2 2 2 2 2 2 2 2 2 2 2 32 32 32 32 32 101 101 101 101 101 101 101 101 101 32 32 32 32 32 32 32 101 101 101 101 101 101 101 32 101 32 32 2 2 2 2 32 32 32 32 32 2 2 2 2 2 2 2 2 2 2 2 2 2 2 2 2 2 2 2 2 2 2 2 2 2 2 2 2 2 2 2 2 2 2 2 2 2 2 2 2 2 32 32 32 32 32 2 32 32 32 32 32 32 32 32 32 2 32 32 32 32 32 32 32 32 32 32 32 32 32 32 32 32 32 32 32 2 2 2 2 2 2 2 2 2 2 2 2 2 2 2 2 2 2 2 2 2 2 2 2 2 2 2 2 2 2 2 2 2 2 2 2 2 2 2 2 2 32 32 32 2 2 2 2 2 2 2 2 2 2 2 2 2 2 2 2 2 2 2 2 2 2 2 2 2 2 2 2 2 2 2 2 2 2 2 2 2 2 2 2 2 32 32 32 2 2 2 32 32 2 32 32 2 32 32 32 101 32 32 32 101 101 32 2 2 2 2 32 2 2 2 32 32 32 32 2 2 2 2 2 2 2 32 32 32 32 32 32 32
101 101 32 2 2 2 2 2 2 2 2 2 2 2 2 2 2 2 2 2 2 2 2 2 2 2 2 2 2 2 2 2 2 2 2 2 2 2 2 2 2 2 2 2 2 2 2 2 2 2 2 32 32 32 32 101 101 101 101 101 101 101 101 32 32 32 32 32 32 32 32 32 101 101 101 101 32 101 101 101 32 32 2 2 2 32 32 32 32 32 101 101 32 2 2 2 2 2 2 2 2 2 2 2 2 2 2 2 2 2 2 2 2 2 2 2 2 32 32 2 2 2 2 32 2 2 2 2 32 32 32 101 32 32 32 2 2 2 2 2 2 2 2 32 32 32 32 32 32 32 32 32 32 2 2 32 32 32 32 32 32 32 32 32 32 32 32 2 2 2 2 2 2 2 2 2 2 2 2 2 2 2 2 2 2 2 2 2 2 2 2 2 2 2 2 2 2 2 2 2 2 2 2 2 2 2 2 2 2 32 2 2 2 2 2 2 2 2 2 2 2 2 2 2 2 2 2 2 2 2 2 2 2 2 2 2 2 2 2 2 2 2 2 2 2 2 2 2 2 2 2 2 32 32 32 2 2 2 2 32 2 32 32 32 32 32 32 32 32 32 32 32 32 32 2 2 2 2 32 2 2 2 2 32 32 32 32 2 2 2 2 2 2 32 32 32 32 32 32 32
101 32 2 2 2 2 2 2 2 2 2 2 2 2 2 2 2 2 2 2 2 2 2 2 2 2 2 2 2 32 32 2 2 2 2 2 2 2 2 2 2 2 2 2 2 2 2 2 2 32 32 32 32 2 32 101 101 101 101 101 101 101 32 32 32 32 32 32 32 32 32 101 101 101 101 101 32 101 101 32 101 2 2 2 2 32 101 101 32 32 101 101 101 32 2 2 32 2 2 2 32 2 2 2 2 2 2 2 2 32 32 2 2 2 2 2 2 32 32 2 2 2 32 32 2 2 2 2 32 101 101 101 32 32 32 2 32 2 2 2 2 2 2 32 32 32 32 32 32 32 32 32 2 32 2 32 32 32 32 32 2 2 32 32 2 32 2 2 2 2 2 2 2 2 2 2 2 2 2 2 2 2 2 2 2 2 2 2 2 2 2 2 2 2 2 2 2 2 2 2 2 2 2 2 2 2 2 2 2 2 2 2 2 2 2 2 2 2 2 2 2 2 2 2 2 2 2 2 2 2 2 2 2 2 2 2 2 2 2 2 2 2 2 2 2 2 2 2 2 2 2 2 2 32 32 32 32 32 32 32 32 32 32 32 32 32 32 32 32 32 32 32 32 32 32 32 2 2 32 32 2 2 2 2 32 32 32 32 32 2 2 2 2 32 32 32 32 32 32 32
32 32 2 2 2 2 2 2 2 2 2 2 2 2 2 2 2 2 2 2 2 2 2 2 2 2 2 2 2 2 32 32 2 2 2 2 2 2 2 2 2 2 2 2 2 2 2 2 2 32 32 32 32 32 32 101 101 101 101 101 101 101 101 32 32 32 32 32 32 32 32 101 101 101 32 101 32 101 101 32 32 2 2 2 2 2 2 32 32 32 101 101 101 101 101 32 101 32 32 32 32 32 2 2 32 2 2 2 2 32 2 2 2 2 2 2 2 2 2 2 2 2 32 32 32 32 2 2 2 32 101 101 32 2 2 2 32 32 2 2 2 2 2 32 32 32 32 32 32 32 32 32 2 2 2 2 2 32 32 32 32 2 2 2 2 2 32 32 2 2 2 2 2 2 2 2 2 2 2 2 2 2 2 2 2 2 2 2 2 2 2 2 2 2 2 2 2 2 2 2 2 2 2 2 2 2 2 2 2 2 2 2 2 2 2 2 2 2 2 2 2 2 2 2 2 2 2 2 2 2 2 2 2 2 2 2 2 2 2 2 2 2 2 2 2 2 2 2 32 2 2 2 2 2 32 32 32 32 32 2 2 32 32 32 32 2 32 32 32 32 32 32 32 32 32 32 2 2 32 32 2 2 2 2 101 101 32 32 32 2 2 2 2 2 32 32 32 32 32 32
32 2 2 2 2 2 2 2 2 2 2 2 2 2 2 2 2 2 2 2 2 2 2 2 2 2 2 2 2 2 2 2 32 2 2 2 2 2 2 2 2 2 2 2 2 2 2 2 2 2 32 32 32 32 32 32 32 101 32 101 101 101 32 32 32 32 32 2 2 32 101 101 101 101 101 32 32 32 101 101 2 2 2 2 32 2 2 2 32 32 32 101 101 101 101 101 101 101 101 101 101 32 2 2 2 2 2 2 2 2 2 2 2 2 2 2 2 2 2 2 2 2 2 2 2 2 2 2 2 32 101 32 2 2 2 2 32 2 2 2 2 2 2 2 2 32 32 32 32 32 2 2 2 2 2 2 2 2 32 32 32 32 2 2 2 2 32 32 32 2 32 32 2 32 32 32 2 2 2 2 2 2 2 2 2 2 2 2 2 2 2 2 2 2 2 2 2 2 2 2 2 2 2 2 2 2 32 32 2 2 2 2 2 2 2 2 2 2 2 2 2 2 2 2 2 2 2 2 2 2 2 2 2 2 2 2 2 2 2 2 2 2 2 2 2 2 2 2 2 2 2 2 2 2 2 32 32 32 2 2 2 32 32 32 32 32 2 32 32 32 32 32 32 32 2 2 2 2 2 2 2 32 2 32 101 101 32 2 32 32 2 2 2 2 32 32 32 101 101 32
2 2 2 2 2 2 2 2 2 2 2 2 2 2 2 2 2 2 2 2 2 2 2 2 2 2 2 2 2 2 2 2 32 32 2 2 32 32 2 2 2 2 2 2 2 2 2 2 2 2 2 2 32 32 32 32 101 101 2 32 32 101 32 32 32 32 32 2 32 32 101 101 101 101 101 101 101 32 101 101 32 32 32 32 32 2 2 32 2 32 32 32 32 101 101 101 101 101 101 101 101 101 32 2 2 2 2 2 2 2 2 2 2 2 2 2 2 2 2 2 2 2 2 2 2 2 2 2 2 32 101 32 2 2 2 32 2 2 2 2 2 2 2 2 2 2 2 2 2 2 2 2 2 2 2 2 2 2 2 2 2 32 2 2 2 2 2 2 2 32 32 32 32 101 101 32 2 2 2 2 2 2 2 2 2 2 2 2 2 2 2 2 2 2 2 2 2 2 2 2 2 2 2 2 2 2 2 2 2 32 32 2 2 2 2 2 2 2 2 2 2 2 2 2 2 2 2 2 2 2 2 2 2 2 2 2 2 2 2 2 2 2 2 2 2 2 2 2 2 2 2 2 2 2 2 2 32 32 32 2 2 2 32 32 2 2 2 32 32 32 32 32 32 32 2 2 2 2 2 2 2 2 2 32 101 101 2 2 2 2 32 2 2 2 32 32 32 32 32 2
2 2 2 2 2 2 2 2 2 2 2 2 2 2 2 2 2 2 2 2 2 2 2 2 2 2 2 2 2 2 2 2 2 32 32 2 32 2 2 2 2 2 2 2 2 2 2 2 2 2 2 2 32 32 32 32 32 32 2 2 32 32 32 101 32 32 32 32 32 32 101 101 101 101 101 101 101 32 101 101 101 101 101 32 32 2 2 2 2 32 32 32 101 101 101 101 101 101 101 101 101 32 32 2 2 2 2 2 2 2 2 2 2 2 2 2 2 2 2 2 2 2 32 32 2 2 2 2 2 32 32 2 2 2 2 2 2 2 2 2 2 2 2 2 2 2 2 2 2 2 2 2 2 2 2 2 2 2 2 2 2 2 2 2 2 2 2 2 2 2 2 2 2 32 32 2 2 2 2 2 2 2 2 2 2 2 2 2 2 2 2 2 2 2 2 2 2 2 2 2 2 2 2 2 2 2 2 2 2 2 32 32 2 2 2 2 2 2 2 2 2 2 2 2 2 2 2 2 2 2 2 2 2 2 2 2 2 2 2 2 2 2 2 2 2 2 2 2 2 2 2 2 2 2 2 2 2 32 32 32 32 32 32 2 2 32 32 32 32 2 2 32 32 32 32 2 2 2 2 2 2 2 2 32 32 101 32 2 2 32 2 2 2 32 32 32 32 32 2 2
2 2 2 2 2 2 2 2 2 2 2 2 2 2 2 2 2 2 2 2 2 2 2 2 2 2 2 2 2 2 2 2 2 2 32 32 32 32 32 2 2 2 2 2 2 2 2 2 2 2 2 2 32 32 32 32 32 2 2 2 32 32 32 101 32 32 101 101 101 101 101 101 101 101 101 101 32 101 101 101 101 32 101 32 32 32 32 32 2 32 32 32 101 101 101 101 101 101 101 101 32 2 2 2 2 2 2 2 2 2 2 2 2 2 2 2 2 2 2 2 2 2 32 2 2 2 2 2 2 32 2 2 2 2 32 2 2 2 2 2 2 2 2 2 2 2 2 2 2 2 2 2 2 2 2 2 2 2 2 2 2 2 2 2 2 2 2 2 2 2 2 2 2 2 2 2 2 2 2 2 2 2 2 2 2 2 2 2 2 2 2 2 2 2 2 2 2 2 2 2 2 2 2 2 2 2 2 2 2 2 2 2 2 2 2 2 32 32 2 2 2 2 2 2 2 2 2 2 2 2 2 2 2 2 2 2 2 2 2 2 2 2 2 2 2 2 2 2 2 2 2 2 2 2 2 2 2 2 2 2 2 2 2 32 32 32 32 32 32 2 2 32 32 32 32 2 2 2 2 2 32 2 2 32 32 32 32 2 2 32 2 2 32 32 32 32 32 2 2 2
2 2 2 2 2 2 2 2 2 2 2 2 2 2 2 2 2 2 2 2 2 2 2 2 2 2 2 2 2 2 2 2 2 2 2 32 32 32 32 2 2 2 2 2 2 2 2 2 2 2 2 32 32 32 2 32 32 2 2 2 2 32 32 101 32 32 101 101 101 101 101 101 101 101 101 32 32 101 101 101 101 32 101 101 32 101 101 32 32 32 32 101 101 101 101 101 101 101 101 101 32 32 2 2 2 2 2 2 2 2 2 2 2 2 2 2 2 2 2 2 2 32 2 2 2 2 2 2 2 32 2 2 2 2 2 2 2 2 2 2 2 2 2 2 2 2 2 2 2 2 2 2 2 2 2 2 2 2 2 2 2 2 2 2 2 2 2 2 2 2 2 2 2 2 2 2 2 2 2 2 2 2 2 2 2 2 2 2 2 2 2 2 2 2 2 2 2 2 2 2 2 2 2 2 2 2 2 2 2 2 2 2 2 2 2 32 32 32 32 32 32 32 32 2 2 2 2 2 2 2 2 2 2 2 2 2 2 2 2 2 2 2 2 2 2 2 2 2 2 2 2 2 2 2 2 2 2 2 2 2 2 2 2 32 32 32 32 2 32 32 2 2 32 32 101 32 2 2 2 2 32 2 2 2 2 32 32 32 32 32 32 32 32 32 32 32 32 2 2 2
2 2 2 2 2 2 2 2 2 2 2 2 2 2 2 2 2 2 2 2 2 2 2 2 2 2 2 2 2 2 2 2 2 2 2 2 32 32 2 2 2 2 2 2 2 2 2 2 2 2 32 32 2 2 2 2 32 32 2 2 2 32 32 101 32 32 32 101 101 101 101 101 101 101 101 32 101 101 101 101 32 32 32 32 32 32 101 101 32 32 101 101 101 101 101 101 101 101 32 32 32 32 2 2 2 2 2 2 2 2 2 2 2 2 2 2 2 2 2 2 2 2 2 2 2 2 2 2 2 2 2 2 2 2 2 2 2 32 32 32 2 2 2 2 2 2 2 2 2 2 2 2 2 2 2 2 2 2 2 2 2 2 2 2 2 2 2 2 2 2 2 2 2 2 32 32 2 2 2 2 2 2 2 2 2 2 2 2 2 2 2 2 2 2 2 2 2 2 2 2 2 2 2 2 32 2 2 2 2 2 2 2 2 32 32 32 32 32 32 32 32 32 32 2 2 2 2 2 2 2 2 2 2 2 2 2 2 2 2 2 2 2 2 2 2 2 2 2 2 2 2 2 2 2 2 2 32 32 32 32 2 2 2 32 2 2 2 2 2 2 2 2 32 32 32 32 2 2 2 2 2 2 2 2 2 32 32 32 101 101 101 32 32 32 32 32 2 2 2 2
2 2 2 2 2 2 2 2 2 2 2 2 2 2 2 2 2 2 2 2 2 2 2 2 2 2 2 2 2 2 2 2 2 2 2 2 2 32 32 2 2 2 2 2 2 2 2 2 2 2 2 2 2 2 2 2 32 32 32 32 32 32 32 101 32 32 32 101 101 101 101 101 101 101 101 32 101 101 32 32 32 32 32 32 101 32 32 101 101 101 32 101 101 101 101 101 101 101 32 32 32 32 2 2 2 2 2 2 2 2 2 2 2 2 2 2 2 2 2 2 2 2 2 2 2 2 2 2 2 2 2 2 2 2 2 2 2 32 32 32 2 2 2 2 2 2 2 2 2 2 2 2 2 2 2 2 2 2 2 2 2 2 2 2 2 2 2 2 2 2 2 2 2 2 32 32 2 2 2 2 2 2 2 2 2 2 2 2 2 2 2 2 2 2 2 2 2 2 2 2 2 2 2 32 32 32 2 2 2 2 2 2 2 32 32 32 32 32 32 32 101 32 32 32 2 2 2 2 2 2 2 2 2 2 2 2 2 2 2 2 2 2 2 2 2 2 2 2 2 2 2 2 2 2 2 2 2 32 32 32 32 2 2 2 2 2 2 2 2 2 2 2 32 32 2 2 2 32 32 32 32 2 2 2 2 2 2 32 101 101 101 32 32 32 2 2 2 2 2 2
2 2 2 2 2 2 2 2 2 2 2 2 2 2 2 2 2 2 2 2 2 2 2 2 2 2 2 2 2 2 2 2 2 2 2 2 2 2 32 2 2 2 2 2 2 2 2 2 2 2 2 2 2 2 2 2 2 32 32 32 32 32 32 32 32 32 32 101 101 101 101 101 101 32 32 101 101 101 32 32 32 2 32 32 101 101 101 101 101 32 32 32 101 32 101 101 101 101 32 32 32 32 2 2 2 2 2 2 2 2 2 2 2 2 2 2 2 2 2 2 2 2 2 2 2 2 2 2 2 2 32 2 2 2 2 2 2 2 2 2 2 2 2 2 2 2 2 2 2 2 2 2 2 2 2 2 2 2 2 2 2 2 2 2 2 2 2 2 2 2 2 2 2 2 32 32 2 2 2 2 2 2 2 2 2 2 2 2 2 2 2 2 2 2 2 2 2 2 2 2 2 2 2 2 2 2 2 2 2 2 2 2 2 32 32 32 32 2 2 32 32 32 32 32 32 32 32 32 2 2 2 2 2 2 2 2 2 2 2 2 2 2 2 2 2 2 2 2 2 2 2 2 2 2 2 32 32 32 32 2 2 2 2 2 2 2 2 2 2 2 2 2 32 32 2 2 2 32 32 2 2 2 2 2 2 2 32 32 101 101 32 32 32 2 2 2 2 2 2 2
2 2 2 2 2 2 2 2 2 2 2 2 2 2 2 2 2 2 2 2 2 2 2 2 2 2 2 2 2 2 2 2 2 2 2 2 2 2 2 2 2 2 2 2 2 2 2 2 32 2 2 2 2 2 2 2 2 2 2 32 32 32 32 32 32 32 101 101 101 101 101 101 101 101 32 101 101 32 32 32 32 2 32 32 101 101 101 101 101 32 2 32 32 32 101 101 101 32 32 32 32 32 2 2 2 2 2 2 2 2 2 2 2 2 2 2 2 2 2 2 2 2 2 2 2 2 2 2 2 2 2 2 2 2 2 2 2 2 2 2 2 2 2 2 2 2 2 2 2 2 2 2 2 2 2 2 2 2 2 2 2 2 2 2 2 2 2 2 2 2 2 2 2 2 2 2 2 2 2 2 2 2 2 2 2 2 2 2 2 2 2 2 2 2 2 2 2 2 2 2 2 2 2 2 2 2 2 2 2 2 2 32 2 32 32 32 32 32 2 32 2 2 32 32 32 32 32 32 2 2 2 2 2 2 2 2 2 2 2 2 2 2 2 2 2 2 2 2 2 2 2 2 32 32 2 2 2 2 2 2 2 2 2 2 2 2 2 2 2 2 2 2 32 32 32 2 2 2 32 2 2 2 32 2 32 32 32 32 101 101 32 32 32 32 2 2 32 2 2 32
2 2 2 2 2 2 2 2 2 2 2 2 2 2 2 2 2 2 2 2 2 2 2 2 2 2 2 2 2 2 2 2 2 2 2 2 2 2 2 2 2 2 2 2 2 2 2 2 2 2 2 2 2 2 2 2 2 2 32 32 101 101 101 101 32 101 101 101 101 101 101 101 101 101 101 101 32 32 32 32 32 2 32 32 32 32 101 101 101 32 32 32 32 32 101 101 101 101 32 32 101 32 32 2 2 2 2 2 32 32 2 2 2 2 2 2 2 2 2 2 2 2 2 2 2 2 2 2 2 2 2 2 2 2 2 2 2 2 2 2 2 2 2 2 2 2 2 2 2 2 2 2 2 2 2 2 2 2 2 2 2 2 2 2 2 2 2 2 2 2 2 2 2 2 2 2 2 2 2 2 2 2 2 2 2 2 2 2 2 2 2 2 2 2 2 2 2 2 2 2 2 2 2 2 2 2 2 2 2 2 32 32 32 2 32 32 32 32 32 2 2 32 32 32 32 32 32 32 2 2 2 2 2 2 2 2 2 2 2 2 2 2 2 2 2 2 2 2 2 2 2 2 2 2 2 2 2 2 2 2 2 2 2 2 2 2 2 2 2 2 2 2 32 32 32 32 2 2 32 2 2 32 32 32 32 32 32 32 101 101 101 32 32 32 32 32 32 2 2 2
2 2 2 2 2 2 2 2 2 2 2 2 2 2 2 2 2 2 2 2 2 2 32 32 32 2 2 2 2 2 2 2 2 2 2 2 2 2 2 2 2 2 2 2 2 2 2 2 2 2 2 2 2 2 2 32 32 2 2 32 101 101 101 101 32 101 101 101 101 101 101 101 101 101 101 32 32 101 101 32 32 32 32 32 32 101 32 101 101 32 32 2 32 101 101 101 101 101 101 101 101 101 32 2 2 2 2 2 2 2 2 2 2 2 2 2 2 2 2 2 2 2 2 2 2 2 2 2 2 2 2 2 2 2 2 2 2 2 2 2 2 2 2 2 2 2 2 2 2 2 2 2 2 2 2 2 2 2 2 2 2 2 2 2 2 2 2 2 2 2 2 2 2 2 2 2 2 2 2 2 2 2 2 2 2 2 2 2 2 2 2 2 2 2 2 2 2 2 2 2 2 2 2 2 2 2 2 2 2 2 2 2 32 32 32 32 32 32 32 32 32 32 32 32 32 32 2 32 32 2 2 2 32 2 2 2 2 32 2 2 2 2 2 2 2 2 2 2 2 2 2 2 2 2 2 2 2 2 2 2 2 2 2 2 2 2 2 2 2 2 2 32 32 32 32 32 32 2 2 2 2 32 32 2 32 32 32 32 32 32 101 32 32 32 32 32 32 2 2 2
2 2 2 2 2 2 2 2 2 2 2 2 2 2 2 2 2 2 2 2 2 32 101 101 32 32 32 2 32 32 32 2 2 2 32 32 2 2 2 2 2 2 2 2 2 32 2 2 2 2 2 2 2 2 2 32 2 2 32 101 101 101 101 32 32 101 101 101 101 101 101 101 101 101 101 101 32 101 101 32 32 32 32 32 32 32 32 32 101 101 32 32 101 101 101 101 101 101 101 101 101 101 32 2 2 2 2 2 2 2 32 2 2 2 2 2 2 2 2 2 2 2 2 2 2 2 2 2 2 2 2 2 2 2 2 2 2 2 2 2 2 2 2 2 2 2 2 2 2 2 2 2 2 2 2 2 2 2 2 2 2 2 2 2 2 2 2 2 2 2 2 2 2 2 2 2 2 2 2 2 2 2 2 2 2 2 2 2 2 2 2 2 2 2 2 2 2 2 2 2 2 2 2 2 2 2 2 2 2 2 2 32 2 32 2 32 32 32 2 32 2 2 2 32 2 32 32 32 32 32 32 32 32 2 2 2 32 32 32 2 2 2 2 2 2 2 2 2 2 2 2 2 2 2 2 2 2 2 2 2 2 2 2 2 2 2 2 2 2 2 2 32 32 32 32 32 32 32 32 32 2 32 32 2 32 32 32 32 32 32 32 32 32 32 32 2 32 32 32 2
2 2 2 2 2 2 2 2 2 2 2 2 2 2 2 2 2 2 2 2 2 32 101 101 32 32 2 2 2 2 32 32 32 2 32 32 2 32 32 32 2 2 2 2 2 32 2 2 2 2 32 32 2 2 2 32 2 2 32 101 32 32 32 32 32 101 101 101 101 101 101 101 101 101 32 101 32 101 101 32 32 32 32 32 32 32 32 32 101 101 32 32 101 101 101 101 101 101 101 101 101 101 32 2 2 2 2 2 2 2 2 32 32 32 2 32 32 32 2 2 2 2 2 2 2 2 2 2 2 2 2 2 2 2 2 2 2 2 2 2 2 2 2 2 2 2 2 2 2 2 2 2 2 2 2 2 2 2 2 2 2 2 2 2 2 2 2 2 2 2 2 2 2 2 2 2 2 2 2 2 2 2 2 2 2 2 2 2 2 2 2 2 2 2 2 2 2 2 2 2 2 2 2 2 2 2 2 2 2 2 2 2 2 2 2 2 32 32 32 32 32 2 2 2 2 32 32 32 32 32 32 32 32 2 2 2 2 32 32 2 2 2 2 2 2 2 2 2 2 2 2 2 2 2 2 2 2 2 2 2 2 2 2 2 2 2 2 2 2 2 2 32 2 32 32 32 32 32 32 2 2 2 2 2 32 32 32 32 32 32 32 32 32 101 101 32 32 32 2 32
2 2 2 2 2 2 2 2 2 2 2 2 2 2 2 2 2 2 2 2 2 32 32 32 32 2 2 2 2 2 2 32 32 2 2 2 32 32 32 32 2 32 32 32 32 32 32 32 2 2 2 2 2 32 32 2 2 2 32 32 32 32 2 32 32 32 101 101 101 101 101 101 101 101 101 101 101 101 101 32 32 32 32 32 32 32 32 32 32 32 32 32 101 101 101 101 101 101 101 101 32 32 32 32 2 2 2 2 2 2 2 2 32 32 32 32 32 32 32 2 2 2 2 2 2 2 2 2 2 2 2 2 2 2 2 2 2 2 2 2 2 2 2 2 2 2 2 2 2 2 2 2 2 2 2 2 2 2 2 2 2 2 2 2 2 2 2 2 2 2 2 2 2 2 2 2 2 2 2 2 2 2 2 2 2 2 2 2 2 2 2 2 2 2 2 2 2 2 2 2 2 2 2 2 2 2 2 2 2 2 2 2 2 2 2 2 32 32 32 32 32 2 2 2 2 32 32 32 32 32 32 32 32 32 32 2 2 2 2 2 2 2 2 2 2 2 2 2 2 2 2 2 2 2 2 2 2 2 2 2 2 2 2 2 2 2 2 2 2 2 2 2 2 32 32 32 32 32 32 2 2 2 32 32 32 32 32 32 32 32 32 32 32 32 32 32 32 2 2 32
2 2 2 2 2 2 2 2 2 2 2 2 2 2 2 2 2 2 2 2 2 32 2 2 2 2 2 2 2 2 2 2 32 2 2 32 32 32 32 32 2 32 32 32 32 32 32 32 2 2 2 2 32 32 32 2 2 32 101 32 32 32 32 32 32 32 101 32 101 101 101 101 101 32 32 32 32 101 101 101 2 32 32 32 32 32 32 32 32 32 32 32 32 101 101 101 32 32 101 101 32 32 32 32 2 2 2 2 2 2 2 2 2 32 32 32 32 32 32 32 2 2 2 2 2 2 2 2 2 2 2 2 2 2 2 2 2 2 2 2 2 2 2 2 2 2 2 2 2 2 2 2 2 2 2 2 2 2 2 2 2 2 2 2 2 2 2 2 2 2 2 2 2 2 2 2 2 2 2 2 2 2 2 2 2 2 2 2 2 2 2 2 2 2 2 2 2 2 2 2 2 2 2 2 2 2 2 2 2 2 2 2 2 2 32 2 2 32 2 32 32 2 2 2 32 32 2 2 2 2 2 32 32 32 32 32 32 2 2 2 2 2 2 2 2 2 2 2 2 2 2 2 2 2 2 2 2 2 2 2 2 2 2 2 2 2 2 2 2 2 2 2 32 32 32 32 32 32 2 2 2 32 32 2 2 2 32 32 32 32 32 32 101 32 32 32 32 2 32 32
2 2 2 2 2 2 2 2 2 2 2 2 2 2 2 2 2 2 2 2 2 2 2 2 2 2 2 2 2 2 2 32 32 32 2 32 32 32 32 32 2 32 32 32 2 32 32 32 32 2 2 2 32 32 32 2 2 32 101 32 32 2 32 32 32 32 32 101 101 101 101 101 101 32 32 32 32 101 101 32 2 32 32 32 32 32 101 101 32 32 32 32 32 101 101 101 101 32 32 32 32 32 32 32 32 32 2 2 2 2 2 2 2 2 2 2 32 32 32 32 2 2 2 2 2 2 2 2 2 2 2 2 2 2 2 2 2 2 2 2 2 2 2 2 2 2 2 2 2 2 2 2 2 2 2 2 2 2 2 2 2 2 2 2 2 2 2 2 2 2 2 2 2 2 2 2 2 2 2 2 2 2 2 2 2 2 2 2 2 2 2 2 2 2 2 2 2 2 2 2 2 2 2 2 2 2 2 2 2 2 2 2 2 2 2 2 2 2 32 32 32 32 2 2 32 32 32 32 2 2 2 32 32 32 32 32 2 2 2 2 2 2 2 2 2 2 2 2 2 2 2 2 2 2 2 2 2 2 2 2 2 2 2 2 2 2 2 2 2 2 2 2 2 32 32 32 32 32 32 32 2 2 2 32 32 32 32 32 32 32 32 32 32 32 32 32 32 32 32 2
2 2 2 2 2 2 2 2 32 2 2 2 2 2 2 2 2 2 2 2 2 2 2 2 2 2 2 2 2 2 2 2 2 2 2 2 2 32 32 32 2 2 32 32 32 32 32 32 2 2 2 2 32 32 32 2 32 101 101 32 32 2 2 32 32 32 32 101 101 101 101 101 101 32 32 32 32 32 32 32 32 32 32 32 32 32 32 32 32 32 32 32 2 32 101 101 101 32 32 32 32 32 32 32 32 32 32 2 2 2 2 2 2 2 32 32 32 101 32 32 2 2 2 2 2 2 2 2 2 2 2 2 2 2 2 2 2 2 2 2 2 2 2 2 2 2 2 2 2 2 2 2 2 2 2 2 2 2 2 2 2 2 2 2 2 2 2 2 2 2 2 2 2 2 2 2 2 2 2 2 2 2 2 2 2 2 2 2 2 2 2 2 2 2 2 2 2 2 2 2 2 2 2 2 2 2 2 2 2 2 2 2 2 2 2 2 2 32 32 32 32 32 32 32 32 32 32 32 32 2 32 32 32 32 32 2 2 2 2 2 2 2 2 2 2 2 2 2 2 2 2 2 2 2 2 2 2 2 2 2 2 2 2 2 2 2 2 2 2 2 2 2 2 2 32 32 2 32 32 32 2 2 2 2 2 2 32 32 32 32 32 32 2 32 2 2 2 2 2 2
2 2 2 2 2 2 2 2 2 2 2 2 2 2 2 2 2 2 2 2 2 2 2 2 2 2 2 2 2 2 2 2 2 2 2 2 2 2 2 32 2 2 32 32 32 32 32 32 2 2 2 2 32 32 32 2 32 32 101 32 2 2 32 32 32 32 101 101 101 101 101 101 101 32 32 32 32 32 101 32 32 32 32 32 32 32 101 32 32 2 2 2 32 101 101 101 32 101 101 32 32 32 2 32 32 32 32 32 2 2 32 2 2 32 32 32 32 101 32 2 2 2 2 2 2 2 2 2 2 2 2 2 2 2 2 2 2 2 2 2 2 2 2 2 2 2 2 2 2 2 2 2 2 2 2 2 2 2 2 2 2 2 2 2 2 2 2 2 2 2 2 2 2 2 2 2 2 2 2 2 2 2 2 2 2 2 2 2 2 2 2 2 2 2 2 2 2 2 2 2 2 2 2 2 2 2 2 2 2 2 2 2 2 2 2 2 32 32 32 32 32 32 32 32 32 32 32 32 32 2 2 2 2 2 2 2 2 2 2 2 2 2 2 2 2 2 2 2 2 2 2 2 2 2 2 32 2 2 2 2 2 2 2 2 2 2 2 2 2 2 2 2 2 2 32 32 2 2 2 32 32 2 2 2 2 32 32 32 32 32 32 32 32 32 2 2 2 2 2 2
2 2 2 2 2 2 2 2 2 2 2 2 2 2 2 2 2 2 2 2 2 2 2 2 2 2 2 2 2 2 2 2 2 2 2 2 2 2 2 2 32 2 32 32 2 32 32 32 2 2 2 2 32 32 32 2 32 101 101 101 2 2 32 32 32 32 101 101 101 101 101 101 101 32 101 32 32 32 101 32 32 32 32 32 32 101 32 32 32 32 32 32 32 101 101 101 32 101 101 32 32 32 2 32 32 32 32 32 32 2 32 32 32 32 32 32 101 32 32 2 32 2 2 2 2 2 2 2 2 2 2 2 2 2 2 2 2 2 2 2 2 2 2 2 2 2 2 2 2 2 2 2 2 2 2 2 2 2 2 2 2 2 2 2 2 2 2 2 2 2 2 2 2 2 2 2 2 2 2 2 2 2 2 2 2 2 2 2 2 2 2 2 2 2 2 2 2 2 2 2 2 2 2 2 2 2 2 2 2 2 2 2 2 2 2 2 32 32 32 32 32 32 32 32 32 32 32 32 32 32 2 2 2 2 2 2 2 2 2 2 2 2 2 2 2 2 2 2 2 2 2 2 2 2 2 32 2 2 2 2 2 2 2 2 2 2 2 2 2 2 2 2 2 2 2 32 32 2 2 2 32 2 2 32 32 32 32 2 2 2 32 32 32 32 32 2 2 2 2 2
2 2 2 2 2 2 2 2 2 2 2 2 2 2 2 2 2 2 2 2 2 2 2 2 2 2 2 2 2 2 2 2 2 2 2 2 2 2 2 2 32 32 32 32 2 2 32 32 2 2 2 2 2 32 32 32 32 101 101 32 2 32 32 32 32 32 101 101 101 101 101 101 32 101 101 101 2 2 2 32 32 32 32 32 32 32 101 32 32 32 32 32 32 101 101 101 101 32 101 32 32 32 2 32 32 32 32 32 2 2 2 2 32 32 101 101 32 2 2 2 2 2 2 2 2 2 2 2 2 32 32 32 32 2 2 2 2 2 2 2 2 2 2 2 2 2 2 2 2 2 2 2 2 2 2 2 2 2 2 2 2 2 2 2 2 2 2 2 2 2 2 2 2 2 2 2 2 2 2 2 2 2 2 2 2 2 2 2 2 2 2 2 2 32 32 2 2 2 2 2 2 2 2 2 2 2 2 2 2 2 2 2 2 2 2 2 2 2 32 32 32 32 32 32 32 32 32 32 32 32 32 2 2 2 2 2 2 2 2 2 2 2 2 2 2 2 2 2 2 2 2 2 2 2 32 32 2 2 2 2 2 2 2 2 2 2 2 2 2 2 2 2 2 2 2 32 32 32 32 32 32 32 32 32 32 32 32 32 2 2 2 32 32 32 2 2 2 2 2 2
2 2 2 2 2 2 2 2 2 2 2 2 2 2 2 2 2 2 2 2 2 2 2 2 2 32 32 32 2 2 2 2 2 2 2 2 2 2 2 2 32 32 32 32 2 2 2 2 2 2 2 2 2 2 2 32 101 101 101 32 2 32 32 101 101 101 101 101 101 101 101 101 32 101 101 101 2 2 2 32 32 32 2 2 32 32 32 32 32 32 32 32 101 101 101 101 32 32 101 32 32 32 32 32 32 32 32 32 2 2 2 2 32 101 101 32 32 2 2 2 2 2 2 2 2 2 2 2 2 32 101 101 101 32 2 2 2 2 2 2 2 2 32 2 2 2 2 2 2 2 2 2 2 2 2 2 2 2 32 2 2 2 2 2 2 2 32 32 2 2 2 2 2 2 2 2 2 2 2 2 2 2 2 2 2 2 2 2 2 2 2 2 2 32 32 2 2 2 2 2 2 2 2 2 2 2 2 2 2 2 2 2 2 2 2 2 2 2 2 2 2 2 32 32 32 32 32 32 2 2 2 2 2 2 2 2 2 2 2 2 2 2 2 2 2 2 2 2 2 2 2 2 2 2 32 2 2 2 2 2 2 2 2 2 2 2 2 2 2 2 2 2 2 2 32 32 32 32 32 32 32 32 32 2 2 32 101 101 32 2 2 2 2 2 2 2 2 2 2 2
2 2 2 2 2 2 2 2 2 2 2 2 2 2 2 2 2 2 2 2 2 2 2 2 32 32 32 32 2 2 2 2 2 2 2 2 2 2 2 2 2 2 2 32 32 2 2 2 2 2 2 2 2 2 32 32 101 101 32 32 32 32 32 101 101 101 101 101 101 101 101 101 101 101 101 101 32 32 32 32 32 32 2 2 2 32 32 2 2 32 32 101 101 101 101 101 32 32 101 101 32 32 32 32 32 32 32 32 32 2 2 2 32 32 101 32 2 2 2 2 2 2 32 2 2 2 2 2 2 32 32 101 32 32 2 2 2 2 2 2 2 2 32 32 2 2 2 2 2 2 2 2 2 2 2 2 2 2 32 32 2 2 2 2 2 2 32 32 2 2 2 2 2 2 2 2 2 2 2 2 2 2 2 2 2 32 2 2 2 2 2 2 2 32 32 32 2 2 32 2 2 2 2 2 2 2 2 2 2 2 2 2 2 2 2 2 2 2 2 2 32 32 32 32 32 32 32 32 2 32 32 32 32 32 2 2 2 2 2 2 2 2 2 2 2 2 2 2 2 2 2 2 2 2 2 2 2 2 2 2 2 2 2 2 2 2 2 2 2 2 2 2 2 2 32 32 32 32 2 2 2 32 32 2 2 2 32 101 32 32 2 2 2 2 2 2 2 2 2 2
2 2 2 2 2 2 2 2 2 2 2 2 2 2 2 2 2 2 2 2 2 2 2 32 32 32 32 2 2 2 2 2 2 2 2 32 32 32 32 2 2 2 2 2 2 32 2 2 32 32 32 32 32 32 32 32 101 101 32 32 32 32 32 32 101 101 101 101 101 101 101 101 101 101 101 101 32 32 101 32 32 32 2 2 2 2 32 32 2 32 32 101 101 101 101 101 32 32 101 101 32 32 32 32 32 32 32 32 32 32 2 2 32 32 101 32 2 2 2 32 2 2 32 2 2 2 2 2 2 32 32 32 32 32 32 2 2 2 2 2 2 2 2 2 2 2 2 2 2 2 2 2 2 2 2 2 2 2 2 32 2 2 2 2 2 2 2 2 2 2 2 2 2 2 2 2 2 2 2 2 2 2 2 2 2 32 2 2 2 2 2 2 2 32 32 32 2 2 2 2 2 2 2 2 2 2 2 2 2 2 2 2 2 2 2 2 2 2 2 2 2 32 32 32 32 2 32 32 32 32 32 32 32 32 2 2 2 2 2 2 2 2 2 2 2 2 2 2 2 2 2 2 2 2 2 2 2 2 2 2 2 2 2 2 2 2 2 2 2 2 2 2 2 32 32 32 32 32 2 2 2 32 32 2 2 2 32 101 101 32 2 2 2 2 2 2 2 2 2 2
2 2 2 2 2 2 2 2 2 2 2 2 2 2 2 2 2 2 2 2 2 2 2 32 32 2 2 2 2 2 2 2 2 32 32 32 32 2 32 2 2 32 32 32 2 32 32 32 32 32 32 32 32 32 32 32 101 101 101 32 32 32 32 32 32 101 101 101 101 101 101 101 101 101 101 101 32 2 32 32 2 2 2 2 2 2 32 2 2 2 2 101 101 101 101 101 101 101 101 101 32 32 32 32 32 32 32 32 32 32 32 2 2 32 32 32 2 2 32 32 2 32 32 2 2 2 2 2 32 32 32 32 32 2 2 2 32 2 2 2 2 2 32 32 2 2 2 2 2 2 2 2 2 2 2 2 2 2 2 2 32 2 2 32 32 2 2 2 2 2 2 2 2 2 2 2 2 2 2 2 2 2 2 2 2 2 2 2 2 2 2 2 2 32 32 2 32 2 2 2 2 2 2 2 2 2 2 2 2 2 2 2 2 2 2 2 2 2 2 2 2 2 32 2 2 2 32 32 32 32 32 32 32 2 2 2 2 2 2 2 2 2 2 2 2 2 2 2 2 2 2 2 2 2 2 2 2 2 2 2 2 2 2 2 2 2 2 2 2 2 2 2 2 2 2 2 2 2 2 2 2 2 32 32 2 32 2 101 101 32 32 2 2 2 2 2 2 2 2 2
2 2 2 2 2 2 2 2 2 2 2 2 2 2 2 2 2 2 2 2 2 2 2 2 2 2 2 2 2 32 2 2 2 2 32 32 2 2 32 32 2 2 32 32 2 2 32 32 2 2 2 32 32 32 32 101 101 101 32 32 32 32 101 32 101 101 101 101 101 101 101 101 101 101 101 101 32 32 32 32 2 2 2 2 2 2 32 32 2 2 32 32 32 32 32 101 101 101 101 101 32 32 32 32 32 32 32 32 2 32 32 2 2 2 32 32 32 32 32 32 32 32 32 32 32 2 2 32 32 32 32 2 2 2 2 2 2 2 2 2 2 2 32 32 32 32 2 2 2 2 2 2 2 2 2 2 2 2 2 2 32 32 2 32 2 2 2 2 2 2 2 2 2 2 2 2 2 2 2 2 2 2 2 2 2 2 2 2 2 2 2 2 2 2 2 2 2 2 2 2 2 2 2 2 2 2 2 2 2 2 2 2 2 2 2 2 2 2 2 2 2 2 2 2 2 2 2 2 32 2 2 2 2 2 2 2 2 2 2 2 2 2 2 2 2 2 2 2 2 2 2 2 2 2 2 2 2 2 2 2 2 2 2 2 2 2 2 2 2 2 2 2 2 2 2 2 2 2 2 2 2 2 2 32 32 2 2 32 32 2 32 2 32 32 2 2 2 2 2 2
2 2 2 2 2 2 2 2 2 2 2 2 2 32 32 2 2 2 2 2 2 2 2 2 2 2 2 2 32 32 32 32 2 2 2 32 2 2 32 32 32 2 2 2 2 2 32 32 32 2 2 32 32 101 101 101 32 32 32 32 32 32 101 32 101 101 101 101 101 101 101 101 101 101 101 101 32 2 32 32 2 2 2 2 2 2 32 2 2 2 32 2 2 2 32 32 101 101 101 101 32 32 32 32 32 32 32 32 32 32 32 2 2 2 32 32 32 101 32 32 32 32 32 32 2 2 2 32 32 2 2 2 2 2 2 2 2 2 2 2 2 2 2 32 32 32 2 2 2 2 2 2 2 2 2 2 2 32 32 2 2 2 2 2 2 2 2 2 2 2 2 2 2 2 2 2 2 2 2 2 2 2 2 2 2 2 2 2 2 2 2 2 2 2 2 2 2 2 2 2 2 2 2 2 2 2 2 2 2 2 2 2 2 2 2 2 2 2 2 2 2 2 2 2 2 2 2 2 2 2 2 2 2 2 2 2 2 2 2 2 2 2 2 2 2 2 2 2 2 2 2 2 2 2 2 2 2 2 2 2 2 2 2 2 2 2 2 2 2 2 2 2 2 2 2 2 2 2 2 2 2 32 32 2 32 32 32 32 32 32 32 2 32 32 32 2 2 2 2 2
2 2 2 2 2 2 2 2 2 2 2 32 32 2 2 2 2 2 2 2 2 2 2 2 2 2 2 2 2 32 32 32 32 32 32 32 32 2 2 32 32 32 32 2 2 2 32 2 32 32 2 2 32 32 101 101 32 101 101 32 32 32 101 101 32 101 101 101 101 101 101 101 101 101 101 101 32 2 32 32 2 2 32 32 2 2 32 32 32 32 2 2 2 2 2 32 101 101 101 101 101 32 32 32 32 32 32 32 32 2 32 32 32 2 32 32 32 101 101 32 2 32 32 2 2 2 2 32 32 2 2 2 2 2 2 2 2 2 2 2 2 2 2 2 2 32 2 2 2 2 2 2 2 2 2 2 32 32 32 2 2 2 2 2 2 2 2 2 2 2 2 2 2 2 2 2 2 2 2 2 2 2 2 2 2 2 2 2 2 2 2 2 2 2 2 2 2 2 2 2 2 2 2 2 2 2 2 2 2 2 2 2 2 2 2 2 2 2 2 2 2 2 2 2 2 2 2 2 2 2 2 2 2 2 2 2 2 2 2 2 2 2 2 2 2 2 2 2 2 2 2 2 2 2 2 2 2 2 2 2 2 2 2 2 2 2 2 2 2 2 2 2 2 2 2 2 2 2 2 2 2 32 32 32 32 32 32 32 32 32 32 32 32 32 32 32 2 2 2 2
2 2 2 2 32 32 2 2 2 32 32 101 32 2 2 2 2 32 32 32 32 32 2 2 2 2 2 2 2 2 2 2 32 32 32 32 32 2 2 32 32 32 32 32 2 2 2 2 2 32 32 32 32 32 101 101 32 101 101 32 32 32 32 101 101 101 101 101 101 101 101 101 101 101 101 101 101 32 32 32 32 32 32 32 32 32 32 32 32 2 2 2 2 2 2 32 101 101 101 101 32 32 32 32 32 32 32 32 32 2 2 32 32 2 32 32 101 101 32 32 2 2 2 2 2 2 2 2 2 2 32 32 32 2 2 2 2 2 2 2 2 2 2 2 2 2 2 2 2 2 2 2 2 2 2 2 2 32 2 2 2 2 2 2 2 2 2 2 2 2 2 2 2 2 2 2 2 2 2 2 2 2 2 2 2 2 2 2 2 2 2 2 2 2 2 2 2 2 2 2 2 2 2 2 2 2 2 2 2 2 2 2 2 2 2 2 2 2 2 2 2 2 2 2 2 2 2 2 2 2 2 2 2 2 2 2 2 2 2 2 2 2 2 2 2 2 2 2 2 2 2 2 2 2 2 2 2 2 2 2 2 2 2 2 2 2 2 2 2 2 2 2 2 2 2 2 2 2 2 32 2 2 32 32 32 32 32 2 2 2 32 32 32 32 32 32 2 2 2 2
2 32 101 32 32 32 32 2 32 32 101 32 32 2 32 32 101 101 101 101 32 101 2 2 2 2 2 2 32 2 2 2 32 32 32 32 2 2 2 2 2 2 2 2 2 2 2 2 32 32 2 32 101 101 101 101 101 101 32 32 32 32 32 32 101 101 101 32 32 101 101 32 101 101 101 101 32 32 32 32 2 32 32 32 32 32 32 32 32 32 32 2 2 2 2 32 32 32 32 2 32 32 32 32 32 32 32 32 32 32 2 32 32 32 2 32 101 101 101 101 32 2 2 2 2 2 32 2 2 32 32 32 32 2 2 2 2 2 2 2 2 2 2 2 2 2 2 2 2 2 2 2 2 2 2 2 2 2 2 2 2 2 2 2 2 2 2 2 2 2 2 2 2 2 2 2 2 2 2 2 2 2 2 2 2 2 2 2 2 2 2 2 2 2 2 2 2 2 2 2 2 2 2 2 2 2 2 2 2 2 2 2 2 2 2 2 2 2 2 2 2 2 2 2 2 2 2 2 2 2 2 2 2 2 2 2 2 2 2 2 2 2 2 2 2 2 2 2 2 2 2 2 2 2 2 2 2 2 2 2 2 2 2 2 2 2 2 2 2 2 2 2 2 2 2 2 2 2 32 32 32 2 2 32 32 101 101 32 32 2 2 32 32 32 32 32 2 2 2 2
32 32 32 32 32 32 2 32 32 2 32 32 32 32 32 101 101 101 101 101 101 101 101 32 2 2 32 2 2 2 2 2 32 32 32 2 2 2 2 2 2 2 2 2 2 2 2 2 32 32 32 32 32 101 101 101 101 32 32 32 32 32 32 32 101 101 101 101 101 101 101 32 32 101 101 32 32 32 32 32 32 32 32 2 32 32 32 2 2 32 2 2 2 2 2 32 32 2 2 2 2 32 32 32 32 32 32 32 32 32 32 101 32 32 32 32 101 101 101 101 101 2 2 2 2 2 32 32 32 32 32 32 32 2 2 2 2 2 2 2 2 2 2 2 2 2 2 2 2 2 2 2 2 2 2 2 2 2 2 2 2 2 2 2 2 2 2 2 2 2 2 2 2 2 2 2 2 2 2 2 2 2 2 2 2 2 2 2 2 2 2 2 2 2 2 2 2 2 2 2 2 2 2 2 2 2 2 2 2 2 2 2 2 2 2 2 2 2 2 2 2 2 2 2 2 2 2 2 2 2 2 2 2 2 2 2 2 2 2 2 2 2 2 2 2 2 2 2 2 2 2 2 2 2 2 2 2 2 2 2 2 2 2 2 2 2 2 2 2 2 2 2 2 2 2 2 2 2 2 2 32 2 2 32 32 101 32 101 32 32 32 101 32 32 32 32 2 2 2 2
2 32 32 32 32 32 32 2 2 2 32 32 32 32 32 32 32 101 101 101 101 101 101 32 32 32 32 2 2 2 2 2 2 2 2 2 2 2 2 2 32 32 2 2 2 2 2 2 2 2 32 32 32 32 101 101 101 32 32 32 32 32 32 32 32 32 101 101 101 101 101 2 2 2 2 2 2 32 32 32 32 32 32 32 32 32 32 2 2 2 2 2 2 2 2 32 32 2 2 2 2 2 32 32 32 32 32 32 32 32 32 101 101 101 101 101 101 101 101 101 101 2 2 2 32 2 32 32 32 32 101 32 32 2 2 2 2 32 2 32 32 2 2 2 2 2 2 2 2 2 2 2 2 2 2 2 2 2 2 2 2 2 2 2 2 2 2 2 2 2 2 2 2 2 2 2 2 2 2 2 2 2 2 2 2 2 2 2 2 2 2 2 2 2 2 32 32 2 2 2 2 2 2 2 2 2 2 2 2 2 2 2 2 2 2 2 2 2 2 2 2 2 2 2 2 2 2 2 2 2 2 2 2 2 2 2 2 2 2 2 2 2 2 2 2 2 2 2 2 2 2 2 2 2 2 2 2 2 2 2 2 2 2 2 2 2 2 2 2 2 2 2 2 2 2 2 2 2 2 2 32 2 32 32 32 32 32 32 32 32 101 101 101 32 32 32 2 2 2 2
32 32 101 32 32 32 32 32 32 32 2 2 32 32 32 2 32 101 101 101 101 101 101 101 101 32 32 32 2 2 32 32 2 2 2 2 32 32 2 2 32 32 32 32 2 2 2 2 2 2 32 101 101 32 101 101 101 101 32 101 32 32 32 32 32 101 101 101 101 101 101 2 2 2 2 2 2 32 32 32 2 2 2 2 2 2 32 2 2 2 2 2 2 2 2 32 32 2 2 2 2 2 32 32 32 32 32 32 32 32 32 101 101 101 101 101 101 101 101 101 101 101 32 2 32 2 32 32 2 32 32 32 2 2 2 2 2 2 32 32 2 2 2 2 2 2 2 2 2 2 2 2 2 2 2 2 2 2 2 2 2 2 2 2 2 2 2 2 2 2 2 2 2 2 2 2 2 2 2 2 2 2 2 2 2 2 2 2 2 2 2 2 2 2 32 32 32 2 2 2 2 2 2 2 2 2 2 2 2 2 2 2 2 2 2 2 2 2 2 2 2 2 2 2 2 2 2 2 2 2 2 2 2 2 2 2 2 2 2 2 2 2 2 2 2 2 2 2 2 32 32 2 2 2 2 2 2 2 2 2 2 2 2 2 2 2 2 2 2 2 2 2 2 2 2 2 2 2 32 32 32 32 32 32 32 32 32 32 32 101 101 101 101 32 32 32 2 2 32 32
32 32 32 32 32 32 32 32 32 32 2 2 32 32 32 32 32 101 101 32 101 101 101 101 32 32 32 32 32 32 32 32 2 2 32 32 32 32 32 2 2 32 2 32 32 32 32 2 2 2 2 101 101 101 101 101 101 101 32 32 32 32 32 32 32 101 101 101 101 101 101 2 2 2 2 2 2 32 32 32 2 2 2 2 2 2 32 2 2 2 2 2 2 2 2 2 32 2 2 2 2 32 32 32 32 32 32 32 32 32 32 32 32 32 32 101 101 101 101 101 101 101 32 32 32 32 2 2 2 2 2 2 2 2 2 2 2 2 32 2 2 2 2 2 2 2 2 2 2 2 2 2 2 2 2 2 2 2 2 2 2 2 2 2 2 2 2 2 2 2 2 2 2 32 2 2 2 2 2 2 2 2 2 2 2 2 2 2 2 2 2 2 2 2 32 32 32 2 2 2 2 2 32 2 32 2 2 2 2 2 2 2 2 2 2 2 2 2 2 2 2 2 2 2 2 2 2 2 2 2 2 2 2 2 2 2 2 2 2 2 2 2 2 2 2 2 2 2 2 2 2 32 2 2 2 2 2 2 2 2 2 2 2 2 2 2 2 2 2 2 2 2 2 2 2 2 2 2 32 32 32 32 32 2 32 32 32 32 32 101 101 101 101 32 32 32 32 32 32 32
2 32 32 32 32 32 32 32 32 32 2 2 2 32 32 32 32 32 32 32 32 32 101 32 32 32 32 32 32 32 32 32 32 32 32 2 2 2 2 2 2 2 32 32 32 32 32 2 2 2 2 101 32 101 101 32 32 32 32 32 2 2 2 32 32 101 101 101 101 101 101 2 2 2 2 32 32 32 32 32 2 2 2 2 2 2 32 32 32 32 2 2 2 2 2 2 32 2 2 2 2 32 32 32 32 32 2 2 2 2 2 32 101 101 101 101 101 101 101 101 32 2 2 2 32 32 2 2 2 2 2 2 2 2 2 32 2 2 2 2 2 2 2 2 2 2 2 2 2 2 2 2 2 2 2 2 2 2 2 2 2 2 2 2 2 2 2 2 2 2 2 2 2 2 2 2 2 2 2 2 2 2 2 2 2 2 2 2 2 2 2 2 2 2 32 32 32 2 2 2 2 2 32 32 32 32 2 2 2 2 2 2 2 2 2 2 2 2 2 2 2 2 2 2 2 2 2 2 2 2 2 2 2 2 2 2 2 2 2 2 2 2 2 2 2 2 2 2 2 2 2 32 2 2 2 2 2 2 2 2 2 2 2 2 2 2 2 2 2 2 2 2 2 2 2 2 2 2 2 32 32 32 2 2 2 2 32 32 32 32 101 101 32 32 32 32 32 32 32 32
32 32 101 32 32 32 32 32 2 32 32 2 2 2 32 2 32 32 101 101 32 32 32 32 32 32 32 32 32 32 32 32 32 32 32 32 32 32 32 32 32 32 32 32 2 32 32 32 32 32 32 32 32 32 32 32 32 32 32 32 2 2 2 32 101 101 101 101 101 101 101 2 2 2 2 32 2 32 32 32 2 2 2 2 2 2 32 2 32 32 2 2 2 2 2 2 32 2 2 2 2 2 2 2 2 2 2 2 2 2 2 32 101 101 101 101 101 101 101 101 2 2 2 2 2 32 2 2 2 2 2 2 2 2 2 32 2 2 2 2 2 2 2 2 2 2 2 2 2 2 2 2 2 2 2 2 2 2 2 2 2 2 2 2 2 2 2 2 2 2 2 2 2 2 2 2 2 2 2 2 2 2 2 2 2 2 2 2 2 2 2 2 2 2 2 2 2 2 2 2 2 2 32 32 32 32 32 2 2 2 2 2 2 2 2 2 2 2 2 2 2 2 2 2 2 2 2 2 2 2 2 2 2 2 2 2 2 2 2 2 2 2 2 2 2 2 2 2 2 2 2 2 2 2 2 2 2 2 2 2 2 2 2 2 2 2 2 2 2 2 2 2 2 2 2 2 2 2 2 32 32 32 2 32 2 32 32 32 101 32 32 101 101 32 32 32 32 32 32 32
32 32 32 32 32 2 2 32 2 2 2 2 2 2 2 2 32 32 101 101 32 101 101 32 32 32 32 32 32 32 32 32 32 32 32 32 32 32 32 2 32 32 32 2 2 2 2 32 32 32 32 32 32 32 32 101 32 32 32 32 32 32 2 32 32 32 101 101 101 101 101 2 2 2 2 2 32 32 32 32 2 2 2 2 2 2 32 2 2 2 2 2 2 2 2 2 32 2 2 2 2 2 2 32 2 2 2 2 2 2 32 32 101 101 32 101 101 101 101 101 2 2 2 32 32 2 2 2 2 2 2 2 2 2 32 32 2 2 2 2 2 2 2 2 2 2 2 2 2 2 2 2 2 2 2 2 2 2 2 2 2 2 2 2 2 2 2 2 32 2 2 2 2 2 32 32 2 2 2 2 2 2 2 2 2 2 2 2 2 2 2 2 2 2 2 2 2 2 2 2 2 2 2 32 32 2 32 32 32 32 2 2 2 2 2 2 2 2 2 2 2 2 2 2 2 2 2 2 2 2 2 2 2 2 2 2 2 2 2 2 2 2 2 2 2 2 2 2 2 2 2 2 2 2 2 2 2 2 2 2 2 2 2 2 2 2 2 2 2 2 2 2 2 2 2 2 2 2 2 32 32 2 2 32 2 32 32 101 101 101 101 101 101 101 32 2 32 32 32 32
32 32 32 32 32 2 2 2 2 2 2 2 2 2 2 2 2 32 101 101 101 32 101 32 32 32 32 32 32 32 2 32 32 32 32 32 32 32 32 2 2 2 2 2 2 2 2 2 32 32 32 101 32 32 101 101 101 32 32 32 32 32 32 32 32 32 101 101 101 101 101 2 2 2 2 2 2 32 32 2 2 2 2 2 2 2 32 2 2 2 2 2 2 2 2 2 32 2 2 2 2 2 2 2 2 2 2 2 2 32 32 32 32 32 2 101 101 101 101 32 2 2 2 32 32 32 32 2 2 2 2 2 2 2 32 32 2 2 2 2 2 2 2 2 2 2 2 2 2 2 2 2 2 2 2 2 2 2 2 2 2 2 2 2 2 2 2 2 32 2 2 2 2 32 32 32 32 32 32 32 2 2 2 2 2 2 2 2 2 2 2 2 2 2 2 2 2 2 2 2 2 2 2 2 2 2 2 32 32 32 32 2 2 2 2 2 2 2 2 2 2 2 2 2 2 2 2 2 2 2 2 2 2 2 2 2 2 2 2 2 2 2 2 2 2 2 2 2 2 2 2 2 2 2 2 2 2 2 2 2 2 2 2 2 2 2 2 2 2 2 2 2 2 2 2 2 2 2 2 32 2 2 2 32 2 32 32 32 101 32 101 101 101 32 32 2 2 2 32 32
32 101 32 2 2 2 2 2 2 2 2 2 2 2 2 2 2 32 101 32 101 101 101 32 32 32 32 32 2 2 2 2 2 2 2 32 32 32 2 2 2 2 2 2 2 2 32 32 32 32 32 101 101 32 32 101 101 32 32 32 32 32 32 32 32 32 101 101 101 101 101 2 2 2 2 2 32 32 32 2 2 2 2 2 2 2 32 2 2 2 32 2 2 2 2 2 32 2 2 32 32 32 32 32 2 2 2 32 32 32 32 32 32 32 2 101 101 101 2 2 2 2 2 2 32 2 32 2 2 2 2 2 2 2 2 2 2 2 2 2 2 2 2 2 2 2 2 2 2 2 2 2 2 2 2 2 2 2 2 2 2 2 2 2 2 2 2 2 2 2 2 2 2 2 32 32 32 32 32 32 32 2 2 2 2 2 2 2 2 2 2 2 2 2 2 2 2 2 2 2 2 2 2 2 2 2 2 32 32 32 2 2 2 2 2 2 2 2 2 2 2 2 2 2 2 2 2 2 2 2 2 2 2 2 2 2 2 2 2 2 2 2 2 2 2 2 2 2 2 2 2 2 2 2 2 2 2 2 2 2 2 2 2 2 2 2 2 2 2 2 2 2 2 2 2 2 2 2 2 2 2 2 2 2 2 2 32 32 32 101 101 101 32 32 2 2 2 2 2 2
32 32 32 2 2 2 2 2 2 2 2 2 2 2 2 2 2 2 32 101 101 32 101 101 32 32 32 2 2 2 2 2 2 2 2 2 2 2 2 2 2 2 2 2 2 2 32 32 2 2 2 32 101 101 101 101 32 32 32 32 32 32 32 32 32 32 101 101 101 101 2 2 2 2 2 2 32 32 101 101 101 32 32 32 32 2 32 2 2 2 2 2 2 2 2 2 32 32 32 32 32 32 32 32 2 2 2 32 32 32 32 32 32 32 2 101 101 101 2 2 2 2 2 2 2 2 2 2 2 2 2 2 2 2 2 2 2 2 2 2 2 2 2 2 2 2 2 2 2 2 2 2 2 2 2 2 2 2 2 2 2 2 2 2 2 2 2 2 2 2 2 2 2 2 32 32 32 32 32 32 32 2 2 2 2 2 2 2 2 2 2 2 2 2 2 2 2 2 2 2 2 2 2 2 2 2 2 32 32 32 2 2 2 2 2 32 2 2 2 2 2 2 2 2 2 2 2 2 2 2 2 2 2 2 2 2 2 2 2 2 2 2 2 2 2 2 2 2 2 2 2 2 2 2 2 2 2 2 2 2 2 2 2 2 2 2 2 2 2 2 2 2 2 2 2 2 2 2 2 2 2 32 2 2 2 2 32 32 32 32 101 32 32 32 32 2 2 32 32 2
32 32 2 32 2 2 2 2 2 2 2 2 2 2 2 2 2 2 32 32 32 32 101 101 101 101 101 32 32 32 32 2 2 2 2 2 2 2 2 2 2 2 2 2 2 32 101 101 32 101 32 32 32 101 101 32 32 32 32 32 32 32 32 32 32 32 101 101 101 101 2 2 2 2 2 32 32 32 101 101 101 101 101 101 101 101 32 2 2 2 2 2 2 2 2 2 32 32 32 101 101 101 101 32 2 2 2 2 32 32 32 32 32 32 2 32 101 32 32 2 2 2 2 2 2 2 2 32 2 2 2 2 2 2 2 2 2 2 2 2 2 2 2 2 2 2 2 2 2 2 2 2 2 2 2 2 2 2 2 2 2 2 2 2 2 2 2 2 2 2 2 2 2 2 2 2 2 32 32 32 32 2 2 2 2 2 2 2 2 2 2 2 2 2 2 2 2 2 2 2 2 2 2 2 2 2 32 32 32 2 2 2 2 2 2 2 2 2 2 2 2 2 2 2 2 2 2 2 2 2 2 2 2 2 2 2 2 2 2 2 2 2 2 2 2 2 32 2 2 2 2 2 2 2 2 2 2 2 2 2 2 2 2 2 2 2 2 2 2 2 2 2 2 2 2 2 2 2 2 2 2 2 2 2 2 2 2 2 2 32 32 32 32 32 32 32 32 32 32 32
32 2 2 32 2 2 2 2 2 2 2 32 2 2 2 2 2 2 32 32 32 32 32 32 32 101 101 32 32 32 32 101 32 32 2 2 2 2 2 2 2 2 2 2 2 2 32 32 32 101 101 32 32 32 101 101 32 32 32 32 32 32 32 32 32 32 101 101 101 101 2 2 2 2 2 32 32 32 101 101 101 101 101 101 101 101 101 32 32 2 2 2 2 2 2 2 32 101 101 101 101 101 101 32 2 2 2 2 2 2 2 2 32 32 2 2 2 2 2 2 2 2 2 2 2 2 2 32 32 2 2 2 2 2 2 2 2 2 2 2 2 2 2 2 2 2 2 2 2 2 2 2 2 2 2 2 2 2 2 2 2 2 2 2 2 2 2 2 2 2 2 2 2 2 2 2 2 2 2 2 32 32 2 2 2 2 2 2 2 2 2 2 2 2 2 2 2 2 2 2 2 2 2 2 2 101 101 32 32 2 2 2 2 2 2 2 2 2 2 2 2 2 2 2 2 2 2 2 2 2 2 2 2 2 2 2 2 2 2 2 2 2 2 2 2 2 32 2 2 2 2 2 2 2 2 32 2 2 2 2 2 2 2 2 2 2 2 2 2 2 2 2 2 2 2 2 2 2 2 2 2 2 2 2 2 2 2 2 2 32 32 32 32 32 2 2 32 32 32 32
32 32 2 2 2 2 2 2 2 2 2 32 2 2 2 2 2 32 32 32 2 32 32 32 32 32 32 32 32 32 32 32 32 32 32 32 2 2 2 2 2 2 2 2 2 32 32 32 32 32 32 32 32 32 32 32 32 32 32 32 32 32 32 32 32 32 32 101 101 101 101 2 2 2 2 2 2 32 101 101 101 101 101 101 101 101 101 32 32 32 32 32 32 2 2 2 32 32 32 32 32 32 32 32 2 32 32 2 2 2 2 2 32 32 2 2 2 2 2 2 2 2 2 2 2 2 2 2 2 2 2 2 2 2 2 2 2 2 2 2 2 2 2 2 2 2 2 2 2 2 2 2 2 2 2 2 2 2 2 32 2 2 2 2 2 2 2 2 2 2 2 2 2 2 2 2 2 2 2 2 2 32 32 32 32 32 32 32 32 32 32 2 2 2 2 2 2 2 2 2 2 2 32 32 101 101 101 32 32 32 32 32 2 2 2 2 2 2 2 2 2 2 2 2 2 2 2 2 2 2 2 2 2 2 2 2 2 2 2 2 2 2 2 2 2 2 2 2 2 2 2 2 2 2 2 32 32 2 2 2 2 2 2 2 2 2 2 2 2 2 2 2 2 2 2 2 2 2 2 2 2 2 2 2 2 2 32 2 2 2 2 32 32 32 32 32 32 32 2 32
32 32 2 2 2 2 2 2 2 2 2 2 2 2 2 2 2 32 32 2 2 32 32 32 32 32 32 32 32 32 32 32 32 32 32 32 32 2 2 2 2 2 2 2 2 32 32 32 2 32 32 32 32 32 101 32 32 32 32 32 32 32 32 32 32 32 32 101 101 101 2 2 2 2 2 2 32 32 2 101 32 32 32 32 32 32 32 32 32 32 32 32 2 2 2 2 32 32 2 2 2 2 2 2 2 2 2 2 2 2 2 2 32 32 2 2 2 2 2 2 2 2 2 2 2 2 2 2 2 2 2 2 2 2 2 2 2 2 2 2 2 2 2 2 2 2 2 2 2 2 2 2 2 2 2 2 2 2 2 32 2 2 2 2 2 2 2 2 2 2 2 2 2 2 2 2 2 2 2 2 2 2 2 32 32 32 32 32 32 32 32 32 32 32 32 32 32 32 32 32 32 32 101 101 101 101 32 32 32 2 2 2 2 2 2 2 2 2 2 2 2 2 2 2 2 2 2 2 2 2 2 2 2 2 2 2 2 2 2 2 2 2 2 2 2 2 2 2 2 2 2 2 2 2 2 32 2 2 2 2 2 2 2 2 2 2 2 2 2 2 2 2 2 2 2 2 2 2 2 2 2 2 2 2 2 2 2 2 2 2 32 32 32 2 2 32 32 32 32 32
32 32 32 2 2 2 2 2 2 2 2 2 2 2 2 2 2 32 2 2 2 32 32 32 32 32 32 2 2 2 32 32 32 32 32 32 32 32 32 32 32 32 32 32 32 32 32 2 2 2 32 32 32 32 32 32 32 2 32 32 32 32 32 32 32 32 32 101 101 101 2 2 2 2 2 2 2 2 2 32 32 32 32 32 32 32 32 32 32 2 2 32 32 32 32 32 32 32 2 2 2 2 2 2 2 2 2 2 2 2 2 2 32 32 2 2 2 2 2 2 2 2 2 2 2 2 2 2 2 2 2 2 2 2 2 2 2 2 2 2 2 2 2 2 2 2 2 2 2 2 2 2 2 2 2 2 2 2 2 32 32 2 2 2 2 2 2 2 2 2 2 2 2 2 2 2 2 2 2 2 2 2 2 2 32 32 32 32 32 32 32 32 32 2 2 32 32 101 101 101 101 101 101 101 101 32 2 2 2 32 32 2 2 2 2 2 2 2 2 2 2 2 2 2 2 2 2 2 2 2 2 2 2 2 2 2 2 2 2 2 2 2 2 2 2 2 2 2 2 2 2 2 2 2 2 2 2 2 2 2 2 2 2 2 2 2 2 2 2 2 2 2 2 2 2 2 2 2 2 2 2 2 2 2 2 2 2 2 32 2 32 32 2 2 2 2 32 32 32 32
32 32 101 2 2 2 2 2 2 2 2 2 2 2 2 2 2 2 2 2 2 2 2 2 32 32 2 2 2 2 2 32 32 32 32 32 2 2 32 32 32 32 32 32 32 2 2 2 2 2 32 32 32 32 32 32 2 2 2 32 32 32 32 32 32 32 101 101 101 101 2 2 2 2 2 2 32 32 2 2 2 32 32 32 32 32 32 32 32 2 2 2 32 32 2 2 32 32 2 2 2 2 2 2 2 32 2 2 2 2 2 2 32 32 2 2 2 2 2 2 2 2 2 2 2 2 2 2 2 2 32 2 2 2 2 2 2 2 2 2 2 2 2 2 2 2 2 2 2 2 2 2 2 2 2 2 2 2 2 32 32 32 2 2 2 2 2 2 2 2 2 2 2 2 2 2 2 2 2 2 2 2 2 2 2 32 32 32 32 32 32 32 2 2 2 32 32 32 101 101 101 101 32 32 2 2 2 2 2 32 32 32 2 2 32 2 2 2 2 2 2 2 2 2 2 2 2 2 2 2 2 2 2 2 2 2 2 2 2 2 2 2 2 2 2 2 2 2 2 2 2 2 2 2 2 2 2 2 2 2 2 2 2 2 2 2 2 2 2 2 2 2 2 2 2 2 2 2 2 2 2 2 2 2 2 2 2 2 2 2 2 32 2 2 2 2 2 32 32 32
32 32 32 2 2 2 2 2 2 2 2 2 2 2 2 2 2 2 2 2 2 2 2 2 2 2 2 2 2 2 2 2 2 2 2 2 32 2 32 32 2 2 2 2 2 2 2 2 2 2 32 32 32 32 2 2 2 2 2 32 32 32 32 32 32 101 101 101 101 2 2 2 2 2 2 2 32 2 2 2 2 32 32 32 32 32 32 32 32 2 2 2 2 32 2 2 32 32 2 2 2 2 2 2 2 32 2 2 2 2 2 2 32 32 2 2 2 2 2 2 2 2 2 2 2 2 2 2 2 2 32 32 2 2 2 2 2 2 2 2 2 2 2 2 2 2 2 2 2 2 2 2 2 2 2 2 2 2 2 32 32 32 2 2 2 2 2 2 2 2 2 2 2 2 2 2 2 2 2 2 2 2 2 2 2 2 2 2 32 32 32 2 2 2 2 2 2 2 101 101 32 101 2 2 2 2 2 2 2 2 32 101 32 32 32 32 2 2 2 2 2 2 2 2 2 2 2 2 2 2 2 2 2 2 2 2 2 2 2 2 2 2 2 2 2 2 2 2 2 2 2 2 2 2 2 2 2 2 2 2 2 2 2 2 2 2 2 2 2 2 2 2 2 2 2 2 2 2 2 2 2 2 2 2 2 2 2 2 2 2 2 2 2 2 2 2 2 32 32 32
32 32 2 2 2 2 2 2 2 2 2 2 2 2 2 2 2 2 2 2 2 2 2 2 2 2 2 2 2 2 2 2 2 2 2 2 2 32 2 2 2 2 2 2 2 2 2 2 2 32 32 32 32 32 32 2 2 2 2 2 2 32 101 32 32 101 101 101 101 2 2 2 2 2 2 32 32 2 2 2 2 2 32 32 32 32 32 32 32 2 2 2 2 32 2 2 32 32 2 2 2 2 2 2 2 2 2 2 2 2 2 2 2 32 2 2 2 2 2 2 2 2 2 2 2 2 2 2 2 2 32 2 2 2 2 2 2 2 2 2 2 2 2 2 2 2 2 2 2 2 2 2 2 2 2 2 2 2 2 2 2 2 2 2 2 2 2 2 2 2 2 2 2 2 2 2 2 2 2 2 2 2 2 32 32 32 2 32 2 32 2 2 2 2 2 2 2 2 32 32 2 2 2 2 2 2 32 32 32 32 32 32 32 32 32 32 32 32 2 2 2 2 2 2 2 2 2 2 2 2 2 2 2 2 2 2 2 2 2 2 2 2 2 2 2 2 2 2 2 2 2 2 2 2 2 2 2 2 2 2 2 2 2 2 2 2 2 2 2 2 2 2 2 2 2 2 2 2 2 2 2 2 2 2 2 2 2 2 2 2 2 2 2 2 2 2 2 32 32 2
32 2 2 2 2 2 2 2 2 2 2 2 2 2 2 2 2 2 2 2 2 2 2 2 2 2 2 2 2 2 2 2 2 2 2 32 32 32 32 2 2 2 2 2 32 2 2 2 32 32 32 32 32 32 32 2 2 2 2 2 2 32 101 101 101 101 101 101 101 32 32 2 2 2 2 32 32 2 2 2 2 32 32 32 32 32 32 32 32 2 2 2 2 32 2 2 32 32 2 2 2 2 2 2 2 2 2 2 2 2 2 2 2 32 2 2 2 2 2 2 2 2 2 2 2 2 2 2 2 2 2 2 2 2 2 2 2 2 2 2 2 2 2 2 2 2 2 2 2 2 2 2 2 2 2 2 2 2 2 2 2 2 32 2 2 2 2 2 2 2 2 2 2 2 2 2 2 2 2 2 2 2 32 32 32 32 2 2 2 2 2 2 2 2 2 2 2 32 2 2 2 2 2 2 32 32 32 2 2 32 32 32 32 32 32 32 32 32 32 32 2 2 2 2 2 2 2 2 2 2 2 2 2 2 2 2 2 2 2 2 2 2 2 2 2 2 2 2 2 2 2 2 2 2 2 2 2 2 2 2 2 2 2 2 2 2 2 2 2 2 2 2 2 2 2 2 2 2 2 2 2 2 2 2 2 2 2 2 2 2 2 2 2 32 2 2 2 32 32 32
32 2 2 2 2 2 2 2 2 2 2 2 2 2 2 32 32 2 32 2 2 2 2 2 2 2 2 2 2 2 2 2 2 32 32 32 32 32 32 32 2 2 2 2 2 2 32 32 32 32 32 32 32 32 32 32 2 2 2 2 2 2 32 101 101 101 101 101 101 32 32 32 32 32 32 2 2 2 2 2 2 32 32 32 32 32 32 32 32 2 2 2 2 32 2 2 32 32 2 2 32 32 32 32 32 2 2 2 2 2 2 2 32 32 32 2 32 2 2 2 2 2 2 2 2 2 2 2 2 2 2 2 2 2 2 2 2 2 2 2 2 2 2 2 2 2 2 2 2 2 2 2 2 2 2 2 2 2 2 2 2 2 32 32 2 2 2 2 2 2 2 2 2 2 2 2 2 2 2 2 2 2 2 2 32 32 2 2 2 2 2 2 2 2 2 2 2 2 2 2 2 2 2 2 32 2 2 2 2 32 32 32 101 101 32 32 32 32 32 32 32 2 2 2 2 2 2 2 2 2 2 2 2 2 2 2 2 2 2 2 2 2 2 2 2 2 2 2 2 2 2 2 2 2 2 2 2 2 2 2 2 2 2 2 2 2 2 2 2 2 2 2 2 2 2 2 2 2 2 2 2 2 2 2 2 2 2 2 2 2 2 32 32 32 32 32 2 2 32 32
2 2 2 2 2 2 2 2 2 2 2 2 2 2 2 32 2 2 2 32 2 2 2 2 2 2 2 2 2 2 2 2 2 2 32 32 32 32 32 32 32 2 2 2 2 2 2 2 32 32 32 32 32 32 32 2 2 2 2 2 2 2 32 101 101 101 101 101 32 2 2 2 32 32 32 2 2 2 2 2 2 32 32 32 101 32 32 32 2 2 2 2 2 32 32 2 32 32 32 32 32 32 32 32 32 2 2 2 2 32 32 32 101 101 32 32 32 32 2 2 2 2 2 2 2 2 2 2 2 32 32 32 32 2 2 2 2 2 2 2 2 2 2 2 2 2 2 2 2 2 2 2 2 2 2 2 32 32 32 2 2 2 32 32 2 2 2 2 2 2 2 2 2 2 2 2 2 2 2 2 2 2 2 2 2 2 2 2 2 2 2 2 2 2 2 2 2 2 2 2 2 2 2 2 2 2 2 2 2 32 32 32 101 101 101 32 32 32 32 32 32 2 2 2 2 2 2 2 2 2 2 2 2 2 2 2 2 2 2 2 2 2 2 2 2 2 2 2 2 2 2 2 2 2 2 2 2 2 2 2 2 2 2 2 2 2 2 2 2 2 2 2 2 2 2 2 2 2 2 2 2 2 2 2 2 2 2 2 2 2 2 2 32 32 2 2 2 2 32 32
2 2 2 2 2 2 2 2 2 2 2 2 2 2 2 2 2 2 2 2 2 2 2 2 2 2 2 2 2 2 2 2 2 2 32 32 32 32 32 32 32 2 2 32 2 2 2 2 2 2 2 32 32 2 2 2 2 2 2 2 2 32 101 101 101 101 101 101 2 2 2 2 2 32 32 2 2 2 2 2 32 32 32 101 101 101 32 32 32 2 2 2 32 32 32 2 32 32 32 32 2 2 2 2 2 2 2 2 2 32 32 32 32 32 32 32 2 2 2 2 2 2 2 2 2 2 2 2 32 32 32 32 32 32 2 2 2 2 2 2 2 2 2 2 2 2 2 2 2 2 2 2 2 2 32 32 32 32 32 32 2 2 32 32 2 2 2 2 2 2 2 2 2 2 2 2 2 2 2 2 2 2 2 2 2 2 2 2 2 2 2 2 2 2 2 2 2 2 2 32 2 2 2 2 2 2 2 2 2 32 32 32 32 32 32 101 101 32 32 32 32 2 2 32 2 2 2 2 2 2 2 2 2 2 2 2 2 2 2 2 2 2 2 2 2 2 2 2 2 2 2 2 2 2 2 2 2 2 2 2 2 2 2 2 2 2 2 2 2 2 2 2 2 2 2 2 2 2 2 2 2 2 2 2 2 2 2 2 2 2 2 32 2 32 32 2 2 2 2 32
2 2 2 2 2 2 2 2 2 2 2 2 2 2 2 2 2 2 2 2 2 2 2 2 2 2 2 32 32 2 2 2 2 2 2 2 32 32 32 32 32 32 32 2 2 2 2 2 2 2 2 2 2 2 2 2 2 2 2 2 2 101 101 101 101 101 101 101 2 2 2 2 2 2 2 2 2 2 2 2 32 32 32 101 101 101 101 32 32 2 2 2 32 101 32 2 32 32 2 2 2 2 2 2 32 32 2 2 2 2 32 32 32 32 32 2 2 2 2 2 2 2 2 2 2 2 2 2 2 32 32 32 32 32 2 2 2 2 2 2 2 2 2 2 2 2 2 2 2 2 2 2 32 32 32 32 32 32 32 2 2 2 2 2 32 32 2 2 2 2 2 2 2 2 2 2 2 2 2 2 2 2 2 2 2 2 2 2 2 2 2 2 2 2 2 2 2 2 32 32 2 2 2 2 2 2 2 2 2 32 32 32 32 32 32 32 32 32 32 32 32 32 32 32 2 2 2 2 2 2 2 2 2 2 2 2 2 2 2 2 2 2 2 2 2 2 2 2 2 2 2 2 2 2 2 2 2 2 2 2 2 2 2 2 2 2 2 2 2 2 2 2 2 2 2 2 2 2 2 2 2 2 2 2 2 2 2 2 2 2 2 2 2 2 32 32 32 2 2 2
32 2 2 2 2 2 2 2 2 2 2 2 2 2 2 2 2 2 2 2 2 2 2 2 2 32 2 32 2 2 2 2 2 2 2 2 2 2 2 32 32 32 32 2 2 2 2 2 2 2 2 2 2 2 2 2 2 2 2 2 2 32 101 101 101 32 101 101 2 2 2 2 2 2 2 2 2 2 2 2 2 32 32 32 101 101 101 101 32 2 2 2 2 101 32 2 32 32 32 32 2 2 2 2 32 32 2 2 2 32 101 32 32 32 2 2 2 2 2 2 2 32 32 2 2 2 2 2 2 2 2 32 32 32 2 2 2 2 2 2 2 2 2 2 2 2 2 2 2 2 2 2 2 32 32 32 32 32 32 2 2 2 32 32 32 32 2 2 2 2 2 2 2 2 2 2 2 2 2 2 2 2 2 2 2 2 2 2 2 2 2 2 2 2 2 2 2 2 32 32 2 2 2 2 2 2 2 2 32 32 32 32 32 32 32 32 32 2 2 32 32 2 2 32 32 2 2 2 2 2 2 2 2 2 2 2 2 2 2 2 2 2 2 2 2 2 2 2 2 2 2 2 2 2 2 2 2 2 2 2 2 2 2 2 2 2 2 2 2 2 2 2 2 2 2 2 2 2 2 2 2 2 2 2 2 2 2 2 2 2 2 2 2 2 2 32 32 2 2 2
32 2 2 2 2 2 2 2 2 2 2 2 2 2 2 2 2 2 2 2 2 2 2 2 2 2 2 2 2 2 2 2 2 2 2 2 2 2 2 2 2 32 32 2 2 2 2 2 2 2 2 2 2 2 2 2 2 2 2 2 2 2 2 32 32 32 32 32 32 2 2 2 2 2 2 2 2 2 2 2 2 2 2 32 32 101 101 101 32 2 2 2 2 32 2 2 32 32 2 2 2 2 2 32 32 32 2 2 32 101 101 101 32 32 2 2 2 2 2 2 2 2 32 32 32 32 2 2 2 2 2 32 32 32 2 2 2 2 2 2 2 2 2 2 2 2 2 2 2 2 2 2 2 32 32 32 32 32 32 2 2 2 2 32 2 2 2 2 2 2 2 2 2 2 2 2 2 2 2 2 2 2 2 2 2 2 2 2 2 2 2 2 2 2 2 32 32 32 32 2 2 32 2 2 2 2 2 2 2 2 2 32 2 32 32 32 2 2 2 2 2 2 2 2 2 32 32 32 32 32 32 2 2 2 2 2 2 2 2 2 2 2 2 2 2 2 2 2 2 2 2 2 2 2 2 2 2 2 2 2 2 2 2 2 2 2 2 2 2 2 2 2 2 2 2 2 2 2 2 2 2 2 2 2 2 2 2 2 2 2 2 2 2 2 2 2 32 32 32 32
2 2 2 2 2 2 2 2 2 2 2 2 2 2 2 2 2 2 2 2 2 2 2 2 2 2 2 2 2 2 2 2 2 2 2 2 2 2 2 2 2 2 32 2 2 2 2 2 2 2 2 2 2 2 2 2 2 2 2 2 2 2 2 32 32 32 32 32 32 2 2 2 2 32 2 2 2 2 2 2 2 2 2 2 32 32 101 101 32 32 2 2 2 2 2 2 32 32 2 2 2 2 2 32 32 32 32 101 101 101 101 101 101 101 32 2 2 2 2 2 2 2 32 32 2 2 2 2 2 2 2 32 32 2 2 2 2 2 2 2 2 2 2 2 2 2 2 2 2 2 2 2 2 2 2 2 32 32 2 2 2 2 2 2 2 2 2 2 2 2 2 2 2 2 2 2 2 2 2 2 2 2 2 2 2 2 2 2 2 2 2 2 2 2 2 32 32 32 2 2 2 2 2 2 2 2 2 2 2 2 2 32 32 32 2 2 2 32 32 32 32 32 32 32 32 32 32 32 32 32 32 32 2 2 2 2 2 2 2 2 2 2 2 2 2 2 2 2 2 2 2 2 2 2 2 2 2 2 2 2 2 2 2 2 2 2 2 2 2 2 2 2 2 2 2 2 2 2 2 2 2 2 2 2 2 2 2 2 2 2 2 2 2 2 2 2 2 32 32 32
2 2 2 2 2 2 2 2 2 2 2 2 2 2 2 2 2 2 2 2 2 2 2 2 2 2 2 2 2 2 2 2 2 2 2 2 2 2 2 2 2 2 32 2 2 2 2 2 2 2 2 2 2 2 2 2 2 2 2 2 2 2 2 32 32 32 32 32 32 32 2 2 32 32 32 2 2 2 2 2 2 2 2 2 2 32 101 101 32 32 2 2 2 2 2 2 32 32 32 32 32 32 32 32 32 101 32 101 101 101 101 101 101 101 32 2 2 2 2 2 2 2 32 32 2 2 2 32 2 2 2 32 2 2 2 2 2 2 2 2 32 2 2 2 2 2 2 2 2 2 2 2 2 2 2 2 2 2 2 2 2 2 2 2 2 2 2 2 2 2 2 2 2 2 2 2 2 2 2 2 2 2 2 2 2 2 2 2 2 2 2 2 2 2 2 32 32 32 32 32 2 2 2 2 2 2 2 2 2 2 2 32 32 2 2 2 32 32 32 32 2 2 32 32 32 101 32 32 32 32 32 32 32 2 2 2 2 2 2 2 2 2 2 2 2 2 2 2 2 2 2 2 2 2 2 2 2 2 2 2 2 2 2 2 2 2 2 2 2 2 2 2 2 2 2 2 2 2 2 2 2 2 2 2 2 2 2 2 2 2 2 2 2 2 2 2 2 2 2 2
2 2 2 2 2 2 2 2 2 2 2 2 2 2 2 2 2 2 2 2 2 2 2 2 2 2 2 2 2 2 2 2 2 2 2 2 2 2 2 2 2 2 32 2 2 2 2 2 2 2 2 2 2 2 2 2 2 2 2 2 2 2 2 2 32 32 101 32 32 32 2 2 32 32 32 2 2 2 2 2 2 2 2 2 2 32 101 32 32 32 32 2 2 2 2 2 32 32 32 32 32 32 32 2 2 32 32 32 32 32 32 101 101 101 32 2 2 2 2 2 2 2 32 32 2 2 2 2 2 2 2 2 32 2 2 2 2 2 2 2 2 2 2 2 2 2 2 2 2 2 2 2 2 2 2 2 2 32 2 32 32 2 2 2 2 2 32 2 2 2 2 2 2 2 2 2 2 2 2 2 2 2 2 2 2 2 2 2 2 2 2 2 2 2 2 32 32 32 32 32 32 2 2 2 2 2 2 2 2 2 32 32 2 2 2 2 32 32 32 32 32 2 2 32 32 101 101 101 101 101 32 32 2 2 2 2 2 32 32 2 2 2 2 2 2 2 2 2 2 2 2 2 2 2 2 2 2 2 2 2 2 2 2 2 2 2 2 2 2 2 2 2 2 2 2 2 2 2 2 2 2 2 2 2 2 2 2 2 2 2 2 2 2 2 2 2 2 2 2 2
2 2 2 2 2 2 2 2 2 2 2 2 2 2 2 2 2 2 2 2 2 2 2 2 2 2 2 2 2 2 2 2 2 2 2 2 2 2 2 2 2 32 32 2 2 2 2 2 2 2 2 2 2 2 2 2 2 2 2 2 2 2 2 2 32 101 101 32 101 32 32 2 2 2 2 2 2 2 2 2 2 2 2 2 2 32 101 101 32 2 32 32 2 2 32 2 32 32 2 2 2 2 2 2 2 32 32 32 32 32 32 101 101 32 32 2 2 2 2 2 2 32 32 32 2 2 2 2 2 2 2 32 32 32 2 2 2 2 2 2 2 2 2 2 2 2 2 2 2 2 2 2 2 2 2 2 2 2 32 32 32 2 32 32 32 2 32 2 2 2 2 2 2 2 2 2 2 2 2 2 2 2 2 2 2 2 2 2 2 2 2 2 2 2 32 2 2 32 101 32 32 2 2 2 2 2 2 2 2 32 32 32 2 2 2 2 2 32 32 32 32 2 2 32 101 101 101 101 101 101 101 101 32 32 2 2 2 2 32 32 32 2 2 2 2 2 2 2 2 2 2 2 2 2 2 2 2 2 2 2 2 2 2 2 2 2 2 2 2 2 2 2 2 2 2 2 2 2 2 2 2 2 2 2 2 2 2 2 2 2 2 2 2 2 2 2 2 2 2 2
2 2 2 2 2 2 2 2 2 2 2 2 2 2 2 2 2 2 2 2 2 2 2 2 2 2 2 2 2 2 2 2 2 2 2 2 2 2 32 101 32 32 2 2 2 2 2 32 32 2 32 2 2 2 2 2 2 2 2 2 2 2 2 2 2 32 32 32 101 101 32 2 32 32 32 32 2 2 2 2 32 32 2 2 32 32 101 101 32 32 32 32 32 2 32 32 32 32 2 2 2 2 2 2 32 32 32 2 2 32 32 32 32 2 32 2 2 2 2 2 2 32 32 2 2 2 2 2 2 2 32 32 32 32 2 2 2 2 2 2 2 2 2 2 2 2 2 2 2 2 2 2 2 2 2 2 2 2 2 32 32 2 2 2 2 2 32 2 2 2 2 2 2 2 2 2 2 2 2 2 2 2 2 2 2 2 2 2 2 2 2 2 2 32 32 2 2 32 32 32 32 2 2 2 2 2 2 2 2 32 32 2 2 2 32 2 2 2 2 32 2 2 2 2 32 101 32 32 101 101 101 101 32 32 32 32 2 2 2 2 2 2 2 2 2 2 2 2 2 2 2 2 2 2 2 2 2 2 2 2 2 2 2 2 2 2 2 2 2 2 2 2 2 2 2 2 2 2 2 2 2 2 2 2 2 2 2 2 2 2 2 2 2 2 2 2 2 2 2 2
2 2 2 2 2 2 2 2 2 2 2 2 2 2 2 2 2 2 2 2 2 2 2 2 2 2 2 2 2 2 2 2 2 2 2 2 2 2 101 101 32 32 2 2 2 2 2 101 101 32 2 2 2 2 2 2 32 2 2 2 2 2 2 2 2 32 32 101 101 101 32 32 32 32 32 32 2 2 2 32 32 32 32 32 32 32 101 101 101 32 32 32 32 32 2 32 32 32 2 2 2 2 32 32 32 32 2 2 2 32 32 32 32 32 32 2 2 2 2 2 2 2 2 2 2 2 2 32 32 32 32 32 32 32 2 2 2 2 2 2 2 2 2 2 2 2 2 2 2 2 2 2 2 2 2 2 2 2 2 32 32 2 2 2 2 2 2 2 2 2 2 2 2 2 2 2 2 2 2 2 2 2 2 2 2 2 2 2 2 2 2 2 2 2 32 32 2 2 32 32 32 2 2 2 2 2 2 2 32 32 2 2 2 2 32 32 2 2 2 2 2 2 2 2 2 2 2 32 101 101 101 101 101 32 32 32 2 2 2 2 2 2 2 32 32 2 2 2 2 2 2 2 2 2 2 2 2 2 2 2 2 2 2 2 2 2 2 2 2 2 2 2 2 2 2 2 2 2 2 2 2 2 2 2 2 2 2 2 2 2 2 2 2 2 2 2 2 2 2 2
2 2 2 2 2 2 2 2 2 2 2 2 2 2 2 2 2 2 2 2 2 2 2 32 2 2 2 2 2 2 2 2 2 2 2 2 2 2 32 32 2 2 2 2 2 2 2 101 101 101 32 32 32 32 32 32 32 32 2 2 2 2 2 2 32 32 101 101 101 101 32 32 32 32 32 2 2 2 2 32 32 32 32 32 32 32 101 101 32 32 32 32 32 32 32 32 32 32 2 2 2 2 2 2 2 32 32 2 2 2 2 2 2 2 2 2 2 2 2 2 2 2 2 2 2 2 2 2 32 32 32 2 2 2 2 2 2 2 2 2 2 2 2 2 2 2 2 2 2 2 2 2 2 2 2 2 2 2 2 2 2 2 2 2 2 2 2 2 2 2 2 2 2 2 2 2 2 2 2 2 2 2 2 2 2 2 2 2 2 2 2 2 2 2 2 2 2 2 32 32 32 32 2 32 2 2 2 2 32 32 2 2 2 2 32 32 32 2 2 2 2 2 2 2 2 2 2 32 101 101 101 101 101 32 2 2 2 2 2 2 2 2 2 2 32 32 2 2 2 2 2 2 2 2 2 2 2 2 2 2 2 2 2 2 2 2 2 2 2 2 2 2 2 2 2 2 2 2 2 2 2 2 2 2 2 2 2 2 2 2 2 2 2 2 2 2 2 2 2 2
32 2 2 2 2 2 2 2 2 2 2 2 2 2 2 2 2 2 2 2 2 2 2 2 2 2 2 2 2 2 2 2 2 2 2 2 2 2 2 2 2 2 2 2 2 2 2 32 101 2 2 2 2 32 32 32 32 32 2 2 2 2 2 32 101 101 101 101 101 101 101 101 101 32 2 2 2 2 2 32 32 32 32 32 2 32 101 101 32 32 32 32 32 32 32 32 32 32 2 2 2 2 2 2 32 32 32 2 2 2 2 2 2 2 2 2 2 2 2 2 2 2 2 2 2 2 32 2 32 32 32 2 2 2 2 2 2 2 2 2 2 2 2 2 2 2 2 2 2 2 2 2 2 2 2 2 2 2 2 2 2 2 2 2 2 2 2 2 2 2 2 2 2 2 2 2 2 2 2 2 32 2 2 2 2 2 2 2 2 2 2 2 2 2 2 2 2 2 2 32 32 32 32 32 2 2 2 2 32 32 2 2 2 2 2 32 32 32 32 32 2 2 2 2 2 2 32 32 32 32 32 101 32 32 32 2 2 2 2 2 2 2 2 2 2 2 32 32 2 2 2 2 2 2 2 2 2 2 2 2 2 2 2 2 2 2 2 2 2 2 2 2 2 2 2 2 2 2 2 2 2 2 2 2 2 2 2 2 2 2 2 2 2 2 2 2 2 2 2 2
32 2 2 2 2 2 2 2 2 2 2 2 2 2 2 2 2 2 2 2 2 2 2 2 2 2 2 2 2 2 2 2 2 2 2 2 2 2 2 2 2 32 2 2 2 2 2 2 2 32 32 2 2 2 2 32 32 32 2 2 2 2 2 101 101 101 101 101 101 101 101 101 101 101 32 2 2 2 2 2 2 32 32 32 32 2 32 32 32 32 32 32 32 32 32 32 32 32 32 32 32 32 32 32 32 32 32 2 2 2 2 2 2 2 2 2 2 2 2 2 2 2 2 2 2 2 2 2 2 2 32 2 2 2 2 2 2 2 2 2 2 2 2 2 2 2 2 2 2 2 2 2 2 2 2 2 2 2 2 2 2 2 2 2 2 2 2 2 2 2 2 2 2 2 2 2 2 2 2 2 2 2 2 2 2 2 2 2 2 2 2 2 2 2 2 2 2 2 2 2 32 32 32 32 2 2 2 2 32 32 2 2 2 2 2 2 2 32 32 32 32 2 2 2 2 2 2 2 2 2 32 32 32 32 101 32 2 2 2 2 2 2 2 2 2 2 2 32 2 2 2 2 2 2 2 2 2 2 2 2 2 2 2 2 2 2 2 2 2 2 2 2 2 2 2 2 2 2 2 2 2 2 2 2 2 2 2 2 2 2 2 2 2 2 2 2 2 2 2 2
2 2 2 2 2 2 2 2 2 2 2 2 2 2 2 2 2 2 2 2 2 2 2 2 2 2 2 2 2 2 2 2 2 2 2 2 2 2 2 2 2 2 32 2 2 2 2 2 2 32 32 2 2 2 2 2 32 32 32 2 2 2 32 101 101 101 101 101 101 101 101 101 101 101 32 2 2 2 32 32 2 2 2 2 2 2 32 32 32 32 32 32 32 32 32 32 32 32 32 32 32 32 32 32 32 32 32 2 2 2 2 2 2 2 2 2 2 2 2 2 2 2 2 2 2 2 2 2 2 2 2 2 2 2 2 2 2 2 2 2 2 2 2 2 2 2 2 2 2 2 2 2 2 2 2 2 2 2 2 2 2 2 2 2 2 2 2 2 2 2 2 2 2 2 2 2 2 2 2 2 2 2 2 2 2 2 2 2 2 2 2 2 2 2 2 2 2 2 2 2 32 101 32 2 2 2 2 2 32 32 2 2 2 32 2 2 2 2 2 2 2 2 2 2 2 2 2 2 2 2 2 32 32 32 32 2 2 2 2 2 2 2 2 2 2 2 2 2 2 2 2 2 2 2 2 2 2 2 2 2 2 2 2 2 2 2 2 2 2 2 2 2 2 2 2 2 2 2 2 2 2 2 2 2 2 2 2 2 2 2 2 2 2 2 2 2 2 2 2 2
2 2 2 2 2 2 2 2 2 2 2 2 2 2 2 2 2 2 2 2 2 2 2 2 2 2 2 2 2 2 2 2 2 2 2 2 2 2 2 2 2 2 2 2 2 2 2 2 2 2 2 2 2 32 2 2 2 2 2 2 2 2 32 101 101 101 101 101 101 101 101 101 101 101 101 32 2 2 2 32 32 2 2 2 32 32 32 32 32 32 32 32 32 32 32 32 32 32 32 32 32 32 32 32 32 32 32 32 32 2 2 2 2 2 2 2 2 2 2 2 2 2 2 2 2 2 2 2 2 2 2 2 2 2 2 2 2 2 2 2 2 2 2 2 2 2 2 2 2 2 2 2 2 2 2 2 2 2 2 2 2 2 2 2 2 2 2 2 2 2 2 2 2 2 2 2 2 2 2 2 2 2 2 2 2 2 2 2 2 2 2 2 2 2 2 2 2 2 2 2 32 32 2 2 2 2 2 2 32 32 2 2 32 32 2 2 2 2 2 2 2 2 2 2 2 2 2 2 2 2 2 32 2 2 2 2 2 2 2 2 2 2 2 2 2 2 2 2 2 2 2 2 2 2 2 2 2 2 2 2 2 2 2 2 2 2 2 2 2 2 2 2 2 2 2 2 2 2 2 2 2 2 2 2 2 2 2 2 2 2 2 2 2 2 2 2 2 2 2 2
2 2 2 2 2 2 2 2 2 2 2 2 2 2 2 2 2 2 2 2 2 2 2 2 2 2 2 2 2 2 2 32 2 2 2 2 2 2 2 2 2 2 2 2 2 2 2 2 2 2 2 2 2 32 2 2 2 2 2 2 32 32 32 101 101 101 101 101 101 101 101 101 101 101 101 101 32 2 2 2 32 2 2 2 32 32 32 32 32 32 32 32 32 32 32 32 32 32 32 32 32 32 32 32 32 32 32 101 101 2 2 2 2 2 2 2 2 2 2 2 2 2 2 2 2 2 2 2 2 2 2 2 2 2 2 2 2 2 2 2 2 2 2 2 2 2 2 2 2 2 2 2 2 2 2 2 2 32 2 2 2 2 2 2 2 2 2 2 2 2 2 2 2 2 2 2 2 2 2 2 2 2 2 2 2 2 2 2 2 2 2 2 2 2 2 2 2 2 2 2 2 2 2 2 2 2 2 2 32 32 2 2 32 32 2 2 2 2 2 2 2 2 2 2 2 2 2 2 2 2 2 2 2 2 2 2 2 2 32 2 2 2 2 2 2 2 2 2 2 2 2 2 2 2 2 2 2 2 2 2 2 2 2 2 2 2 2 2 2 2 2 2 2 2 2 2 2 2 2 2 2 2 2 2 2 2 2 2 2 2 2 2 2 32 32 2 2 2 2 2
2 2 2 2 2 2 2 2 2 2 2 2 2 2 2 2 2 2 2 2 2 2 2 2 2 2 2 2 2 2 2 32 2 2 2 2 2 2 2 2 2 2 32 2 2 2 2 2 2 2 2 2 32 32 2 32 2 2 2 2 2 32 32 101 101 101 101 101 101 101 101 101 101 101 101 101 32 2 32 32 32 2 2 2 32 32 32 101 101 101 32 32 32 32 32 32 32 32 101 101 101 101 101 32 101 101 101 101 101 2 2 2 2 2 32 32 32 32 2 2 2 2 2 2 2 2 2 2 2 2 2 2 2 2 2 2 2 2 2 2 2 2 2 2 2 2 2 2 2 2 2 2 2 2 2 2 2 32 32 32 32 2 2 2 2 2 2 2 2 2 2 2 2 2 2 2 2 2 2 2 2 2 2 2 2 2 2 2 32 32 2 2 2 2 2 2 2 2 2 2 2 2 2 2 2 2 2 2 32 32 2 2 2 2 2 2 2 2 2 2 2 2 2 2 2 2 2 2 2 2 2 2 2 2 2 2 32 2 32 32 2 2 2 2 2 2 2 2 2 2 2 2 2 2 2 2 2 2 2 2 2 2 2 2 2 2 2 2 2 2 2 2 2 2 2 2 2 2 2 2 2 2 2 2 2 2 2 2 2 2 2 2 2 32 32 2 2 2 2 2
2 2 2 2 2 2 2 2 2 2 2 2 2 2 2 2 2 2 2 2 2 2 2 2 2 2 2 2 2 2 2 32 32 2 2 2 2 2 2 2 2 2 2 32 2 2 32 2 2 2 2 2 2 2 2 32 2 2 32 32 32 32 32 32 101 101 101 101 101 101 101 101 101 101 101 101 101 32 2 32 32 32 32 2 2 32 32 101 101 32 32 32 32 32 32 32 32 32 101 101 101 101 101 101 101 101 101 32 32 32 32 32 32 2 32 32 32 2 2 2 2 2 2 2 2 2 2 2 2 2 2 2 2 2 2 2 2 2 2 2 2 2 2 2 2 2 2 2 2 2 2 2 2 2 2 2 2 2 32 32 2 2 2 2 2 2 2 2 2 2 2 2 2 2 2 2 32 2 2 2 2 2 2 2 2 2 2 32 32 32 2 2 2 2 2 2 2 2 2 2 2 2 2 2 2 2 2 2 32 32 32 2 2 2 2 2 2 2 2 2 2 2 2 2 2 2 2 2 2 2 2 2 2 2 2 2 2 2 2 2 2 2 2 2 2 2 2 2 2 2 2 2 2 2 32 2 2 2 2 2 2 2 2 2 2 2 2 2 2 2 2 2 2 2 2 2 2 2 2 2 2 2 2 2 2 2 2 2 2 2 2 2 2 2 2 2 2 2 2 2
2 2 2 2 2 2 2 2 2 2 2 2 2 2 2 2 2 2 2 2 2 2 2 2 2 2 2 2 2 2 32 32 2 2 2 2 2 2 2 2 2 2 2 32 2 32 32 2 2 2 2 2 2 2 2 32 32 2 32 32 32 32 32 32 101 101 101 101 101 101 101 101 101 101 101 101 101 101 32 32 32 32 32 32 32 32 32 32 32 101 32 32 32 32 32 32 32 32 101 101 101 101 101 101 101 101 32 2 2 2 2 2 2 2 32 32 2 2 2 2 2 32 2 2 2 2 2 2 2 2 2 2 2 2 2 2 2 2 2 2 2 2 2 2 2 2 2 2 2 2 2 2 2 2 2 2 2 2 32 32 2 2 2 2 2 2 2 2 2 2 2 2 2 2 2 2 2 2 2 2 2 2 2 2 2 2 2 32 32 2 2 2 2 2 2 2 2 2 2 2 2 2 2 2 2 2 2 2 2 32 32 2 2 2 2 2 2 2 2 2 2 2 2 2 2 2 2 2 2 2 2 2 2 2 2 2 2 2 2 2 2 2 2 2 2 2 2 2 2 2 2 2 2 2 32 32 32 2 2 2 2 2 2 2 2 2 2 2 2 2 2 2 2 2 2 2 2 2 2 2 2 2 2 2 2 2 2 2 2 2 2 2 2 2 2 2 2 2 2 32
2 2 2 2 2 2 2 2 2 2 2 2 2 2 32 32 32 32 2 2 2 2 2 2 2 2 2 2 2 32 32 2 2 2 2 2 2 2 2 2 2 2 2 32 32 32 32 2 2 2 2 2 2 2 2 2 32 32 32 32 32 32 2 101 101 101 101 101 101 101 101 101 101 101 101 101 101 101 101 32 32 32 32 32 32 32 32 32 101 101 32 32 32 32 32 32 32 32 101 101 101 101 32 32 32 32 32 32 2 2 2 2 2 2 32 32 2 2 2 2 2 32 2 2 2 2 2 2 2 2 2 2 2 2 2 2 2 2 2 2 2 2 2 2 2 2 2 2 2 2 2 2 2 2 2 2 2 2 2 2 2 2 2 2 2 2 2 2 2 2 2 2 2 2 2 2 2 2 2 2 2 2 2 2 2 2 2 2 2 2 2 2 2 2 2 2 2 2 2 2 2 2 2 2 2 32 32 32 2 32 32 2 2 2 2 2 2 2 2 2 2 2 2 2 2 2 2 2 2 2 2 2 2 2 2 2 2 2 2 32 32 2 2 2 2 2 2 2 2 2 2 2 32 32 32 32 32 32 2 2 2 2 2 2 2 2 2 2 2 2 2 2 2 2 2 2 2 2 2 2 2 2 2 2 2 2 2 2 2 2 2 2 2 2 2 2 2 2 2 32
2 2 32 2 2 2 2 2 2 2 2 2 2 2 32 32 32 32 2 2 2 2 2 2 2 2 2 2 2 2 2 2 2 2 2 2 2 2 2 2 2 2 2 2 32 32 2 2 2 2 2 2 2 2 2 2 2 32 32 2 2 2 32 101 101 101 101 101 101 101 101 101 101 101 101 101 101 101 101 101 32 32 32 32 32 32 32 32 32 101 32 32 32 32 32 32 32 32 32 101 101 32 2 2 2 32 32 32 2 2 2 2 2 2 2 32 2 2 2 2 2 2 2 2 2 2 2 2 2 2 2 2 2 2 2 2 2 2 2 2 2 2 2 2 2 2 2 2 2 2 2 2 2 2 2 2 2 2 2 2 2 2 2 2 2 2 2 2 2 2 2 2 2 2 2 2 2 2 2 2 2 2 2 2 2 2 2 2 2 2 2 2 2 2 2 2 2 2 2 2 2 2 2 2 2 2 2 2 32 32 32 2 2 2 2 2 2 2 2 2 2 2 2 2 2 2 2 2 2 2 2 2 2 2 2 2 2 2 2 2 32 2 2 2 2 2 2 2 2 2 2 32 32 32 32 32 32 32 2 2 2 2 2 2 2 2 2 2 2 2 2 2 2 2 2 2 2 2 2 2 2 2 2 2 2 2 2 2 2 2 2 2 2 2 2 2 32 2 2 2
2 2 2 2 2 2 2 2 2 2 2 2 2 2 32 32 32 2 2 2 2 2 2 2 2 2 2 2 2 2 2 2 2 2 2 2 2 2 2 2 2 32 32 2 2 2 2 2 2 2 32 2 2 2 2 2 32 32 32 32 32 2 32 101 101 101 101 101 101 101 101 101 101 101 101 101 101 101 101 101 32 32 32 32 32 2 2 2 32 32 32 32 32 32 32 32 32 32 32 32 32 32 2 2 2 2 32 2 2 2 2 2 2 2 2 2 2 2 2 2 2 2 2 2 2 2 2 2 2 2 2 2 2 2 2 2 2 2 2 2 2 2 2 2 2 2 2 2 2 2 2 2 2 2 2 2 2 2 2 2 2 2 2 2 2 2 2 2 2 2 2 2 2 2 2 2 2 2 2 2 2 2 2 2 2 2 2 2 2 2 2 2 2 2 2 2 2 2 2 2 2 32 2 2 2 2 2 2 2 32 32 2 2 2 2 2 2 2 2 2 2 2 2 2 2 2 2 2 2 2 2 2 2 2 2 2 2 2 2 2 32 32 32 2 2 2 2 2 2 2 2 2 32 32 32 32 32 2 2 2 2 2 2 2 2 2 2 2 2 2 2 2 2 2 2 2 2 2 2 2 2 2 2 2 2 2 2 2 2 2 2 2 2 2 2 101 32 2 2 2
2 2 2 2 2 2 2 2 2 2 2 2 2 2 2 32 32 2 2 32 2 2 2 2 2 2 2 2 2 2 2 2 2 2 2 2 2 2 2 2 2 2 2 2 2 2 2 2 2 2 2 2 2 2 2 2 32 32 32 32 32 2 32 101 101 101 101 101 101 101 101 32 101 101 101 101 101 101 101 32 32 32 32 32 32 32 32 32 32 32 32 32 32 32 32 32 101 101 32 32 2 32 2 2 2 32 32 2 2 2 2 2 2 2 2 2 2 32 2 2 2 2 2 2 2 2 2 2 2 2 2 2 2 2 2 2 2 2 2 2 2 2 2 2 2 2 2 2 2 2 2 2 2 2 2 2 2 2 2 2 2 2 2 2 2 2 2 2 2 2 2 2 2 2 2 2 2 2 2 2 2 2 2 2 2 2 2 2 2 2 2 2 2 2 2 2 2 2 2 2 32 32 2 2 2 2 2 2 2 2 32 2 2 2 2 2 2 2 2 2 2 2 2 2 2 2 2 2 2 2 2 2 2 2 2 2 2 2 2 2 2 2 32 32 2 2 2 2 2 2 2 2 2 32 32 32 2 2 2 32 2 2 2 32 32 32 2 2 2 2 2 2 2 2 2 2 2 2 2 2 2 2 2 2 2 2 2 2 2 2 2 2 2 2 2 101 32 2 2 2
2 2 2 2 2 2 2 2 2 2 2 2 2 2 2 2 2 2 2 2 2 2 2 2 2 2 2 2 2 2 2 2 2 2 2 2 2 2 2 2 2 2 2 2 2 2 2 2 2 2 2 2 2 2 2 2 32 32 2 2 32 2 2 101 101 101 101 101 101 101 101 32 101 101 101 101 101 101 101 32 32 32 32 32 32 32 32 32 32 32 32 32 32 32 32 32 101 101 32 32 2 32 32 2 32 32 32 2 2 2 2 2 2 2 2 2 2 32 32 2 2 2 2 2 2 2 2 2 2 2 2 2 2 2 2 2 2 2 2 2 2 2 2 2 2 2 2 2 2 2 2 2 2 2 2 2 2 2 2 2 2 2 2 2 2 2 2 2 2 2 2 2 2 2 2 2 2 2 2 2 32 2 2 2 2 2 2 2 2 2 2 2 2 2 2 2 32 32 32 32 2 2 2 2 2 2 2 2 2 2 32 2 2 2 2 2 2 2 2 2 2 2 2 2 2 2 2 2 2 2 2 2 2 2 2 2 2 2 2 2 2 2 32 32 2 2 2 2 2 2 2 2 2 2 2 2 2 2 32 32 2 2 2 2 32 32 32 2 2 2 2 2 2 2 2 2 2 2 2 2 2 2 2 2 2 2 2 2 2 2 2 2 2 2 2 32 2 2 2 2
2 2 2 2 2 2 2 2 2 2 2 2 2 2 2 2 2 2 2 2 2 2 2 2 2 2 2 2 2 2 2 2 2 2 2 2 2 2 2 2 2 2 2 2 2 2 32 2 2 2 2 2 2 2 2 2 2 2 2 2 2 2 2 2 101 32 101 101 101 101 101 32 101 101 101 101 101 101 101 32 32 32 32 32 32 32 32 32 32 32 32 32 32 32 32 32 32 101 32 32 2 32 32 2 32 32 32 2 2 2 2 2 2 2 2 2 2 2 32 32 2 2 2 2 2 2 2 2 2 2 2 2 2 2 2 2 2 2 2 2 2 2 2 2 2 2 2 2 2 2 2 2 2 2 2 2 2 2 2 2 2 2 2 2 2 2 2 2 2 2 2 2 2 2 2 2 2 2 2 32 32 2 2 2 2 2 2 2 2 2 2 2 2 2 2 32 32 32 2 2 2 2 2 2 2 2 2 2 2 2 32 2 2 2 2 2 2 2 2 2 2 2 2 2 2 2 2 2 2 2 2 2 2 2 2 2 2 2 2 32 32 2 2 32 2 2 2 2 2 2 2 2 2 2 2 2 2 2 32 32 2 2 2 2 2 2 32 32 32 2 2 2 2 2 2 2 2 2 2 2 2 2 2 2 2 2 2 2 2 2 2 2 2 2 32 32 2 2 2 2
2 2 2 2 2 2 2 2 2 2 2 2 2 2 2 2 2 2 2 2 2 2 2 2 2 2 2 2 2 2 32 2 2 2 2 2 32 32 2 2 2 2 2 2 2 2 32 32 2 2 2 2 2 2 2 2 2 2 2 2 2 32 2 2 2 32 32 101 101 101 101 101 101 101 101 101 101 101 101 101 101 32 32 32 32 32 32 32 32 32 101 32 32 32 32 32 32 32 101 32 2 32 32 2 2 32 32 2 2 2 2 2 2 2 2 32 32 32 32 32 32 2 2 2 2 2 2 2 2 2 2 2 2 2 2 2 2 2 2 2 2 2 2 2 2 2 2 2 2 2 2 2 2 2 2 2 2 2 2 2 2 2 2 2 2 2 2 2 2 2 2 2 2 2 2 2 2 2 2 32 2 2 2 2 2 2 2 2 2 2 2 2 2 2 2 32 32 32 2 2 2 2 2 2 2 2 2 2 2 2 32 2 2 2 2 2 2 2 2 2 2 2 2 2 2 2 2 2 2 2 2 2 2 2 2 2 2 2 2 2 32 2 2 2 2 2 2 2 2 2 2 2 2 2 2 2 2 32 32 2 2 2 32 32 32 32 2 2 2 32 2 2 2 2 2 2 2 2 2 2 2 2 2 2 2 2 2 2 2 2 2 2 2 2 32 32 2 2 2 2
2 2 2 2 2 2 2 2 2 2 2 2 2 2 2 2 32 32 32 32 2 2 2 32 2 2 2 2 2 32 32 2 2 2 2 2 32 32 2 2 2 2 2 2 2 2 32 32 2 2 2 2 2 2 2 2 2 2 2 2 2 32 32 32 32 2 2 32 32 32 101 32 101 101 101 101 101 101 101 101 101 101 32 32 32 32 32 32 32 32 101 32 101 101 32 32 32 32 101 101 2 32 32 2 2 32 2 2 2 2 2 2 2 2 32 32 32 32 32 32 32 2 2 2 2 2 2 2 2 2 2 2 2 2 2 2 2 2 2 2 2 2 2 2 2 2 2 2 2 2 2 2 2 2 2 2 2 2 2 2 2 2 2 2 2 2 2 2 2 2 2 2 2 2 2 2 2 2 2 2 2 2 2 2 2 2 2 2 2 2 2 2 2 2 2 32 32 32 32 2 2 2 2 2 2 2 2 2 2 2 32 2 2 2 2 2 2 2 2 2 2 2 2 2 2 2 2 2 2 2 2 2 2 2 2 2 2 2 2 2 2 2 2 2 2 2 2 2 2 2 2 2 2 2 2 2 32 32 2 2 2 2 2 2 2 32 32 32 2 2 2 2 2 2 2 2 2 2 2 2 2 2 2 2 2 2 2 2 2 2 2 2 2 2 32 2 2 2 2 2
2 2 2 2 2 2 2 2 2 2 2 2 2 2 2 32 32 32 32 32 32 32 32 32 32 2 2 2 32 32 32 2 2 2 2 32 32 32 2 2 2 2 2 2 32 32 32 2 2 2 2 2 2 2 2 2 2 32 32 2 2 2 32 32 32 32 32 2 2 32 101 101 32 32 101 32 101 101 101 101 101 101 32 32 32 32 32 32 32 32 101 32 32 32 32 32 32 32 32 32 2 32 101 2 2 32 2 2 2 2 2 2 2 2 32 32 32 32 32 32 32 2 2 2 2 2 2 2 2 2 2 2 2 2 2 2 2 2 2 2 2 2 2 2 2 2 2 2 2 2 2 2 2 2 2 2 2 2 2 2 2 2 2 2 2 2 2 2 2 2 2 2 2 2 2 2 2 2 2 2 2 2 2 2 2 2 2 2 2 2 2 2 2 2 2 2 2 2 2 2 2 2 2 2 2 2 2 2 2 2 32 2 2 2 2 2 2 2 2 2 2 2 2 2 2 2 2 2 2 2 2 2 2 2 2 2 2 2 2 2 2 32 32 2 2 2 32 32 32 2 2 2 2 2 2 2 2 2 2 2 2 2 2 2 2 2 2 32 32 32 2 2 2 2 2 2 2 2 2 2 2 2 2 2 2 2 2 2 2 2 2 2 2 2 32 2 2 2 2 2
2 2 2 2 2 2 2 2 2 2 2 2 2 2 2 32 32 32 32 32 32 32 32 32 32 32 32 2 2 2 32 2 2 32 32 32 32 2 2 2 2 2 32 2 32 32 32 2 2 2 2 2 2 2 2 2 2 32 32 2 2 2 2 32 32 32 32 32 2 2 101 101 101 32 101 101 101 101 101 101 101 101 101 32 32 32 2 2 2 32 101 32 32 2 32 2 2 2 32 32 2 32 32 2 2 32 32 2 2 2 2 2 2 2 32 32 32 32 2 2 32 2 2 2 2 2 2 2 2 2 2 2 2 2 2 2 2 2 2 2 2 2 2 2 2 2 2 2 2 2 2 2 2 2 2 2 2 2 2 2 2 2 2 2 2 2 2 2 2 2 2 2 2 2 2 2 2 2 2 2 2 2 2 2 2 2 2 2 2 2 32 32 2 2 2 2 2 2 2 2 2 2 2 2 2 2 2 2 2 2 32 2 2 2 2 2 2 2 2 2 2 2 2 2 2 2 2 2 2 2 2 2 2 2 2 2 2 2 2 2 32 32 32 2 2 2 32 32 32 32 2 2 2 2 2 2 2 2 2 2 2 2 2 2 2 2 2 2 2 32 32 32 32 32 2 2 2 2 2 2 2 2 2 2 2 2 2 2 2 2 2 2 2 2 2 2 2 2 2 2
2 2 2 2 2 2 2 2 2 2 2 2 2 2 2 2 32 32 32 32 32 32 32 32 32 32 32 2 2 2 2 2 2 32 32 32 32 32 32 2 2 32 2 2 32 32 32 2 32 32 2 2 2 2 2 2 2 2 2 2 2 2 2 32 32 32 32 2 2 2 32 101 32 32 101 101 101 101 32 32 32 32 101 101 32 32 2 2 2 32 32 32 32 32 32 32 32 32 32 32 2 32 32 32 2 32 32 2 2 2 2 2 2 2 32 32 32 32 2 2 2 2 2 2 2 2 2 2 2 2 2 2 2 2 2 2 2 2 2 2 2 2 2 2 2 2 2 2 2 2 2 2 2 2 2 2 2 2 2 2 2 2 2 2 2 2 2 2 2 2 2 2 2 2 2 2 2 2 2 2 2 2 2 2 2 2 2 2 2 2 2 2 2 2 2 2 2 2 2 2 2 2 2 2 2 2 2 2 2 2 2 2 2 2 2 2 2 2 2 2 2 2 2 2 2 2 2 2 2 2 2 2 2 2 2 2 32 32 32 32 32 32 32 32 2 2 32 32 32 32 32 2 2 2 2 2 2 2 2 2 2 2 2 2 2 2 2 2 2 2 2 32 32 32 32 32 2 2 2 2 2 2 2 2 2 2 2 2 2 2 2 2 2 2 2 2 32 32 32 32
2 2 2 2 2 2 32 2 2 2 2 2 2 2 2 2 32 2 101 101 101 32 32 32 32 32 2 2 2 2 2 2 2 32 32 32 2 32 2 2 2 32 2 32 32 101 32 32 32 32 2 2 2 2 2 2 2 2 2 2 2 2 32 32 2 32 32 2 2 2 32 32 32 32 101 101 101 101 32 32 32 32 101 101 32 32 32 32 32 32 32 32 32 32 32 32 32 2 32 32 32 32 32 32 2 32 32 32 32 32 32 32 32 2 32 2 32 32 2 2 2 2 2 2 2 2 2 2 2 2 2 2 2 2 2 2 2 2 2 2 2 2 2 2 2 2 2 2 2 2 2 2 2 2 2 2 2 2 2 2 2 2 2 2 2 2 2 2 2 2 2 2 2 2 2 2 2 2 2 2 2 2 2 2 2 2 2 2 32 2 2 2 2 2 2 2 2 2 2 2 2 2 2 2 2 2 2 2 2 2 2 2 2 2 2 2 2 2 2 2 2 2 2 2 2 2 2 2 2 2 2 2 2 2 2 2 32 101 32 32 32 32 32 32 2 2 2 32 2 2 2 2 2 2 2 2 2 2 2 2 2 2 2 2 2 2 2 32 2 2 2 32 32 32 32 32 32 32 2 2 2 2 2 2 2 2 2 2 2 2 2 2 2 2 2 32 32 32 32 101
32 2 2 2 2 2 2 32 2 2 2 2 2 2 2 2 2 32 101 101 32 32 32 32 32 32 2 2 2 32 2 2 2 2 32 32 2 2 2 2 2 2 2 2 32 101 32 32 32 32 2 2 2 2 2 2 2 2 2 2 2 2 2 2 2 2 32 2 2 2 32 101 101 101 101 101 101 101 32 32 32 32 101 32 32 32 32 32 101 32 32 32 32 32 32 32 32 32 32 32 32 32 32 32 2 32 32 32 32 32 32 32 32 2 2 2 32 32 2 2 2 2 2 2 2 2 2 2 2 2 2 2 2 2 2 2 2 2 2 2 2 2 2 2 2 2 2 2 2 2 2 2 2 2 2 2 2 2 2 2 2 2 2 2 2 2 2 2 2 32 32 2 2 2 2 2 2 2 2 2 2 2 2 2 2 2 2 2 2 2 2 2 2 2 2 2 2 2 2 2 2 2 2 2 2 2 2 2 2 2 2 2 2 2 2 2 2 2 2 2 2 2 2 2 2 2 2 2 2 2 2 2 2 2 2 2 32 101 32 32 32 32 32 32 2 2 2 2 2 2 2 2 2 2 2 2 2 2 2 2 2 2 2 2 2 32 2 2 2 2 2 2 32 32 32 32 32 32 32 2 2 2 2 2 2 2 2 2 2 2 2 2 2 2 2 32 32 101 32 32
32 32 32 32 2 2 32 2 2 2 2 2 2 2 2 2 32 32 32 101 32 101 32 2 2 2 32 2 32 32 2 2 2 2 32 2 2 2 2 2 2 2 2 2 2 32 32 32 2 32 32 2 2 2 2 2 2 2 2 2 2 2 2 32 2 2 2 2 2 32 101 101 101 101 101 101 101 101 32 32 32 2 32 32 32 32 32 32 32 32 32 32 32 32 32 32 32 32 32 32 32 2 2 2 2 2 32 32 32 32 32 32 2 2 32 32 32 32 32 2 2 2 2 2 2 2 2 2 2 2 2 2 2 2 2 2 2 2 2 2 2 2 2 2 2 2 2 2 2 2 2 2 2 2 2 2 2 2 2 2 2 2 2 2 2 2 2 2 32 32 2 2 2 2 2 2 2 2 2 2 2 2 2 2 2 2 2 2 2 2 2 2 2 2 2 2 2 2 2 2 2 2 32 32 32 2 2 2 2 2 2 2 2 2 2 2 2 2 2 2 2 2 2 2 2 2 2 2 2 2 2 2 2 2 2 2 32 32 32 32 32 32 32 2 2 2 2 2 2 2 2 2 2 2 2 2 2 2 2 2 2 2 2 2 2 2 2 2 2 2 2 2 2 2 2 32 32 32 32 32 2 2 2 2 2 2 2 2 2 2 2 2 2 2 2 32 101 101 101 32
32 32 32 32 2 2 2 2 2 2 2 2 2 2 32 32 32 32 32 101 32 32 32 2 2 32 32 32 32 32 32 2 2 2 32 2 2 2 2 2 2 2 2 2 32 101 32 32 2 32 32 2 2 2 2 2 32 2 2 2 2 2 32 32 32 2 2 2 2 32 101 101 101 101 101 101 101 101 32 32 2 2 2 2 2 32 32 2 2 32 32 32 32 32 32 32 32 32 32 101 32 2 2 2 2 32 32 2 2 2 2 2 2 2 2 32 32 32 32 2 2 2 2 2 2 2 2 2 2 2 2 2 2 2 2 2 2 2 2 2 2 2 2 2 2 2 2 2 2 2 2 2 2 2 2 2 2 2 2 2 2 2 32 32 32 2 32 32 2 32 2 2 2 2 2 2 2 2 2 2 2 2 2 2 2 2 2 2 2 2 2 2 2 2 2 2 2 2 2 2 2 2 2 32 2 2 2 2 2 2 2 2 2 2 2 2 2 2 2 2 2 2 2 2 2 2 2 2 2 2 2 2 2 2 2 2 32 32 2 32 32 32 32 2 2 2 2 2 2 2 32 2 32 2 2 2 2 2 2 2 2 2 2 2 2 2 2 2 2 2 2 2 2 2 32 32 101 32 32 32 2 2 2 2 2 2 2 2 2 2 2 2 2 2 32 32 101 101 101 101
32 32 32 32 32 32 2 32 32 2 2 2 2 2 32 32 32 32 32 32 32 2 2 2 32 32 32 32 32 32 2 2 2 2 2 2 2 2 2 2 2 2 2 2 2 32 32 32 2 2 32 32 101 32 2 2 2 2 2 2 2 2 2 2 2 2 2 2 2 101 101 101 101 101 101 101 101 101 32 32 32 2 32 2 2 2 2 2 2 32 32 32 32 32 32 32 32 32 32 101 32 32 32 32 32 2 32 32 2 2 2 2 2 2 2 2 2 32 32 2 2 2 2 2 2 2 2 2 2 2 2 2 2 2 2 2 2 2 2 2 2 2 2 2 2 2 2 2 2 2 2 2 2 2 2 2 2 2 32 32 32 2 2 2 2 2 32 32 32 2 2 2 2 2 2 2 2 2 2 2 2 2 32 32 32 32 2 2 2 2 2 2 2 2 2 2 2 2 2 2 2 2 2 2 2 2 2 2 2 2 2 2 2 32 2 2 2 2 2 2 2 2 2 2 2 2 2 2 2 2 2 2 2 2 2 2 32 32 2 2 32 32 32 2 2 2 2 2 2 32 32 2 32 32 2 2 2 2 2 2 2 2 2 2 2 2 2 2 2 2 2 2 2 32 32 32 32 32 32 32 32 2 2 32 2 2 2 2 2 2 2 2 2 2 32 32 32 101 101 101
32 32 32 32 32 32 2 2 32 2 2 2 2 2 2 32 32 32 32 32 2 2 2 32 32 32 32 32 32 32 2 2 2 2 2 2 2 2 2 2 2 2 2 2 2 2 2 32 2 2 2 32 101 101 32 2 2 2 2 2 2 2 2 2 2 2 2 2 2 101 101 101 101 101 101 101 101 101 101 32 2 2 32 2 2 32 32 2 2 32 32 32 32 32 32 32 32 32 32 32 32 32 32 2 2 2 32 32 2 2 2 2 2 2 2 2 2 32 32 2 2 2 2 2 2 2 2 2 2 2 2 2 2 2 2 2 2 2 2 2 2 2 2 2 2 2 2 2 2 2 2 2 2 32 32 101 101 101 32 32 32 2 2 2 2 2 2 2 2 2 2 2 2 2 2 2 2 2 2 2 2 2 32 32 101 32 2 2 2 2 2 2 2 2 2 2 2 2 2 2 2 2 2 2 2 2 2 2 2 2 2 2 2 2 2 2 2 2 2 2 2 2 2 2 2 2 2 2 2 2 2 2 2 2 2 2 32 32 2 32 32 32 32 2 2 2 2 2 2 32 32 2 32 32 2 2 2 2 2 2 2 2 32 2 2 2 2 2 2 2 2 32 32 32 2 32 2 32 32 101 32 32 2 2 2 2 2 2 2 2 2 2 2 2 2 2 32 32 32 32
32 32 32 32 32 32 2 2 2 2 2 2 2 2 32 32 32 2 2 2 2 2 32 32 101 32 32 32 32 32 2 2 2 2 2 2 2 2 2 2 32 32 2 2 2 2 2 32 32 2 2 32 101 32 2 32 2 2 2 2 2 2 32 2 2 2 2 2 2 101 101 101 101 101 101 101 101 101 101 32 2 2 2 2 2 2 32 2 2 32 32 32 32 32 32 32 32 2 2 32 32 2 2 2 2 2 2 32 2 2 2 2 2 2 2 2 2 2 2 2 2 2 2 2 2 2 2 2 2 2 2 2 2 2 2 2 32 2 2 2 2 2 2 2 2 2 2 2 2 2 2 2 2 2 101 101 101 101 101 101 101 32 2 2 2 2 2 2 2 2 2 2 2 2 2 2 2 2 2 32 32 32 101 101 101 2 2 2 2 2 2 2 2 2 2 2 2 2 2 2 2 2 2 2 2 2 2 2 2 2 2 2 2 2 2 2 2 2 2 2 2 2 2 2 2 2 2 2 2 2 2 2 2 2 2 2 32 32 32 32 32 101 32 2 2 2 2 2 2 32 32 2 32 32 32 32 2 2 2 2 2 2 2 2 2 2 2 2 2 2 2 32 32 32 2 2 2 2 32 101 101 2 2 2 2 32 32 2 2 2 2 2 2 2 2 2 32 32 32 32
32 32 32 32 32 2 2 2 2 2 2 2 32 32 2 2 2 2 2 2 2 32 32 32 32 32 32 32 32 32 2 2 32 2 2 2 2 2 32 32 2 32 2 2 2 2 2 2 32 2 2 32 32 32 2 2 2 2 2 2 2 2 2 2 2 2 32 32 32 101 101 101 101 101 101 101 101 101 101 32 32 2 2 32 2 2 2 2 2 2 32 32 32 32 32 32 32 2 2 32 32 2 2 2 2 2 2 32 2 2 2 2 2 2 2 2 2 2 2 2 2 2 2 2 2 2 2 2 2 2 2 2 2 2 2 2 2 32 2 2 2 2 2 2 2 2 2 2 2 2 2 2 2 2 2 101 101 101 101 32 101 32 2 2 2 2 2 32 2 2 32 2 32 32 2 2 2 2 32 32 101 101 101 101 32 2 2 2 2 2 2 2 2 2 2 2 2 2 2 2 2 2 2 2 2 2 2 2 2 2 2 2 2 2 2 2 2 2 2 2 2 2 2 2 2 2 2 2 2 2 2 2 2 2 2 32 32 32 32 32 2 32 2 2 2 2 2 2 2 32 32 2 32 32 32 32 32 2 2 2 2 2 2 2 2 2 2 2 2 2 2 2 2 2 2 2 2 2 2 32 32 2 2 2 2 32 2 2 2 2 32 2 2 2 2 2 2 32 32 32
32 32 32 32 2 2 2 2 2 2 2 32 2 2 2 2 2 2 2 2 2 32 101 32 32 32 32 32 32 32 2 2 2 2 2 2 2 2 32 32 32 32 2 2 32 32 2 2 32 32 2 2 32 32 2 2 2 2 2 2 2 2 2 2 2 2 32 32 32 32 101 101 101 101 101 101 101 101 101 32 32 32 32 32 32 32 32 2 2 2 32 101 32 32 32 32 32 2 2 32 32 2 2 2 2 2 2 32 32 2 2 2 2 2 2 2 2 2 2 2 2 2 2 2 2 2 2 2 2 2 2 2 2 2 2 2 2 2 2 2 2 2 2 2 2 2 2 2 2 2 2 2 2 2 2 2 2 32 101 101 32 32 2 2 2 2 2 32 32 32 32 32 2 32 32 2 2 2 32 101 101 32 32 2 2 2 2 2 2 2 2 2 2 2 2 2 2 2 2 2 2 2 2 2 2 2 2 2 2 2 2 2 2 2 2 2 2 2 2 2 2 2 2 2 2 2 2 32 32 2 2 2 2 2 2 32 2 2 32 2 2 2 2 2 2 2 2 2 2 32 32 2 2 32 32 32 32 32 2 2 2 2 2 2 2 2 2 2 2 32 32 2 2 2 2 2 2 2 2 32 32 2 2 2 2 2 32 32 32 32 32 32 32 32 32 32 32 32 32 32
32 32 32 2 2 2 2 2 2 2 2 32 2 2 2 2 2 2 32 2 2 32 101 32 32 32 32 32 32 32 32 2 2 2 2 2 2 2 32 32 32 2 2 2 2 32 2 2 32 32 2 2 2 32 2 2 2 2 2 2 2 2 2 2 2 2 2 2 2 32 101 101 101 101 101 101 101 101 101 101 32 32 32 32 32 32 2 2 2 2 32 32 32 32 32 32 32 2 2 32 101 101 2 2 2 2 2 32 32 2 2 2 2 2 2 2 2 2 2 2 2 2 2 2 2 2 2 2 2 2 2 2 2 2 2 2 2 2 2 2 2 2 2 2 2 2 2 2 2 2 2 2 2 2 2 2 2 2 32 32 32 2 2 2 32 2 2 2 32 32 32 2 2 2 2 2 2 2 2 32 101 32 2 2 2 2 2 2 2 2 2 2 2 2 2 2 2 2 2 2 2 2 2 2 2 2 2 2 2 2 2 2 2 2 2 2 2 2 2 2 2 2 2 2 2 2 2 32 32 2 2 2 2 2 2 32 2 2 2 2 2 2 2 2 2 2 2 2 32 32 32 2 32 32 32 32 32 32 2 2 2 2 2 2 2 2 2 32 2 2 2 2 2 2 2 2 2 2 2 2 32 2 2 2 2 32 32 32 32 32 32 32 32 32 2 32 32 32 32 32
32 2 2 2 2 2 2 2 2 2 2 32 2 2 2 2 32 32 32 32 32 32 32 32 32 32 32 32 32 32 32 2 2 2 2 2 32 32 32 32 2 2 2 2 2 2 2 2 32 32 32 2 32 32 32 2 2 2 2 2 2 2 2 2 2 2 32 32 2 32 101 101 101 101 101 101 101 101 101 101 32 32 32 32 32 2 2 2 2 2 32 32 32 101 32 32 32 2 2 32 101 101 32 32 2 2 2 32 32 2 2 2 2 2 2 2 2 2 2 2 2 2 2 2 2 2 2 2 2 2 2 2 2 2 2 2 2 2 32 32 2 2 2 2 2 2 2 2 2 2 2 2 2 2 2 2 2 2 2 2 2 2 2 2 32 32 2 2 32 32 2 2 2 2 2 2 2 2 32 2 2 2 2 2 2 32 32 32 32 2 2 2 2 2 2 2 2 2 2 2 2 2 2 2 2 2 2 2 2 2 2 2 2 2 2 2 2 2 2 2 2 2 2 2 2 2 2 2 2 2 2 2 2 2 2 32 2 2 2 2 2 2 2 2 2 2 2 2 32 32 2 2 32 32 32 32 32 2 2 2 2 2 2 2 2 2 2 2 2 2 2 2 2 2 2 2 2 2 2 2 2 2 2 2 32 32 32 32 32 32 32 2 32 32 32 32 32 32 32 32
2 2 2 2 2 2 2 2 2 2 32 32 2 2 2 2 32 32 32 32 32 32 32 32 32 32 32 32 32 32 32 2 2 2 2 2 32 32 32 32 2 2 2 2 2 2 2 32 32 32 32 32 32 32 32 2 2 2 2 2 2 2 2 2 2 2 2 32 2 32 32 101 101 101 101 101 101 101 101 101 32 32 32 32 2 2 2 2 32 32 32 32 101 101 101 32 32 32 32 101 101 101 32 32 2 2 2 32 2 2 2 2 2 2 2 2 2 2 2 2 2 2 2 2 2 2 2 2 2 2 2 2 2 2 2 2 2 2 32 32 32 2 2 2 2 2 2 2 2 2 2 2 2 2 2 2 2 2 2 2 2 2 2 2 2 2 2 2 2 2 2 2 2 2 2 2 2 2 2 32 32 32 32 2 32 32 32 32 32 32 2 2 2 2 2 2 2 2 2 2 2 2 2 2 2 2 2 2 2 2 2 2 2 2 2 2 2 2 2 2 2 2 2 2 2 2 2 2 2 2 2 2 2 2 2 32 2 2 2 2 2 2 2 2 2 2 2 2 2 2 2 2 2 32 32 32 2 2 2 2 2 2 2 2 2 2 2 2 2 2 2 2 32 32 2 2 2 2 2 2 2 2 2 2 32 2 32 32 32 32 2 2 2 32 32 32 32 2 2 32
2 2 2 2 2 2 2 32 32 32 2 2 2 2 2 32 32 32 32 32 32 32 32 32 32 32 32 32 32 32 32 2 2 32 32 32 32 32 32 2 2 2 2 2 2 2 2 2 32 32 32 32 32 32 32 2 2 2 2 2 2 2 2 2 2 2 2 2 2 2 32 101 101 101 101 101 101 101 101 101 101 32 32 32 2 2 2 2 2 32 32 101 101 101 32 101 32 32 32 32 101 101 101 2 2 2 32 32 2 2 2 2 2 2 2 2 2 2 2 2 2 2 2 2 2 2 2 2 2 2 2 2 2 2 2 2 2 2 32 32 32 2 2 2 2 2 2 2 2 2 2 2 2 2 2 2 2 2 2 2 2 2 2 2 2 2 2 2 2 2 2 2 2 2 2 32 32 32 2 32 32 32 32 32 32 32 32 32 32 32 2 2 2 2 2 2 2 2 2 2 2 2 2 2 2 2 2 2 2 2 2 2 2 2 2 2 2 2 2 2 2 2 2 2 2 2 2 2 2 2 2 2 2 2 2 32 2 2 2 2 2 2 2 2 2 2 2 2 2 2 2 2 2 32 32 32 32 2 2 2 2 2 2 2 2 2 2 2 2 2 2 2 32 32 2 2 2 2 2 2 2 2 32 32 32 32 32 32 32 2 2 2 2 2 32 32 32 32 32 32
2 32 2 2 2 2 2 32 32 2 2 2 32 2 2 32 32 101 32 32 32 32 32 32 32 32 32 32 2 2 2 2 32 32 32 32 32 32 2 2 2 2 2 2 2 2 2 2 32 32 32 32 32 32 32 32 2 2 2 2 2 32 2 2 2 2 2 2 2 32 32 32 101 101 101 101 101 101 101 101 101 32 32 32 32 2 2 2 32 2 32 101 101 101 32 101 32 32 101 32 32 101 101 2 2 2 32 2 2 2 2 2 2 2 2 2 2 2 2 2 2 2 2 2 2 2 2 2 2 2 2 2 2 2 2 2 2 2 2 32 2 2 2 2 2 2 2 2 2 2 2 2 2 2 2 2 2 2 2 2 2 2 2 2 2 2 2 2 2 2 2 2 2 2 2 2 2 2 2 2 2 2 2 2 2 32 32 32 32 32 32 2 2 2 2 2 2 2 2 2 2 2 2 2 2 2 2 2 2 2 2 2 2 2 2 2 2 2 2 2 2 2 2 2 2 2 2 2 2 32 2 2 2 2 2 2 2 2 2 2 2 2 2 2 2 32 2 2 2 2 2 2 2 2 32 32 32 2 2 2 2 2 2 2 2 2 2 2 2 2 2 2 2 2 2 2 2 2 2 2 2 32 32 101 32 32 2 2 2 2 2 2 2 2 2 2 32 2 2 2
32 2 2 2 2 2 32 32 2 2 2 2 32 32 2 2 32 32 32 32 32 2 2 32 32 32 32 2 2 2 32 2 32 32 32 32 32 2 2 2 2 2 2 2 2 2 2 2 32 32 32 32 32 32 101 32 32 101 32 2 2 32 32 2 2 2 2 2 32 101 101 101 101 101 101 101 101 101 101 101 101 101 32 32 32 32 2 2 32 32 2 101 101 101 32 101 101 101 101 101 101 101 101 32 32 32 2 2 2 2 2 2 32 2 2 2 2 2 2 2 2 2 2 2 2 2 2 2 2 2 2 2 2 2 2 2 2 2 2 2 2 2 2 2 2 2 2 2 2 2 2 2 2 2 2 2 2 2 2 2 2 2 2 2 2 2 2 32 32 2 2 2 2 2 2 2 2 2 2 2 2 2 2 2 2 2 32 32 32 32 32 2 2 2 2 2 2 2 2 2 2 2 2 2 2 2 2 2 2 2 2 2 2 2 2 2 2 2 2 2 2 2 2 2 2 2 2 2 2 2 2 2 2 2 2 2 2 2 2 2 32 32 2 2 32 32 32 2 2 2 2 2 2 2 2 2 2 2 2 2 2 2 32 32 32 32 2 2 2 2 2 2 2 2 2 2 2 2 2 2 2 2 32 32 32 2 2 2 2 2 2 2 2 2 2 2 2 2 2 2
2 2 2 2 2 32 32 32 2 2 2 32 2 2 2 2 2 2 2 32 32 32 32 2 2 2 2 2 2 2 32 32 32 32 32 32 2 2 2 2 2 2 2 2 2 2 2 32 32 32 2 32 32 32 32 32 32 101 101 32 32 32 32 2 2 2 2 2 101 101 101 101 101 101 101 101 101 101 101 101 101 101 32 32 32 32 32 32 32 32 2 101 101 101 32 101 101 101 101 32 32 101 101 32 32 32 2 2 2 2 2 2 2 2 2 2 2 2 2 2 2 2 2 2 2 2 2 2 2 2 2 2 2 2 2 2 2 2 2 2 2 2 2 2 2 2 2 2 2 2 2 2 2 2 2 2 2 2 2 2 2 2 2 2 32 32 32 32 32 2 2 2 2 2 2 2 2 2 2 2 2 2 2 2 2 2 2 2 2 2 2 2 2 2 2 2 2 2 2 2 2 2 2 2 2 2 2 2 2 2 2 2 2 2 2 2 2 2 2 2 2 2 2 2 2 2 2 2 2 2 2 2 2 2 2 2 2 2 2 2 2 2 2 2 2 32 32 32 2 2 2 2 2 2 2 2 2 2 32 32 32 32 101 32 32 32 32 32 32 32 32 32 2 2 2 2 2 2 32 101 32 32 32 32 32 2 2 2 2 2 2 2 2 2 2 2 2 2 2 2
2 2 2 32 32 32 32 2 2 2 2 32 32 32 2 2 2 2 32 32 32 32 32 32 32 2 2 2 2 2 32 2 2 2 2 2 2 2 2 2 2 2 2 2 2 2 2 32 2 2 2 32 32 32 32 32 32 101 101 32 2 2 2 2 2 2 2 2 2 101 101 101 101 101 101 101 101 101 101 101 101 101 32 32 32 32 32 2 2 2 32 32 101 32 32 32 101 101 101 32 101 101 32 101 32 2 2 2 2 2 2 2 2 2 2 2 2 2 2 2 2 2 2 2 2 2 2 2 2 2 2 2 2 2 2 2 2 2 2 2 2 2 2 2 2 2 2 2 2 2 2 2 2 2 2 2 2 2 2 32 2 2 2 32 32 32 32 2 2 2 2 2 2 2 2 2 2 2 2 2 2 2 2 2 2 2 2 2 2 2 2 2 2 2 2 2 2 2 2 2 2 2 2 2 2 2 2 2 2 2 2 2 2 2 2 2 2 2 2 2 2 2 2 2 2 32 2 2 2 2 2 2 2 2 2 2 2 2 2 2 2 2 2 2 2 2 2 2 2 2 2 2 2 2 2 2 2 2 2 32 32 32 101 32 32 32 32 32 32 32 32 2 2 2 2 2 2 2 32 101 101 101 32 32 2 2 2 2 2 2 2 2 2 2 32 2 2 2 2 2
2 32 32 32 32 2 2 2 2 2 2 2 32 32 2 2 2 32 32 32 32 32 32 32 32 2 2 2 2 2 2 2 2 2 2 2 2 2 2 2 2 2 2 2 2 2 2 32 2 2 2 32 32 2 32 32 32 32 32 2 2 2 2 2 2 2 2 2 2 2 101 101 101 101 101 101 101 101 101 101 101 101 101 32 32 32 32 32 2 2 2 32 32 101 101 101 101 101 101 32 101 32 32 101 32 2 2 2 2 2 2 2 2 2 2 2 2 2 2 2 2 2 2 2 2 2 2 2 2 2 2 2 2 2 2 2 2 2 2 2 2 2 2 2 2 2 2 2 2 2 2 2 2 2 2 2 2 2 2 32 32 32 32 32 2 2 2 2 2 2 2 2 2 2 2 2 2 2 2 2 2 2 2 2 2 2 2 2 2 2 2 2 2 2 2 2 2 2 2 2 2 2 2 2 2 2 2 2 2 2 2 2 2 2 2 2 2 2 2 2 2 2 2 2 2 2 2 2 2 32 32 2 2 2 2 2 2 2 2 2 2 2 2 2 2 2 2 2 2 2 2 2 2 2 2 2 32 2 2 2 2 32 32 32 32 32 32 101 101 101 32 2 2 2 2 2 2 2 2 32 101 101 101 32 2 2 2 32 2 2 2 2 2 2 2 32 2 2 2 2
32 32 32 32 32 2 2 2 2 2 2 2 2 2 2 2 2 32 32 32 32 32 32 32 2 2 2 2 2 2 2 2 2 2 2 2 2 2 2 2 2 2 2 2 2 32 32 32 2 2 32 32 32 32 32 32 2 2 32 2 2 2 2 2 2 2 2 2 2 2 101 101 101 101 101 101 101 101 101 101 101 101 101 101 32 32 32 32 32 2 32 32 32 101 101 32 101 101 101 101 101 101 101 101 32 2 2 2 2 2 2 2 2 2 2 2 2 2 2 2 2 2 2 2 2 2 2 2 2 2 2 2 2 2 2 2 2 2 2 2 2 2 2 2 2 2 2 2 2 2 2 2 2 2 2 2 2 2 2 32 32 32 32 32 2 2 2 2 2 2 2 2 2 2 2 2 2 2 2 2 2 2 2 2 2 2 2 2 2 2 2 2 2 2 2 2 2 2 2 2 2 2 2 2 2 2 2 2 2 2 2 2 2 2 2 2 2 2 2 2 2 2 2 2 2 2 2 2 32 101 32 2 2 2 2 2 2 2 2 2 2 2 2 2 2 2 2 2 2 2 2 2 2 2 2 2 2 2 2 2 32 32 32 32 32 32 32 32 32 32 32 32 32 32 2 2 2 2 2 32 32 32 32 32 32 32 32 2 2 2 2 2 2 2 2 2 2 2 2 2
32 32 32 32 32 2 2 2 2 2 2 2 2 2 2 2 2 32 32 32 2 32 32 2 2 2 2 2 2 2 2 2 32 2 2 2 2 2 2 2 2 2 2 2 2 32 32 2 2 2 32 32 32 32 32 2 2 2 2 32 2 2 2 2 2 2 2 2 2 2 32 101 101 101 101 101 101 101 101 101 101 101 101 101 32 32 32 2 32 32 32 32 32 101 101 32 32 101 101 101 101 101 32 101 101 2 2 2 2 2 2 2 2 2 2 2 2 2 2 2 2 2 2 2 2 2 2 2 2 2 2 2 2 2 2 2 2 2 2 2 2 2 2 2 2 2 2 2 2 2 2 2 2 2 2 2 2 2 2 2 32 32 32 32 32 2 2 2 2 2 2 2 2 2 2 2 2 2 2 2 2 2 2 2 2 2 2 2 2 2 2 2 2 2 2 2 2 2 2 2 2 2 2 2 2 2 2 2 2 2 2 2 2 2 2 2 2 2 2 2 2 2 2 2 2 2 2 32 32 101 32 2 2 2 2 2 2 2 2 2 2 2 2 2 2 2 2 2 2 2 2 2 2 2 2 2 2 2 2 32 32 32 32 32 32 32 32 101 101 32 2 2 2 2 32 32 2 32 2 32 32 2 32 32 32 32 32 32 2 2 2 2 32 2 2 2 2 2 2 2
32 2 32 32 32 2 2 2 2 32 32 32 32 32 2 2 2 32 32 2 2 32 2 32 32 32 2 2 2 2 2 2 32 2 2 2 2 2 2 2 2 2 2 2 2 32 2 2 2 2 32 32 32 32 2 2 2 32 32 32 32 2 2 2 2 2 2 2 2 2 2 32 101 101 101 101 101 101 101 101 101 101 101 101 101 32 32 32 32 32 32 32 32 101 32 101 32 101 101 101 101 32 32 101 101 2 2 2 2 2 2 2 2 2 2 2 2 2 2 2 2 2 2 2 2 2 2 2 2 2 2 2 2 2 2 2 2 2 2 2 2 2 2 2 2 2 2 2 2 2 2 2 2 2 2 2 32 2 2 2 32 32 101 32 32 2 2 2 2 2 2 2 2 2 2 2 2 2 2 2 2 2 2 2 2 2 2 2 2 2 2 2 2 2 2 2 2 2 2 2 2 2 2 2 2 2 2 2 2 2 2 2 2 2 2 2 2 2 2 2 2 2 2 2 2 2 2 32 101 101 32 2 2 2 2 2 2 2 2 2 2 2 2 2 2 2 2 2 2 2 2 2 2 2 2 2 2 2 2 2 2 2 2 32 32 32 32 32 101 2 2 2 2 2 32 32 32 32 2 2 2 32 32 32 32 2 2 32 2 2 2 32 32 32 2 2 2 2 2 2
32 32 32 32 2 2 2 2 2 32 32 32 32 32 2 2 32 32 2 2 2 32 32 32 32 32 32 32 32 2 2 2 2 2 2 2 2 2 2 2 2 2 2 2 2 32 32 2 2 2 32 32 2 2 2 2 32 32 32 32 2 2 2 2 2 2 2 2 32 2 2 2 2 101 101 101 101 101 101 101 101 101 101 101 101 101 32 2 32 32 32 32 101 32 101 101 32 101 101 101 101 32 32 101 101 32 2 2 2 2 2 2 2 2 2 2 2 2 2 2 2 2 2 2 2 2 2 2 2 2 2 2 2 2 2 2 2 2 2 2 2 2 2 2 2 2 2 2 2 2 2 2 2 2 2 32 32 2 2 2 32 32 32 101 32 32 2 2 2 2 32 2 2 2 2 2 2 2 2 2 2 2 2 2 2 2 2 2 2 2 2 2 2 2 2 2 2 2 2 2 2 2 2 2 2 2 2 2 2 2 2 2 2 2 2 2 2 2 2 2 2 2 2 2 2 2 2 101 101 101 2 2 2 2 2 2 2 2 2 2 2 2 2 2 2 2 2 2 2 2 2 2 2 2 2 2 2 2 2 2 2 2 2 2 2 2 2 2 32 2 2 2 2 2 2 32 32 32 2 2 2 32 32 32 32 32 32 32 32 2 2 2 32 32 32 2 2 2 32 32
32 32 32 32 2 2 2 2 2 32 32 32 32 32 32 32 32 32 2 2 2 32 32 32 32 32 32 32 32 2 2 2 2 2 2 2 2 2 2 2 2 2 2 2 2 32 32 2 2 2 2 2 2 2 2 32 32 32 32 2 2 2 2 2 2 2 2 2 2 2 2 2 2 32 101 101 101 101 101 101 101 101 101 101 101 101 101 32 32 32 32 32 101 101 32 101 32 101 101 101 32 32 101 101 101 32 2 2 2 2 2 2 2 2 2 2 2 2 2 2 2 2 2 2 2 2 2 2 2 2 2 2 2 2 2 2 2 2 2 2 2 2 2 2 2 2 2 2 2 2 2 2 2 2 2 2 2 2 32 32 32 32 101 101 32 32 2 2 2 2 2 32 2 2 32 2 32 32 2 2 2 2 2 2 2 2 2 2 2 2 2 2 2 2 2 101 101 2 2 2 2 2 2 2 2 2 2 2 2 2 2 2 2 2 2 2 2 2 2 2 2 2 2 2 2 2 32 101 32 32 2 2 2 2 2 2 2 2 2 2 2 2 2 2 2 2 2 2 2 2 2 2 2 2 2 2 2 2 2 2 2 2 2 2 2 2 2 2 2 2 2 2 2 2 2 2 2 32 2 32 32 32 32 32 32 2 32 32 32 32 2 2 2 2 32 32 32 101 101 101
32 32 32 2 2 2 2 2 2 32 32 32 32 32 32 32 32 32 2 2 2 32 32 32 32 32 32 32 32 2 2 2 2 2 2 2 2 2 2 2 2 2 2 2 2 2 32 32 2 2 2 2 2 2 32 32 32 32 32 2 2 2 2 2 2 2 2 2 2 2 2 2 32 101 101 101 101 101 101 101 101 101 101 101 101 101 101 101 32 32 32 101 101 32 32 101 101 101 32 101 32 32 32 101 101 32 2 2 2 2 2 2 2 2 2 32 2 2 2 2 2 2 2 2 2 2 2 2 2 2 2 2 2 2 2 2 2 2 2 2 2 2 2 2 2 2 2 2 2 2 2 2 2 2 2 2 2 32 32 101 32 32 101 101 32 32 2 32 32 32 2 2 2 32 32 32 32 32 2 2 2 2 2 2 2 32 2 2 2 2 2 2 2 2 2 101 101 2 2 2 2 2 2 2 2 2 2 2 2 2 2 2 2 2 2 2 2 2 2 2 2 2 2 2 2 2 32 101 32 2 2 2 2 2 2 2 2 2 2 2 2 2 2 2 2 2 2 2 2 2 2 2 2 2 2 2 2 2 2 2 2 2 2 2 2 2 2 2 2 2 2 2 2 2 2 2 2 2 32 32 2 2 32 32 2 2 2 2 32 101 101 2 2 2 2 32 32 101 101 101
32 32 32 32 2 2 2 2 2 32 32 32 32 32 32 32 32 2 2 2 2 32 32 32 32 32 32 32 2 2 2 2 2 2 2 32 2 2 2 2 2 2 2 2 2 32 32 32 2 2 2 2 2 2 2 32 32 2 2 2 2 2 2 2 2 2 2 2 2 2 2 2 32 101 101 101 101 101 101 101 101 101 101 101 101 101 101 101 101 32 32 32 32 101 101 101 32 32 32 32 101 101 101 32 32 32 32 2 2 2 2 2 2 2 32 32 32 2 2 2 2 2 2 2 2 2 2 2 2 2 2 2 2 2 2 2 2 2 2 2 2 2 2 2 2 2 2 2 2 2 2 2 2 2 2 2 2 32 32 101 101 101 101 32 32 32 101 32 32 32 32 2 2 2 32 32 32 2 2 2 2 2 2 2 2 2 2 2 2 2 2 2 2 2 2 101 101 2 2 2 2 2 2 2 2 2 2 2 2 2 2 2 2 2 2 2 2 2 2 2 2 2 2 2 2 2 32 32 2 2 2 2 2 2 2 2 2 2 2 2 2 2 2 2 2 2 2 2 2 2 2 2 2 2 2 2 2 2 2 2 2 2 2 2 2 2 2 2 2 32 2 2 2 2 2 2 2 2 32 32 2 32 32 32 2 2 2 2 2 32 32 2 2 2 2 2 32 32 101 32
2 32 32 32 32 32 2 2 32 32 32 32 32 32 32 32 2 32 2 32 101 101 32 32 32 32 32 32 32 2 2 2 2 2 2 2 2 2 2 2 2 2 2 2 2 32 2 2 2 32 32 2 2 2 2 2 2 2 2 2 2 2 2 2 2 2 2 2 2 2 2 32 32 101 101 101 101 101 101 101 101 101 101 101 101 101 101 101 101 101 32 32 101 101 101 32 32 2 32 32 101 32 101 101 101 32 32 32 2 2 2 2 2 2 32 32 2 2 2 2 2 2 2 2 2 2 2 2 2 2 2 2 2 2 2 2 2 2 2 2 32 2 2 2 2 2 2 2 2 2 2 2 2 2 2 2 2 2 101 101 101 32 101 32 32 32 101 32 32 32 32 32 2 2 2 2 2 2 2 2 2 2 2 2 2 2 2 2 2 2 2 2 2 2 101 101 101 2 2 2 2 2 2 2 2 2 2 2 2 2 2 2 2 2 2 2 2 2 2 2 2 2 2 2 2 2 2 2 2 2 2 2 2 2 2 2 2 2 2 2 2 2 2 2 2 2 2 2 2 2 2 2 2 2 2 2 2 2 2 2 2 2 2 2 2 2 2 2 32 32 2 2 2 2 2 2 2 2 2 2 2 32 32 32 2 2 2 2 2 2 2 2 2 2 2 32 101 101 32 2
2 2 2 2 2 32 32 32 32 32 2 32 32 32 32 32 32 32 32 101 101 101 32 32 32 32 32 32 32 2 32 32 32 2 2 2 2 2 2 2 2 2 2 2 32 32 32 2 2 32 32 32 32 32 2 2 2 2 2 2 2 2 2 2 2 32 2 2 2 32 32 101 101 101 101 101 101 101 101 101 101 101 101 101 101 101 101 101 101 101 32 32 32 32 101 101 32 32 2 32 101 101 101 101 101 32 101 32 2 2 2 2 2 2 32 32 2 2 2 2 2 2 2 2 2 2 2 2 2 2 2 2 2 2 2 2 2 2 2 2 2 2 2 2 2 2 2 2 2 2 2 2 2 2 2 2 2 2 101 101 101 101 101 32 32 32 32 32 32 32 32 32 32 2 32 2 2 2 2 2 2 2 2 2 2 2 2 2 2 2 2 2 2 2 101 101 2 2 2 2 2 2 2 2 2 2 2 2 2 2 2 2 2 2 2 2 2 2 2 2 2 2 2 2 2 2 2 2 2 2 2 2 2 2 2 2 2 2 2 2 2 2 2 2 2 2 2 2 2 2 2 2 2 2 2 2 2 2 2 2 2 2 2 2 2 2 2 2 32 101 2 2 2 2 2 2 2 2 2 2 2 2 32 32 2 2 2 2 2 2 2 2 2 2 2 2 101 101 32 32
2 2 2 2 2 2 32 32 32 32 32 32 32 32 101 32 32 101 101 101 101 101 32 32 32 32 32 32 32 2 2 32 2 2 2 2 2 2 2 2 2 2 2 2 32 32 32 2 32 32 32 32 32 32 32 2 2 2 2 2 2 2 2 2 32 32 2 2 2 2 32 32 32 101 101 101 101 101 101 101 101 101 101 101 101 101 101 101 101 101 101 32 32 32 32 32 32 32 32 32 101 101 32 101 32 32 101 101 101 2 2 2 2 2 32 32 32 2 2 2 2 2 2 2 2 2 2 2 2 2 2 2 2 2 2 2 2 2 2 2 2 2 2 2 2 2 2 2 2 2 2 2 2 2 2 2 2 2 32 32 32 101 32 32 32 32 2 2 2 32 32 32 2 2 32 2 2 2 2 2 2 2 2 2 2 2 2 2 2 2 2 2 2 2 101 101 2 2 2 2 2 2 2 2 2 2 2 2 2 2 2 2 2 2 2 2 2 2 2 2 2 2 2 2 2 2 2 2 2 2 2 2 2 2 2 2 2 2 2 2 2 2 2 2 2 2 2 2 2 2 2 2 2 2 2 2 2 2 2 2 2 2 2 2 2 2 2 2 2 101 32 2 2 2 2 2 2 2 2 2 2 2 2 2 2 2 2 2 2 2 2 2 2 2 2 2 32 32 32 32
2 2 2 2 2 2 32 32 32 32 32 32 32 32 101 101 32 101 101 101 101 101 32 32 2 2 32 32 32 2 2 32 2 2 2 2 2 2 2 2 2 2 2 32 2 32 32 2 32 32 32 32 32 32 32 32 2 2 2 2 2 32 32 2 32 32 2 2 2 2 32 32 101 101 101 101 101 101 101 101 101 101 101 101 101 101 101 101 101 101 101 101 32 32 32 32 101 101 101 101 32 32 101 101 101 101 101 101 101 32 2 2 2 32 32 101 101 2 2 2 2 2 2 2 2 2 2 2 2 2 2 2 2 2 2 2 2 2 2 2 2 2 2 2 2 2 2 2 2 2 2 2 2 2 2 2 2 32 32 32 101 101 32 2 2 2 2 2 32 32 2 32 2 2 32 2 2 2 2 2 2 2 2 2 2 2 2 2 2 2 2 2 2 2 101 101 2 2 2 2 2 2 2 2 2 2 2 2 2 2 2 2 2 2 2 2 2 2 2 2 2 2 2 2 2 2 2 2 2 2 2 2 2 2 2 2 2 2 2 2 2 2 2 2 2 2 2 2 2 2 2 2 2 2 2 2 2 32 2 2 2 2 2 2 2 2 2 2 2 32 32 2 2 2 2 2 2 2 2 2 2 2 2 2 2 2 2 2 2 2 2 2 2 2 2 2 2 32 32 2
32 2 2 2 2 2 32 32 32 32 32 32 32 32 101 101 32 32 32 101 101 101 101 32 32 2 2 32 32 2 2 2 2 32 2 2 2 2 2 2 2 2 32 32 2 2 2 2 2 32 2 32 32 32 32 32 2 2 2 2 32 32 32 32 32 32 2 2 2 2 32 101 101 101 101 101 101 101 101 101 101 101 101 101 101 101 101 101 101 101 101 101 101 32 32 32 101 101 101 32 32 101 101 101 101 101 32 101 101 32 2 2 2 32 32 101 101 2 2 32 101 2 2 2 2 2 2 2 2 2 2 2 2 2 2 2 2 2 2 2 2 2 2 2 2 2 2 2 2 2 2 2 2 2 2 2 32 32 32 101 101 32 32 2 2 2 2 32 32 32 32 32 2 2 32 2 2 2 2 2 2 2 2 2 2 2 2 2 2 2 2 2 2 2 101 101 2 2 2 2 2 2 2 2 2 2 2 2 2 2 2 2 2 2 2 2 2 2 2 2 2 2 2 2 2 2 2 2 2 2 2 2 2 2 2 2 2 2 2 2 2 2 2 2 2 2 2 2 2 2 2 2 2 2 2 2 2 2 2 2 2 2 2 2 2 2 2 2 2 32 32 2 2 2 2 2 2 2 2 2 2 2 2 2 2 2 2 2 2 2 2 2 2 2 2 2 2 32 32 2
32 2 2 2 2 2 32 32 32 32 32 32 2 32 32 32 32 32 32 32 32 32 101 32 32 32 32 32 32 32 2 2 2 32 2 2 2 2 2 2 32 32 32 2 2 2 2 2 2 2 2 32 32 32 32 2 2 2 2 2 32 32 32 32 32 2 2 2 2 2 101 101 101 101 101 101 101 101 101 101 101 101 101 101 101 101 101 101 101 101 101 101 101 101 32 101 32 32 101 101 101 101 101 101 32 32 32 32 101 101 32 2 2 2 32 101 32 2 2 32 32 2 2 2 2 2 2 2 2 2 2 2 2 2 2 2 2 2 2 2 2 2 2 2 2 2 2 2 2 2 2 2 2 2 32 32 32 32 101 101 101 2 2 2 32 32 32 32 32 32 32 32 2 32 101 2 2 2 2 2 2 2 2 2 2 2 2 2 2 2 2 2 2 2 101 101 2 2 2 2 2 2 2 2 2 2 2 2 2 2 2 2 2 2 2 2 2 2 2 2 2 2 2 2 2 2 2 32 2 2 2 2 2 2 2 2 2 2 2 2 2 2 2 2 2 2 2 2 2 2 2 2 2 2 2 2 2 2 2 2 2 2 2 2 2 2 2 2 2 2 32 2 2 2 2 2 2 2 2 2 2 2 2 2 2 2 2 2 2 2 2 2 2 2 2 2 2 32 32 32
32 32 2 2 2 2 2 2 32 32 32 32 2 32 32 32 32 32 32 32 2 32 32 32 32 32 32 32 32 2 2 2 2 2 2 2 2 2 2 2 32 101 32 2 2 2 2 2 2 32 2 2 32 32 2 2 2 2 2 32 2 32 32 2 32 2 2 2 2 2 32 101 101 101 101 101 101 101 101 101 101 101 101 101 101 101 32 101 101 101 101 101 101 101 101 101 101 32 32 101 101 101 101 101 101 101 32 32 101 101 101 2 32 32 32 2 2 2 32 32 32 2 2 2 2 2 2 2 2 2 2 2 2 2 2 2 2 2 2 2 2 2 2 2 2 2 2 2 2 2 2 2 2 32 32 32 32 101 101 101 32 2 2 32 32 32 32 32 32 32 32 32 32 101 101 32 32 32 32 2 2 2 2 2 2 2 2 2 2 2 2 2 2 101 101 101 2 2 2 2 2 2 2 2 2 2 2 2 2 2 2 2 2 2 2 2 2 2 2 2 2 2 2 2 2 2 2 2 2 2 2 2 2 2 2 2 2 2 2 2 2 2 2 2 2 2 2 2 2 2 2 2 2 2 2 2 2 2 2 2 2 2 2 2 2 2 2 2 2 32 101 32 2 2 2 2 2 2 32 2 2 2 2 2 2 2 2 2 2 2 2 2 2 2 2 2 2 32 101 32
2 2 2 2 2 2 2 2 2 32 32 32 32 32 32 101 32 32 32 32 2 32 32 32 32 32 2 32 32 2 2 2 32 32 32 32 32 32 2 2 32 32 2 2 2 2 2 2 2 2 2 2 2 32 32 2 32 32 2 2 2 32 32 32 2 2 2 2 2 2 2 32 101 2 101 101 101 101 101 101 101 101 101 101 101 101 101 101 101 101 101 101 101 101 101 101 101 101 101 32 101 101 101 101 101 101 101 32 32 101 101 101 32 32 32 2 2 2 32 32 2 2 2 2 2 2 2 2 2 2 2 2 2 2 2 2 2 2 2 2 2 2 2 2 2 2 2 2 2 2 2 2 2 32 32 101 101 101 32 2 2 2 32 101 32 32 32 32 32 32 32 32 32 32 32 32 32 32 32 2 2 2 2 2 2 2 2 2 2 2 2 2 2 101 101 2 2 2 2 2 2 2 2 2 2 2 2 2 2 2 2 2 2 2 2 2 2 2 2 2 2 2 2 2 2 2 2 2 2 2 2 2 2 2 2 2 2 2 2 2 2 2 2 2 2 2 32 32 32 2 2 2 2 2 2 2 2 2 2 2 2 2 2 2 32 32 2 2 2 32 32 2 2 2 2 2 2 2 32 32 2 2 2 2 2 2 2 2 2 2 2 2 2 2 2 2 2 32 101 32
2 2 2 2 2 2 2 2 2 32 32 32 32 2 32 101 32 32 32 101 32 32 32 32 32 32 2 2 2 2 2 32 32 32 32 32 32 2 2 2 32 32 32 2 2 2 2 2 2 2 2 2 32 101 101 101 101 101 32 2 2 32 32 32 32 2 2 2 2 2 2 2 2 2 2 32 101 101 101 101 101 101 101 101 101 101 32 101 32 101 101 101 101 101 101 101 101 101 101 101 101 101 32 101 32 101 32 2 32 101 101 101 101 101 32 32 32 32 32 32 2 2 2 2 2 2 2 2 2 2 2 2 2 2 2 2 2 2 2 2 2 2 2 2 2 2 2 2 2 2 2 2 2 2 32 101 101 32 2 2 2 2 32 32 32 32 32 32 2 32 32 32 32 32 32 32 32 32 32 2 2 2 2 2 2 2 2 2 2 2 2 2 2 101 101 2 2 2 2 2 2 2 2 2 2 2 2 2 2 2 2 2 2 2 2 2 2 2 2 2 2 2 2 2 32 32 2 32 2 2 2 2 2 2 2 2 2 2 2 2 2 2 2 2 2 2 32 32 32 2 2 2 2 2 2 2 2 2 2 2 2 2 2 2 32 32 32 32 32 32 32 2 2 2 2 2 2 2 2 2 2 2 2 2 2 2 2 2 2 32 32 2 2 2 2 2 2 32 101 32
2 2 2 2 2 2 2 2 2 32 32 2 2 2 32 32 32 32 32 101 101 32 32 32 32 2 2 32 2 2 2 32 32 32 32 32 32 32 32 32 32 32 32 2 2 2 2 2 2 2 2 2 32 101 101 101 101 101 32 32 2 2 32 32 32 2 2 2 2 2 2 2 2 2 2 2 2 101 101 101 101 101 101 101 101 101 32 101 101 101 101 32 101 101 101 101 101 101 101 101 101 101 32 32 32 101 32 32 32 32 101 101 101 101 32 32 101 101 32 32 32 32 32 2 2 2 2 2 2 2 2 2 2 2 2 2 2 2 2 2 2 2 2 2 2 2 2 2 2 2 2 2 2 32 32 101 32 32 2 2 2 32 32 2 2 2 2 2 2 32 32 2 2 2 2 32 32 32 32 2 2 2 2 2 2 2 2 2 2 2 2 2 2 101 101 2 2 2 2 2 2 2 2 2 2 2 2 2 2 2 2 2 2 2 2 2 2 2 2 2 2 2 2 32 32 2 32 32 32 2 2 2 2 2 2 2 2 2 2 2 2 2 2 2 2 2 2 2 2 2 2 2 2 2 2 2 2 2 2 2 2 2 2 2 32 32 32 32 32 32 101 2 2 2 2 2 2 2 2 2 2 2 2 2 2 2 2 2 2 32 32 2 2 2 2 2 32 32 32 32
2 2 2 2 2 2 2 2 2 32 32 2 2 32 32 32 32 32 32 32 101 32 32 2 32 2 32 32 2 2 32 32 32 32 32 32 32 101 32 32 32 32 2 2 2 2 2 2 2 2 2 2 2 32 101 2 2 32 32 2 2 2 32 32 2 2 2 2 2 2 2 2 2 2 2 2 2 2 101 101 101 101 101 101 101 101 101 101 101 32 32 101 101 101 101 101 101 101 101 101 101 101 101 32 101 101 101 32 32 2 32 101 101 101 101 101 101 101 32 2 32 101 2 2 2 2 2 2 2 2 2 2 2 2 2 2 2 2 2 2 2 2 2 2 2 2 2 2 2 2 2 2 32 101 101 101 32 32 2 2 2 32 32 2 2 2 2 32 2 2 2 2 2 2 2 2 2 2 2 2 2 2 2 2 2 2 2 2 2 2 2 2 2 101 101 2 2 2 2 2 2 2 2 2 2 2 2 2 2 2 2 2 2 2 2 2 2 2 2 2 2 2 2 2 32 2 2 32 32 2 2 2 2 2 2 2 2 2 2 2 2 2 2 2 2 2 2 2 2 2 2 2 2 2 2 2 2 2 2 2 2 2 2 2 32 32 32 32 32 32 32 2 2 2 2 2 2 2 2 2 2 2 2 2 2 2 2 2 2 2 32 32 32 32 32 32 32 32 2 2
2 32 32 2 2 2 2 32 2 2 32 32 32 32 32 32 32 32 32 32 32 32 32 2 32 2 2 2 2 2 32 32 32 32 32 101 101 101 32 32 32 32 32 2 2 2 2 2 2 2 2 2 2 2 32 2 2 2 32 32 2 2 2 2 2 2 2 2 32 2 2 2 2 2 2 2 2 2 2 101 101 101 32 32 32 101 101 101 101 101 101 32 32 101 101 101 101 101 32 32 101 32 32 32 101 101 101 101 32 2 101 101 101 101 101 101 101 101 32 32 32 32 2 2 2 2 2 2 2 2 2 2 2 2 2 2 2 2 2 2 2 32 32 2 2 2 2 2 2 2 32 32 32 32 32 32 2 32 32 2 2 2 2 2 2 2 32 2 2 2 2 2 32 32 2 2 2 2 2 2 2 2 2 2 2 2 2 2 2 2 2 2 101 101 101 2 2 2 2 2 2 2 2 2 2 2 2 2 2 2 2 2 2 2 2 2 2 2 2 2 2 2 2 2 2 32 2 2 2 2 2 2 2 2 2 2 2 2 2 2 2 2 2 2 2 2 2 2 2 2 2 2 2 2 2 2 2 2 2 2 2 2 2 2 2 32 32 32 32 32 32 2 2 2 2 2 2 2 2 2 2 2 2 2 2 2 2 2 2 2 2 32 101 101 101 101 32 32 32 32
101 101 32 32 2 32 32 32 2 32 32 101 101 32 32 32 32 32 32 32 32 32 32 32 32 2 2 2 2 2 2 32 32 32 32 101 101 32 32 32 32 32 32 2 2 2 2 2 2 2 2 2 2 2 2 2 2 2 32 32 2 2 2 2 2 2 2 2 32 32 2 2 2 2 2 2 2 2 2 32 101 32 32 32 101 101 101 32 101 101 101 32 101 101 101 101 101 101 32 32 101 101 32 32 32 32 32 32 2 32 32 101 101 101 101 101 101 32 32 32 32 2 2 2 2 2 2 2 2 2 2 2 2 2 2 2 2 2 2 2 2 32 2 2 2 2 2 2 2 2 2 2 32 101 32 2 2 2 2 2 2 2 2 2 2 2 2 2 2 2 2 2 2 2 2 2 2 2 2 2 2 2 2 2 2 2 2 2 32 2 2 2 101 101 2 2 2 2 2 2 2 2 2 2 2 2 2 2 2 2 2 2 2 2 2 2 2 2 2 2 2 2 2 2 2 32 32 2 2 2 2 2 2 2 2 2 2 2 2 2 2 2 2 2 2 2 2 2 2 2 2 2 2 2 2 2 2 2 2 2 2 2 2 2 2 2 32 32 101 32 101 32 2 2 2 2 2 2 2 2 2 2 2 2 2 2 2 2 2 32 32 32 101 32 32 32 32 32 32 32
101 101 101 101 101 32 32 32 32 32 32 32 32 32 32 32 32 32 32 101 101 32 32 32 2 2 2 2 2 2 2 32 32 32 32 32 32 32 32 32 32 32 32 2 2 2 2 2 2 2 2 2 2 2 2 2 2 2 2 32 32 2 2 2 2 32 2 2 2 2 2 2 2 2 2 2 2 2 2 2 32 32 32 32 32 101 101 101 101 101 101 101 101 101 101 101 101 101 101 101 32 32 32 32 101 101 32 32 2 32 101 101 101 101 32 101 101 101 101 32 2 2 2 2 2 2 2 2 2 2 2 2 2 2 32 2 2 2 2 2 2 2 2 2 2 2 2 2 2 2 2 32 101 32 32 2 2 2 2 32 2 2 2 2 2 2 2 2 2 2 2 2 2 2 2 2 2 2 2 2 2 2 2 2 2 2 2 2 2 2 2 2 101 101 2 2 2 2 2 2 2 2 2 2 2 2 2 2 2 2 2 2 2 2 2 2 2 2 2 2 2 2 2 2 2 2 2 2 2 2 2 2 2 2 2 2 2 2 2 2 2 2 2 2 2 2 2 2 2 2 2 2 2 2 2 2 2 2 2 2 2 2 2 2 2 2 2 32 32 32 32 2 2 2 2 2 2 2 2 2 2 2 2 2 2 2 2 2 32 32 32 2 32 2 2 2 2 2 2 2
32 32 101 101 101 32 32 101 32 32 101 101 32 32 32 32 32 32 32 101 101 32 32 2 2 2 2 2 2 2 2 32 32 32 32 32 32 32 32 32 32 32 32 2 2 2 2 2 2 32 32 32 2 32 2 2 2 32 32 32 32 32 2 2 2 32 2 2 2 2 2 2 2 2 2 2 2 2 2 2 32 32 32 32 32 32 32 32 32 101 101 101 101 101 101 101 101 101 101 101 32 32 32 2 32 32 32 32 32 32 101 101 101 32 32 32 101 101 101 101 2 2 2 2 2 2 2 2 2 2 2 2 2 2 2 2 2 2 2 2 2 2 2 2 2 2 2 2 2 2 32 101 101 32 2 2 2 2 2 32 2 2 2 2 2 2 2 2 2 2 2 2 2 2 2 2 2 2 2 2 2 2 2 2 2 2 2 2 2 2 2 2 101 101 2 2 2 2 2 2 2 2 2 2 2 2 2 2 2 2 2 2 2 2 2 2 2 2 2 2 2 2 2 2 2 2 2 2 2 2 2 2 2 2 2 2 2 2 2 32 32 2 2 2 2 2 2 2 2 2 2 2 2 2 2 2 2 2 2 2 2 2 2 2 2 2 2 32 32 32 101 32 2 2 2 2 2 2 2 2 2 2 2 2 32 32 32 32 32 2 2 2 2 2 2 2 2 2 2 2
32 32 32 32 32 32 32 32 32 32 101 101 101 101 101 101 101 32 32 32 32 32 2 2 2 2 2 2 2 2 2 2 2 2 32 32 32 101 32 32 32 32 2 2 2 2 2 2 2 2 2 2 2 2 2 2 2 32 32 32 32 32 2 2 2 2 2 2 2 2 2 2 2 2 2 2 2 2 2 32 32 32 32 32 32 101 101 101 101 101 101 101 101 101 101 101 101 101 101 101 32 2 32 2 2 32 32 32 32 32 101 101 101 2 2 32 101 101 101 32 2 2 2 2 2 2 2 32 2 2 2 2 2 2 2 2 2 2 2 2 2 2 2 2 2 2 2 2 2 2 2 32 101 32 2 32 32 32 2 2 2 2 2 2 2 2 2 2 2 2 2 2 2 2 2 2 2 2 2 2 2 2 2 2 2 2 2 2 2 2 2 2 101 101 2 2 2 2 2 2 2 2 2 2 2 2 2 2 2 2 2 2 2 2 2 2 2 2 2 2 2 2 2 2 2 2 2 2 2 32 2 2 2 2 2 2 2 2 2 32 2 2 2 2 2 2 2 2 2 2 2 2 2 2 2 2 2 2 2 2 2 2 2 2 2 2 2 2 101 101 32 32 2 2 2 2 2 2 2 2 2 2 2 32 32 101 101 101 32 2 2 2 2 2 2 2 2 2 2 2
32 32 32 32 2 2 2 32 32 2 32 101 101 101 101 101 101 32 32 32 32 32 2 2 2 2 2 2 2 2 2 2 2 2 2 32 32 32 32 32 32 101 2 2 2 2 2 2 2 2 2 2 2 2 2 2 32 32 32 32 32 32 2 2 2 2 2 2 2 2 2 2 2 2 2 2 2 2 2 32 101 32 32 32 32 101 101 101 101 101 101 101 101 101 101 101 101 101 101 101 32 2 32 32 101 32 101 101 101 32 101 101 101 2 2 2 2 2 32 32 2 2 2 2 2 2 2 2 2 2 2 2 2 2 2 2 2 2 2 2 2 2 2 2 2 2 2 2 2 2 2 32 32 32 2 2 32 32 2 2 2 2 2 2 2 2 2 2 2 2 2 2 2 2 2 2 2 2 2 2 2 2 2 2 2 2 2 2 2 2 2 2 101 101 2 2 2 2 2 2 2 2 2 2 2 2 2 2 2 2 2 2 2 2 2 2 2 2 2 2 2 2 2 2 2 2 2 2 2 2 2 2 2 2 2 2 2 2 2 2 2 2 2 2 2 2 2 2 2 2 2 2 2 2 2 2 2 2 2 2 2 2 2 2 2 2 2 2 101 101 101 32 2 2 2 2 2 2 2 2 2 2 2 32 32 32 101 32 2 2 2 2 2 2 2 2 2 2 2 2
32 32 32 32 2 2 2 32 2 2 32 32 32 32 32 101 101 32 2 2 2 2 2 2 2 2 2 32 32 2 2 2 32 2 2 32 32 32 32 32 101 101 2 2 2 2 2 2 2 2 2 2 2 2 2 2 2 32 32 32 32 32 32 32 2 2 2 2 2 2 2 2 2 2 2 2 2 2 2 32 101 101 32 32 32 101 101 101 101 101 101 101 101 101 101 101 101 101 101 101 32 2 2 101 101 101 101 101 32 32 32 101 101 2 2 2 2 2 2 32 32 2 2 2 2 2 2 2 2 2 2 2 2 2 2 2 2 2 2 2 2 2 2 2 2 2 2 2 2 2 2 32 32 32 32 32 32 32 2 2 2 2 2 2 2 2 2 2 2 2 2 2 2 2 2 2 2 2 2 2 2 2 2 2 2 2 2 2 2 2 2 101 101 101 2 2 2 2 2 2 2 2 2 2 2 2 2 2 2 2 2 2 2 2 2 2 2 2 2 2 2 2 2 2 2 2 2 2 2 2 2 32 2 2 2 2 2 2 2 2 2 2 2 2 2 2 2 32 2 2 2 2 2 2 2 2 32 2 2 2 2 2 2 2 2 2 2 2 101 32 32 2 2 2 2 2 2 2 2 2 2 32 32 32 32 32 32 32 32 32 2 2 2 2 2 2 2 2 2 2
2 2 32 32 2 2 32 2 2 2 2 32 2 2 32 32 32 2 2 2 2 2 2 2 2 2 2 2 2 2 2 2 32 2 32 32 32 32 32 32 32 32 2 2 2 2 2 2 2 2 2 2 2 2 2 2 2 32 32 32 32 2 32 32 32 2 2 2 2 2 2 2 2 2 2 2 2 2 2 32 101 101 101 32 32 101 101 101 101 101 101 101 101 101 101 101 101 101 101 101 32 32 2 32 101 101 101 32 32 2 32 101 101 32 2 2 2 2 2 32 101 32 2 2 2 2 2 2 2 2 2 2 2 2 2 2 2 2 2 2 2 2 2 2 2 2 2 2 2 2 32 32 32 32 32 32 32 32 2 2 2 2 2 2 2 2 2 2 2 2 2 2 2 2 2 2 2 2 2 2 2 2 2 32 32 32 32 2 2 2 2 101 101 2 2 2 2 2 2 2 2 2 2 2 2 2 2 2 2 2 2 2 2 2 2 2 2 2 2 2 2 2 2 2 2 2 2 2 2 2 2 32 32 2 2 2 32 2 2 2 2 2 2 2 2 32 32 2 2 2 2 2 2 2 2 32 32 32 2 2 2 2 2 2 2 2 2 2 32 32 2 2 2 2 2 2 2 2 2 2 2 2 32 2 32 101 32 2 2 2 2 2 2 2 2 2 2 2 2 2
2 2 32 32 2 2 2 2 2 2 2 2 2 2 32 32 2 2 2 2 2 2 2 32 32 32 32 32 2 2 2 32 32 32 32 2 32 32 32 32 101 101 32 32 32 32 32 32 32 32 32 32 32 32 32 32 32 32 32 32 32 32 32 32 32 32 32 2 2 2 2 2 2 2 2 2 2 2 2 32 32 101 101 32 32 32 101 101 32 101 101 101 101 101 101 101 101 101 101 101 32 32 2 32 101 101 101 32 2 2 2 32 32 32 32 2 2 2 2 32 101 101 32 2 2 2 2 2 2 2 2 2 2 2 2 2 2 2 2 2 2 2 2 2 32 2 2 32 32 2 32 32 32 32 2 32 32 32 2 2 2 2 2 2 2 2 2 2 2 2 2 2 2 2 2 2 2 2 2 2 2 2 2 32 32 32 32 2 2 2 2 101 101 32 2 2 2 2 2 2 2 2 2 2 2 2 2 2 2 2 2 2 2 2 2 2 2 2 2 2 2 2 2 2 2 2 2 2 2 2 2 2 2 32 32 32 32 2 2 2 2 2 2 2 32 32 32 2 2 2 2 2 32 32 32 32 32 32 32 32 2 2 2 2 2 2 2 2 32 32 2 2 2 2 2 2 2 2 2 32 101 32 32 32 101 32 2 2 2 2 2 2 2 2 2 2 2 2 2 2
2 32 32 32 32 2 2 2 2 2 2 2 2 2 2 2 2 2 2 2 2 2 2 32 32 101 101 32 32 32 32 32 101 101 32 32 32 101 101 101 101 101 101 101 101 101 32 32 32 32 32 32 32 32 32 32 101 32 101 101 32 32 101 32 32 32 32 32 2 2 2 2 2 2 2 2 2 2 2 32 32 101 32 32 32 32 101 101 101 101 101 101 101 101 101 101 101 101 101 101 101 32 32 101 101 101 32 32 101 32 32 32 32 32 101 32 32 2 2 2 32 101 32 2 2 2 2 2 2 2 2 2 2 2 2 2 2 2 2 2 2 2 2 32 101 32 2 32 2 2 32 32 32 2 2 32 32 2 2 2 32 2 2 2 2 2 2 2 2 2 2 2 2 2 2 2 2 2 2 2 2 2 2 2 32 2 2 2 2 2 2 101 101 32 32 2 2 2 2 2 2 2 2 2 2 2 2 2 2 2 2 2 2 2 2 2 2 2 2 2 2 2 2 2 2 2 2 2 2 2 2 2 2 32 32 101 101 32 2 2 2 2 2 2 32 32 32 32 2 2 2 32 32 32 32 32 32 32 32 32 2 2 2 2 2 2 2 32 32 32 2 2 2 2 2 2 2 2 2 2 101 101 32 32 32 2 2 2 2 2 2 2 2 2 2 2 2 2 2 2
2 2 2 2 32 2 32 2 2 2 2 2 2 2 2 2 2 2 2 2 2 2 2 2 32 101 101 101 101 101 101 101 101 101 32 32 2 2 2 32 101 101 101 101 101 101 32 32 32 32 32 32 101 101 32 32 101 101 101 101 32 32 32 101 32 101 32 32 32 2 2 2 2 2 32 2 2 2 2 2 32 32 2 32 101 101 101 101 101 101 101 101 101 101 101 101 101 101 101 101 101 101 101 101 101 101 32 101 101 101 101 32 101 101 101 101 101 32 32 32 2 32 2 2 2 2 2 2 2 2 2 2 2 2 2 2 2 2 2 2 2 2 2 101 32 32 101 101 32 101 32 32 2 2 2 32 2 2 32 32 32 2 2 2 2 2 2 2 2 2 2 2 2 2 32 2 2 2 32 32 32 2 2 2 2 2 2 2 2 2 2 101 101 32 2 2 2 2 2 2 2 2 2 2 2 2 2 2 2 2 2 2 2 2 2 2 2 2 2 2 2 2 2 2 2 2 2 2 2 2 2 2 2 2 32 32 101 32 2 2 2 2 2 2 32 32 32 32 2 2 2 2 2 32 101 101 32 32 32 2 2 2 2 2 2 2 2 32 101 32 32 2 2 2 2 2 2 2 2 2 32 32 32 32 2 2 2 2 2 2 2 2 2 2 2 2 2 2 2 2
2 2 2 32 32 32 32 2 2 2 2 2 2 2 2 2 2 2 2 2 2 2 2 2 2 2 32 32 32 32 32 32 32 32 2 2 2 2 2 2 32 32 101 101 101 101 101 32 32 2 32 101 101 101 101 101 32 32 32 2 2 2 2 32 101 101 32 32 32 32 32 32 2 32 32 32 32 32 2 2 2 32 2 32 101 101 101 101 101 101 101 101 101 101 101 101 101 101 101 101 101 101 101 101 32 32 32 32 101 32 101 32 101 101 101 101 101 101 101 101 2 2 2 2 2 2 2 2 2 2 2 2 2 32 32 32 32 2 2 2 2 2 32 101 101 101 101 101 101 101 32 2 32 2 32 2 2 2 2 32 32 32 32 2 2 2 2 2 2 2 32 32 32 32 32 2 2 2 32 32 2 2 2 2 2 2 2 2 2 2 101 101 101 32 2 2 2 2 2 2 2 2 2 2 2 2 2 2 2 2 2 2 2 2 2 2 2 2 2 2 2 2 2 2 2 2 2 2 2 2 2 2 2 2 32 32 101 101 2 2 2 2 2 2 2 2 32 32 2 2 2 2 32 32 101 101 32 32 32 2 2 2 2 2 2 2 32 32 101 32 32 2 2 2 2 2 2 2 2 32 2 32 32 32 2 2 2 2 2 2 2 2 2 2 2 2 2 2 2 2
2 2 32 32 32 32 2 2 2 32 2 2 2 2 2 2 2 2 2 2 32 32 32 32 2 2 32 32 32 2 2 2 2 2 2 2 2 2 2 2 2 2 2 32 32 32 32 101 101 101 101 101 32 32 101 101 101 101 101 32 32 32 2 32 32 32 32 32 101 32 2 32 32 32 32 32 101 32 2 2 2 2 32 32 32 101 101 101 101 101 101 101 101 101 101 101 101 101 101 101 101 101 101 32 32 32 2 2 2 2 32 32 32 101 101 101 101 101 101 32 2 2 2 2 2 2 2 2 2 2 2 2 32 32 32 32 32 32 32 32 2 2 2 32 101 101 101 32 32 101 101 32 32 32 2 2 2 2 2 2 32 32 32 32 2 32 32 32 32 32 32 32 32 32 32 2 2 2 32 2 2 2 32 32 2 2 2 32 2 2 101 101 2 2 2 2 2 2 2 2 2 2 2 2 2 2 2 2 2 2 2 2 2 2 2 2 2 2 2 2 2 2 2 2 2 2 2 2 2 2 2 2 2 2 32 101 32 101 32 2 2 2 2 2 2 2 32 32 2 2 2 32 32 32 32 101 101 32 32 32 32 32 32 32 2 2 32 32 101 32 2 2 2 2 2 2 2 2 2 32 32 32 32 2 2 2 2 2 2 2 2 2 2 2 2 2 2 2 2 2
2 2 32 32 32 32 2 2 2 2 2 2 2 2 2 2 2 2 2 2 32 32 32 32 32 32 101 101 2 2 2 2 2 2 2 2 2 2 2 2 2 2 2 2 2 2 32 101 101 101 101 32 32 101 32 32 32 101 101 101 32 32 2 32 2 32 101 32 32 32 32 32 101 101 32 32 32 32 32 2 2 2 32 32 32 101 101 101 101 101 101 101 101 101 101 101 101 101 101 101 101 101 101 32 32 2 2 2 2 32 32 32 32 32 32 32 101 101 32 32 32 2 32 32 2 2 2 2 2 2 2 2 32 32 32 32 32 32 32 32 2 2 2 2 101 101 101 101 101 101 101 32 32 32 2 32 2 2 2 32 32 32 32 32 32 32 32 2 2 2 2 32 32 32 32 32 2 32 32 2 2 32 32 32 32 2 32 32 32 2 101 101 2 32 32 32 2 2 2 2 2 2 2 2 2 2 2 2 2 2 2 2 2 2 2 2 2 2 2 2 2 2 2 2 2 2 2 2 2 2 2 2 2 2 2 32 32 101 101 32 2 2 2 2 2 2 2 2 2 2 2 2 32 32 32 101 101 32 101 101 32 101 101 101 101 32 32 2 32 2 2 2 2 2 2 2 2 2 2 32 32 32 2 2 2 2 2 2 2 2 2 2 2 2 2 2 2 2 2 2
2 32 32 2 32 2 2 2 2 2 2 2 2 2 2 2 2 2 2 2 32 101 101 32 32 101 32 32 2 2 2 2 2 2 32 32 32 32 2 2 2 2 2 2 2 2 2 2 32 101 101 32 32 32 2 2 2 32 101 32 32 32 2 2 2 32 32 101 101 32 101 101 101 101 32 32 32 32 101 32 32 2 2 2 32 101 101 101 101 101 101 101 101 101 101 101 101 101 101 101 101 101 101 32 32 2 2 32 32 2 32 32 2 32 32 32 32 32 32 32 32 32 101 32 2 2 2 2 2 2 2 2 32 32 32 32 32 32 32 2 2 2 32 32 32 32 32 32 101 101 32 32 32 32 2 2 2 2 32 101 101 101 32 32 32 2 2 2 2 2 2 32 32 32 32 32 32 32 32 2 2 32 32 32 32 2 2 2 32 2 101 101 32 32 32 2 2 2 2 2 2 2 32 2 2 2 2 32 2 2 2 2 2 2 2 2 2 2 2 2 2 2 2 2 2 2 2 2 2 2 2 2 2 2 2 32 32 101 101 32 2 2 2 2 2 2 2 2 2 2 2 32 101 101 101 101 101 101 101 101 32 101 101 32 101 101 32 2 2 32 32 32 32 2 2 2 2 2 32 101 101 32 2 2 2 2 2 2 2 2 2 2 2 2 2 2 2 2 2 2
32 32 32 32 32 2 2 2 2 2 2 2 2 2 2 2 2 2 2 2 32 101 101 32 32 101 32 32 2 2 2 2 2 32 32 32 32 32 2 2 2 2 2 2 2 2 2 2 2 32 32 2 2 2 2 2 2 32 32 32 32 32 2 2 2 2 32 101 32 101 101 101 101 101 101 32 32 32 32 32 32 2 2 2 2 32 101 101 101 101 101 101 101 101 101 101 101 101 101 101 101 101 101 101 32 32 2 2 32 32 32 32 2 2 32 101 101 32 32 32 32 101 101 101 32 2 2 2 2 2 2 2 2 2 2 2 2 2 2 2 2 32 101 32 32 32 32 101 32 101 32 32 32 32 32 2 2 32 101 101 101 32 32 32 32 32 32 2 2 2 2 2 32 32 32 32 32 32 32 2 32 32 32 32 32 2 2 2 32 2 101 101 32 32 2 2 2 2 2 2 2 32 101 32 2 32 101 101 32 2 2 2 2 2 2 2 2 2 2 2 2 2 2 2 2 2 2 2 2 2 2 2 2 2 2 2 2 32 101 32 2 2 2 2 2 2 2 32 32 2 2 32 101 101 101 101 32 32 101 32 32 101 101 101 101 101 2 2 2 2 32 32 32 32 2 2 2 32 32 101 32 32 2 2 2 32 2 2 2 2 2 2 2 2 2 2 2 2 2 2
32 2 2 32 2 2 2 2 2 2 2 2 2 2 2 2 2 2 2 2 32 32 32 32 32 32 32 32 2 2 2 2 32 2 32 32 32 32 2 2 2 2 2 2 2 32 2 2 2 2 2 2 2 2 2 2 2 2 2 2 2 32 2 2 2 2 32 101 32 101 101 101 101 101 101 101 32 32 101 32 32 2 2 2 2 2 101 101 101 101 101 101 101 101 101 101 101 101 101 101 101 101 101 101 101 101 32 2 2 32 32 32 2 2 2 32 32 2 2 32 101 101 101 32 2 2 2 2 2 2 2 2 2 2 2 2 2 2 2 2 2 32 101 101 32 32 32 101 101 32 32 32 32 101 101 32 32 101 101 101 32 32 32 32 2 32 32 2 2 2 2 2 32 32 32 32 32 32 32 32 32 32 32 32 32 2 2 32 32 2 101 101 32 32 2 2 2 2 2 2 2 32 101 101 32 32 32 32 2 2 2 2 2 2 2 2 2 2 2 2 2 2 2 2 2 2 2 2 2 2 2 2 2 2 2 2 2 32 32 32 32 2 2 2 2 2 32 32 32 2 32 32 101 101 101 101 32 2 2 32 101 32 101 101 101 32 2 2 2 2 32 32 32 32 32 32 32 32 32 2 32 32 32 32 32 32 32 2 2 2 2 2 2 2 2 2 2 2 2 2
32 2 32 32 2 2 2 2 2 2 2 2 2 2 2 2 2 2 2 2 2 2 2 2 32 32 32 32 2 2 2 2 32 2 2 2 2 2 2 2 2 2 2 2 2 32 2 2 2 2 2 2 2 2 2 2 2 2 2 2 2 32 32 2 2 2 32 101 101 101 101 101 101 101 101 101 32 101 32 32 2 2 2 2 2 2 101 101 101 101 101 101 101 101 101 101 101 101 101 101 101 101 101 101 32 101 32 32 32 32 32 2 2 32 2 2 2 2 2 32 101 101 101 32 2 2 2 2 2 2 2 2 2 2 2 2 2 2 2 2 32 101 101 101 32 32 32 101 32 32 2 32 32 101 32 101 101 101 101 101 32 32 32 32 32 32 32 32 2 2 2 2 2 32 32 32 32 2 2 2 32 32 32 32 32 32 32 2 32 101 101 101 32 32 32 32 2 2 2 32 2 32 101 101 101 2 2 2 2 2 2 2 2 2 2 2 2 2 2 2 2 2 2 2 2 2 2 2 2 2 2 2 2 2 2 2 2 2 32 101 32 2 2 2 32 32 32 32 32 32 32 32 101 101 32 32 2 2 2 32 32 32 32 32 32 32 2 2 2 2 2 2 2 2 2 2 2 2 2 2 2 2 2 2 32 32 2 2 2 2 2 2 2 2 2 2 2 2 2 2
32 2 32 32 2 2 32 2 32 2 2 2 2 2 2 2 2 2 2 2 2 2 2 2 2 2 2 2 2 2 2 2 32 2 2 2 32 2 2 2 2 2 2 2 2 2 2 2 2 2 2 2 2 2 2 2 2 2 2 2 2 32 32 32 32 32 32 101 101 101 101 101 101 101 101 101 101 32 32 32 2 32 2 2 2 2 101 101 101 101 101 101 101 101 101 101 101 101 101 101 101 101 101 101 32 32 32 32 101 101 32 32 32 32 32 2 32 32 32 32 101 101 101 32 2 2 2 2 2 2 2 2 2 2 2 2 2 2 2 2 32 101 101 101 32 101 101 32 32 32 32 32 32 32 32 32 101 101 32 32 32 32 32 32 32 32 32 32 2 2 2 2 2 32 32 2 2 2 2 2 32 32 32 32 32 32 32 2 32 101 101 2 32 32 32 2 2 2 2 32 32 32 32 32 2 2 2 2 2 2 2 2 2 2 2 2 2 2 2 2 2 2 2 2 2 2 2 2 2 2 2 2 2 2 2 2 2 2 32 101 32 32 32 32 32 32 32 32 32 32 101 32 32 32 32 2 2 2 2 2 2 2 32 32 2 2 2 2 2 2 2 2 2 2 2 2 2 2 2 2 32 32 32 32 2 2 2 2 2 2 2 2 2 2 2 2 2 2 2 2
2 32 32 2 2 2 2 2 32 32 2 2 2 2 2 2 2 2 2 2 2 2 2 2 2 2 2 2 2 2 2 2 2 2 2 2 32 32 2 2 2 2 2 2 2 2 2 2 2 2 2 2 2 2 2 2 2 2 2 2 2 32 32 32 101 101 32 101 32 32 101 101 101 101 101 101 101 101 32 32 32 32 32 2 2 2 101 101 101 101 101 101 101 101 101 101 101 101 101 101 101 101 101 101 101 32 32 101 101 101 101 32 32 32 32 32 32 32 32 32 101 101 101 32 2 2 2 2 2 2 2 2 2 2 2 2 2 2 2 2 32 101 101 101 32 32 32 32 32 32 32 32 32 101 32 101 101 32 2 32 32 2 2 32 32 32 2 2 2 2 2 2 2 2 32 32 32 2 2 2 32 32 32 32 32 2 2 2 2 101 101 32 32 32 32 2 2 32 2 32 101 32 32 101 32 32 2 2 2 2 2 2 2 2 2 2 2 2 2 2 2 2 2 2 2 2 2 2 2 2 2 2 2 2 2 2 2 2 32 101 101 101 101 101 32 2 2 2 32 101 32 32 32 2 2 2 2 2 2 2 2 2 2 2 2 2 2 2 2 2 2 2 2 2 2 2 2 2 2 32 32 32 101 32 2 2 2 2 2 2 2 2 2 2 2 2 2 2 2 2
32 32 32 2 2 2 2 2 2 2 32 2 2 2 2 2 2 2 2 2 2 2 2 2 2 2 2 2 2 2 2 2 2 2 2 2 2 2 2 2 2 2 2 2 2 2 2 2 2 2 2 2 2 2 2 2 2 2 2 2 2 2 32 101 101 101 32 101 32 32 101 101 101 101 32 32 32 32 32 32 32 2 32 2 2 2 101 101 101 101 101 101 101 101 101 101 101 101 101 101 101 101 101 101 101 101 32 101 101 32 101 32 2 2 32 32 32 32 32 32 101 101 101 101 32 2 2 2 2 2 2 2 2 2 2 2 2 2 2 32 32 32 101 32 2 32 2 32 32 32 32 32 101 101 101 101 101 32 2 32 32 2 2 2 2 2 2 2 2 2 2 2 2 2 2 2 2 2 2 2 32 32 2 2 2 2 2 2 2 101 101 2 32 32 32 32 2 32 32 32 101 101 32 32 32 32 32 2 2 2 2 2 2 2 2 2 2 2 2 2 2 2 2 2 2 2 2 2 2 2 2 2 2 2 2 2 32 32 101 101 101 101 101 101 2 2 32 32 101 32 32 32 32 2 2 2 2 2 2 2 2 2 2 2 2 2 2 2 2 2 2 2 2 2 2 2 2 2 2 2 2 2 32 32 2 2 2 2 2 2 2 2 2 2 2 2 2 2 2 2
32 32 32 32 2 2 2 2 2 2 32 2 2 32 2 2 2 2 2 2 2 2 2 2 2 2 2 2 2 2 2 2 2 2 2 2 2 2 2 2 2 2 2 32 2 2 2 2 2 2 2 2 2 2 2 2 2 2 2 2 2 2 2 32 32 32 32 32 32 101 101 101 101 2 2 32 32 2 32 32 101 32 32 32 32 32 32 101 101 101 101 101 101 101 32 101 101 101 101 101 101 101 101 101 101 101 101 32 101 101 101 32 2 2 32 32 32 32 32 32 32 101 101 101 32 32 2 2 2 2 2 2 2 2 2 2 2 2 32 32 32 2 2 2 2 2 2 32 32 32 32 32 101 101 32 101 101 32 2 32 32 2 32 2 2 2 2 2 2 2 2 2 2 2 2 2 2 2 2 2 2 32 2 2 2 2 2 2 2 101 101 32 101 101 101 32 2 2 32 32 101 32 101 32 101 32 32 32 2 2 2 2 2 2 2 2 2 2 2 2 2 2 2 2 2 2 2 2 2 2 2 32 32 32 32 32 101 32 101 101 101 101 32 32 2 2 2 2 2 2 2 32 2 2 2 2 2 2 2 2 2 2 2 2 2 2 2 2 2 2 2 2 2 2 2 2 2 2 2 2 2 2 2 2 2 2 2 2 2 2 2 2 2 2 2 2 2 2 2 2
32 32 32 32 2 2 2 2 2 2 2 2 2 2 2 2 2 2 2 2 2 2 2 2 2 2 2 2 2 2 2 2 2 2 2 2 2 2 2 2 2 2 2 32 2 2 2 2 2 2 2 2 2 2 2 2 2 2 2 2 2 2 2 2 32 32 2 2 32 32 101 101 32 32 2 32 2 32 32 32 32 101 32 32 32 32 32 32 32 32 101 101 101 101 101 101 101 32 32 101 101 101 101 101 101 101 101 101 101 101 32 32 2 2 32 32 32 32 101 101 101 101 101 101 101 32 2 2 2 2 2 2 2 2 2 2 2 2 32 32 2 2 2 2 2 2 2 32 32 32 32 32 101 32 101 101 32 32 2 32 32 32 32 32 32 2 2 2 2 2 2 2 2 2 2 2 2 2 2 2 2 32 2 2 2 2 32 32 101 101 101 32 101 101 101 32 32 2 2 32 32 101 101 101 101 32 32 101 32 2 2 2 2 2 2 2 2 2 2 2 2 2 2 32 32 2 2 2 2 32 32 32 101 32 101 32 32 101 101 101 101 32 2 2 2 2 2 2 2 2 2 2 2 2 2 2 2 2 2 2 2 2 2 2 2 2 2 2 2 2 2 2 2 2 2 2 2 2 2 2 2 2 2 2 2 2 2 2 2 2 2 2 2 2 2 2 2 2 2 2
32 32 32 101 32 2 2 2 2 2 2 2 2 2 2 2 2 2 2 2 2 2 2 2 2 2 2 2 2 2 2 2 2 2 2 2 2 2 2 2 2 32 32 32 32 2 2 2 2 2 2 2 2 2 2 2 2 2 2 2 2 2 2 2 2 32 32 2 2 32 101 101 32 32 32 32 32 32 32 32 32 101 101 32 32 101 32 32 32 32 101 101 101 101 101 101 101 32 32 101 101 101 101 101 32 32 101 101 101 101 101 32 2 2 32 32 2 32 32 32 32 32 32 101 32 32 2 2 2 2 2 2 2 2 2 2 32 32 32 2 2 2 2 2 2 2 2 32 101 101 32 32 32 32 101 101 32 2 2 2 2 32 32 101 32 2 2 2 2 2 2 2 2 32 32 2 2 2 2 2 2 32 2 2 2 2 2 2 101 101 32 32 101 32 101 32 32 32 32 32 32 101 101 101 101 101 32 32 32 32 2 2 2 2 2 2 2 2 2 2 2 2 32 32 32 32 32 32 32 32 32 32 32 32 32 32 101 101 101 101 32 32 2 2 2 2 2 2 2 32 2 2 2 2 2 2 2 2 2 32 2 2 2 2 2 2 2 2 2 2 2 2 2 2 2 2 2 2 2 2 2 2 2 2 2 2 2 2 2 2 2 2 2 2 2 2 2 2 2 2
32 32 32 32 32 2 2 2 2 2 2 2 2 2 2 2 2 2 2 2 2 2 2 2 2 2 2 2 2 2 2 2 2 2 2 2 2 2 2 2 32 32 101 101 2 2 2 2 2 2 2 2 2 2 2 2 2 2 2 2 2 2 2 2 2 2 32 2 2 2 32 32 32 32 32 32 32 32 32 2 2 32 32 32 32 32 101 101 32 32 32 101 101 32 101 101 101 101 101 101 101 101 101 101 101 32 32 101 101 101 101 101 2 2 32 32 32 2 2 32 32 32 32 101 32 32 32 2 2 2 2 2 2 2 2 32 32 32 2 2 32 2 2 2 2 2 32 32 101 101 32 101 101 101 101 32 101 32 101 32 32 101 32 101 101 32 32 2 2 2 2 2 2 32 32 2 2 2 2 2 2 32 2 2 2 2 2 2 101 101 32 32 2 32 32 101 32 32 32 32 32 32 101 101 101 101 101 32 2 2 2 2 2 2 2 2 2 2 2 2 2 32 32 2 2 2 32 32 32 32 32 2 2 32 32 101 101 101 101 101 2 2 2 2 2 2 2 2 2 2 2 2 2 2 2 2 2 2 2 2 2 2 2 2 2 2 2 2 2 2 2 2 2 2 2 2 2 2 2 2 2 2 2 2 2 2 2 2 2 2 2 2 2 2 2 2 2 2 2 2
101 32 32 32 32 32 2 2 2 2 2 2 2 2 2 2 2 2 2 2 2 2 2 2 2 2 2 2 2 2 2 2 2 2 2 2 2 2 32 32 32 101 101 101 101 2 2 2 2 2 2 2 2 2 2 2 32 2 2 2 2 2 2 32 2 2 32 2 2 2 32 32 32 32 32 32 32 32 2 2 2 32 32 101 32 32 101 101 32 32 32 32 32 32 101 101 101 32 101 101 101 101 101 101 101 101 32 101 101 101 101 101 32 32 101 32 32 32 32 32 32 32 32 32 101 32 32 32 32 32 32 32 32 32 32 32 32 2 2 2 32 2 2 2 2 32 32 32 32 32 32 101 101 101 101 101 101 101 101 101 101 101 101 101 32 2 2 2 2 2 2 32 32 101 32 2 2 2 2 2 2 32 2 2 2 2 2 2 101 101 2 2 2 2 32 32 101 32 32 32 101 101 101 32 101 101 101 32 32 2 2 2 2 2 2 2 2 2 2 2 32 32 2 32 32 32 2 2 2 2 32 2 2 2 101 101 32 32 32 32 2 2 2 2 2 2 2 2 2 2 2 2 2 2 2 2 2 2 2 2 2 2 2 2 2 2 2 2 2 2 2 2 2 2 2 2 2 2 2 2 2 32 2 2 2 2 2 2 2 2 2 2 2 2 2 2 2 2 2 2
32 101 32 32 32 2 2 2 2 2 2 2 2 2 2 2 2 2 2 2 2 2 2 2 2 2 2 2 2 2 2 2 32 2 2 2 32 32 101 32 32 101 32 101 101 32 32 32 2 2 2 2 2 2 2 2 32 2 2 2 2 2 32 101 32 32 2 2 2 2 32 32 32 32 32 32 2 2 2 2 2 32 101 101 32 32 101 101 101 32 32 32 32 101 101 101 101 101 101 101 101 101 101 101 101 32 32 32 101 101 101 101 101 101 101 32 32 2 32 32 32 32 32 32 32 32 32 32 101 32 32 32 32 32 32 32 32 2 2 2 2 2 2 2 32 32 32 32 32 32 32 101 101 101 101 101 32 32 101 101 101 101 101 101 32 2 2 2 2 2 2 32 101 101 32 2 2 2 2 2 2 32 32 2 2 2 2 2 101 101 2 2 2 2 32 32 101 101 32 32 101 101 101 2 32 32 101 32 32 32 2 2 2 2 2 2 2 2 32 32 32 2 2 32 32 2 2 2 2 2 2 2 2 2 32 32 2 2 2 2 2 2 2 2 2 2 2 2 2 2 2 2 2 2 2 2 2 2 2 2 2 2 2 2 2 2 2 2 2 2 2 2 2 2 2 2 2 2 2 2 2 32 32 32 32 2 2 2 2 2 2 2 2 32 32 2 2 2 2 2
32 32 32 32 32 2 2 2 2 2 2 2 2 2 2 2 2 2 2 2 2 2 2 2 2 2 2 2 2 2 2 2 2 2 2 32 32 32 2 2 2 32 2 32 101 101 101 32 2 2 2 2 2 2 2 32 32 2 2 2 2 32 101 101 32 32 2 2 2 32 32 32 32 32 32 2 2 2 2 2 2 32 101 101 32 32 101 32 32 32 32 32 32 101 101 101 101 101 101 101 101 101 101 101 101 32 32 32 101 101 101 101 101 101 101 32 32 32 32 32 32 32 32 32 32 32 32 32 32 2 2 2 32 32 32 2 2 2 2 2 2 2 32 32 32 32 32 32 2 32 32 101 101 101 101 101 101 101 101 101 101 101 101 101 101 32 32 32 32 32 32 32 101 101 32 2 2 2 32 2 2 32 32 32 2 2 32 2 101 101 32 32 32 32 32 32 101 101 32 32 32 101 2 2 2 2 2 2 32 32 32 2 2 2 32 2 2 32 32 2 2 2 2 2 2 2 2 2 2 2 2 2 2 2 2 32 2 2 2 2 2 2 2 2 2 2 2 2 2 2 2 2 2 2 2 2 2 2 2 2 2 2 2 2 2 2 2 2 2 2 2 2 2 2 2 2 2 2 2 2 32 2 2 2 32 32 32 2 2 2 2 2 32 2 2 2 2 2 2 2
2 32 32 32 32 2 2 2 2 2 2 2 2 2 2 2 2 2 2 2 2 2 2 2 2 2 2 2 2 2 2 2 2 2 2 2 2 2 2 2 2 2 2 32 32 32 101 32 32 2 2 2 2 2 2 32 32 32 2 2 2 32 101 101 32 2 2 2 2 2 32 32 2 32 32 2 2 2 2 2 2 2 32 101 32 32 101 101 32 101 101 101 32 101 101 101 101 101 101 101 101 101 101 32 101 101 32 32 101 101 101 101 101 101 32 32 32 32 32 32 32 32 32 32 32 32 101 101 32 2 32 32 32 32 32 2 2 2 2 2 2 2 32 32 32 2 32 32 32 32 32 101 101 101 101 32 101 32 101 101 101 101 101 101 101 32 101 101 32 101 101 101 101 101 101 32 32 32 32 32 32 32 32 32 32 32 101 101 101 101 32 101 101 101 101 101 101 32 32 32 32 32 32 2 2 2 2 2 32 32 32 32 32 32 32 2 2 2 2 2 2 2 2 2 2 2 2 2 2 2 2 2 2 2 2 2 2 2 2 2 2 2 2 2 2 2 2 2 2 2 2 2 2 2 2 2 2 2 2 2 2 2 2 2 2 2 2 2 2 2 2 2 2 2 2 2 2 2 2 2 2 2 2 2 2 32 32 32 32 2 2 2 32 2 2 2 32 32 2 2
2 32 32 32 32 2 2 2 2 2 2 2 2 2 2 2 2 2 2 2 2 2 2 2 2 2 2 2 2 2 2 2 2 2 2 2 2 2 2 2 2 2 2 2 2 2 101 101 32 2 2 2 2 2 2 32 32 32 2 2 2 32 32 32 32 32 2 2 2 32 2 2 2 2 32 2 2 2 2 2 2 2 32 101 101 32 101 101 101 101 101 101 101 101 101 101 101 101 101 101 101 101 101 101 101 101 32 32 101 101 101 101 101 101 32 32 32 32 32 32 32 32 32 101 32 101 101 32 32 32 32 32 32 2 2 2 2 2 2 2 2 2 2 2 2 2 2 2 32 32 32 32 101 101 32 32 32 32 101 101 32 32 101 101 32 32 32 101 101 32 101 101 101 32 101 101 101 101 32 101 101 101 101 101 101 101 101 101 101 101 101 32 101 101 101 32 32 32 32 2 32 32 2 2 2 2 2 2 32 32 32 2 32 32 32 32 2 2 2 2 2 2 2 2 2 2 2 2 2 2 2 2 2 2 2 2 2 2 2 2 2 2 2 2 2 2 2 2 2 2 2 2 2 2 2 2 2 2 2 2 2 2 2 2 2 2 2 2 2 2 2 2 2 2 2 2 2 2 2 2 2 2 2 2 2 2 32 32 32 2 2 2 2 2 2 32 32 32 32 2
2 32 32 32 32 32 2 2 2 2 2 2 2 2 2 2 2 2 2 2 2 2 2 2 2 2 2 2 2 2 2 2 2 2 2 2 2 2 2 2 2 2 2 2 2 32 32 32 32 2 2 2 2 2 2 2 32 2 2 2 32 32 32 32 32 32 32 32 32 32 32 32 32 2 2 2 2 2 2 2 32 32 32 101 101 32 32 101 101 101 101 101 101 101 101 101 101 101 101 101 101 101 101 101 101 101 32 32 101 101 101 101 101 101 101 32 32 32 32 32 32 32 101 32 101 101 32 32 32 32 32 32 2 2 2 2 2 2 2 2 2 2 2 2 2 2 32 32 32 32 2 2 2 32 101 101 101 101 32 32 32 32 101 101 32 32 32 101 32 32 101 101 101 32 101 32 32 32 32 32 101 32 101 101 101 101 101 101 101 32 2 2 2 32 101 32 32 32 32 2 32 32 2 2 2 2 2 2 2 32 2 2 2 32 32 32 2 2 2 2 2 2 2 2 2 2 2 2 2 2 2 2 2 2 2 2 2 2 2 2 2 2 2 2 2 2 2 2 2 2 2 2 2 2 2 2 2 2 2 2 2 2 2 2 2 2 2 2 2 2 2 2 2 2 2 2 2 2 2 2 2 2 2 2 2 2 2 2 2 2 2 2 2 2 2 2 2 2 2 32
2 32 32 32 32 101 32 2 2 2 2 2 2 2 2 2 2 2 2 2 2 2 2 2 2 2 2 2 2 2 2 2 2 2 2 2 2 2 2 2 2 2 2 2 2 32 32 32 32 32 32 2 2 32 32 32 32 32 32 32 32 101 32 32 32 101 101 32 101 101 32 32 32 2 2 2 2 2 2 2 2 2 32 101 101 101 32 101 101 32 101 101 101 101 101 101 101 101 101 101 101 101 101 32 32 101 32 32 32 32 101 101 101 101 101 32 32 32 32 32 32 101 101 101 101 32 32 101 101 101 32 32 2 2 2 2 2 2 2 2 2 2 2 2 32 32 32 32 32 32 2 2 32 32 32 32 32 32 101 32 32 32 101 101 101 101 101 32 32 32 32 32 101 32 101 32 101 32 32 32 101 101 101 101 101 101 101 101 32 32 2 2 2 2 32 32 32 32 2 2 32 32 2 2 2 2 2 2 2 2 2 2 2 2 32 2 2 2 2 2 2 2 2 2 2 2 2 2 2 2 2 2 2 2 2 2 2 2 2 2 2 2 2 2 2 2 2 2 2 2 2 2 2 2 2 2 2 2 2 2 2 2 2 2 2 2 2 2 2 2 2 2 2 2 2 2 2 2 2 2 2 2 2 2 2 2 2 2 2 2 2 32 2 2 2 2 2 2 2 2
2 2 32 32 32 101 32 2 2 2 2 2 2 2 2 2 2 2 2 2 2 2 2 2 2 2 2 2 2 2 2 2 2 2 2 2 2 2 2 2 2 2 32 32 32 32 32 2 32 101 101 32 32 32 101 101 101 101 101 101 32 32 32 32 101 101 32 32 32 32 32 32 32 2 2 2 2 2 2 2 2 2 2 32 101 101 32 101 101 101 101 101 101 101 101 101 101 101 101 101 101 101 101 101 32 101 101 32 32 32 32 101 101 101 101 32 101 101 32 32 32 101 101 101 101 32 101 101 101 101 101 32 2 2 2 2 2 2 2 2 2 2 2 32 32 101 32 2 2 32 32 2 32 32 32 2 2 32 101 101 101 101 101 101 32 32 32 32 32 32 32 32 101 101 101 32 101 32 32 101 101 101 101 101 32 101 101 32 32 32 2 2 2 2 32 2 2 2 2 2 32 32 32 2 2 2 2 32 2 2 2 2 2 2 2 2 32 32 2 2 2 2 2 2 2 2 2 2 2 2 2 2 2 2 2 2 2 2 2 2 2 2 2 2 2 2 2 2 2 2 2 2 2 2 2 2 2 2 2 2 2 2 2 2 2 2 2 2 2 2 2 2 2 2 2 2 2 2 2 2 2 2 2 2 2 2 2 2 2 2 32 2 32 2 2 2 2 2 2 2
2 2 2 2 32 32 32 2 2 2 2 2 2 2 2 2 2 2 2 2 2 2 2 2 2 2 2 2 2 2 2 2 2 2 2 2 2 2 2 2 2 32 32 101 32 32 32 32 32 32 101 101 101 101 32 32 101 101 101 101 101 32 32 101 32 32 32 2 2 2 32 32 32 32 2 2 2 2 2 2 2 2 32 32 101 32 32 32 101 32 32 101 101 101 101 101 101 101 101 101 101 101 101 101 101 101 101 32 32 32 32 101 101 101 101 101 101 101 101 101 101 101 101 101 32 101 101 101 101 101 32 2 32 2 2 2 2 2 2 2 2 2 32 32 32 32 2 32 32 32 32 32 32 32 32 32 32 32 32 101 101 101 101 101 101 101 101 101 101 101 32 32 32 101 101 101 101 101 101 101 101 101 101 101 32 101 32 32 2 2 2 2 2 2 2 2 2 2 2 2 32 32 2 2 2 2 2 32 32 2 2 2 2 2 2 2 2 32 32 2 2 2 2 2 2 2 2 2 2 2 2 2 2 2 2 2 2 2 2 2 2 2 2 2 2 2 2 2 2 2 2 2 2 2 2 2 2 2 2 2 2 2 2 2 2 2 2 2 2 2 2 2 2 2 2 2 2 2 2 2 2 2 2 2 2 2 2 2 2 2 2 2 32 32 2 2 2 2 2 2
2 32 2 2 32 32 32 2 2 2 2 2 2 2 2 2 2 2 2 2 2 2 2 2 2 2 2 2 2 2 2 2 2 2 2 2 2 2 2 2 2 32 32 2 32 32 2 32 32 32 32 101 101 101 101 32 32 101 101 101 101 101 101 32 2 2 2 2 2 2 2 32 32 32 2 2 2 2 2 2 2 2 32 32 101 32 101 32 32 32 32 101 101 101 101 101 101 101 101 101 101 101 101 101 101 32 101 101 32 2 32 101 101 101 101 101 101 32 101 101 101 101 101 101 32 101 101 101 101 32 2 32 32 32 2 2 2 2 2 2 2 2 32 32 32 32 2 32 32 32 32 32 32 32 101 101 101 101 101 101 101 101 101 101 101 101 32 101 101 101 101 101 32 32 101 101 101 101 101 101 101 101 101 101 32 32 32 32 2 2 2 2 2 2 2 2 2 32 2 32 2 2 2 2 2 2 2 2 32 2 2 2 2 2 2 2 2 2 32 2 2 2 2 2 2 2 2 2 2 2 2 2 2 2 2 2 2 2 2 2 2 2 2 2 2 2 2 2 2 2 2 2 2 2 2 2 2 2 2 2 2 2 2 2 2 2 2 2 2 2 2 2 2 2 2 2 2 2 2 2 2 2 2 2 2 2 2 2 2 2 2 32 32 2 2 2 2 2 2 2
2 2 32 32 32 32 32 32 2 2 2 2 2 2 2 2 2 2 2 2 2 2 2 2 2 2 2 2 2 2 2 2 2 2 2 2 32 2 32 32 32 101 32 32 32 32 32 32 32 32 32 32 101 101 32 2 2 2 2 2 32 32 32 32 2 2 2 2 2 2 2 2 2 2 2 2 2 2 2 2 2 2 2 2 32 101 101 101 32 32 32 101 101 101 101 101 101 101 101 101 101 101 101 32 32 32 101 101 101 2 32 32 101 101 101 101 101 101 101 101 101 101 101 32 2 101 101 101 101 32 32 32 32 32 2 2 2 2 2 2 2 32 101 32 32 32 32 32 32 32 32 32 32 101 101 101 101 101 101 101 101 101 101 101 101 101 101 101 101 101 101 101 101 101 101 101 101 101 101 32 101 101 101 32 32 32 2 2 2 2 2 2 2 2 2 2 2 2 2 2 2 2 2 2 2 2 2 2 2 2 2 2 2 2 2 2 2 2 2 2 2 2 2 2 2 2 2 2 2 2 2 2 2 2 2 2 2 2 2 2 2 2 2 2 2 2 2 2 2 2 2 2 2 2 2 2 2 2 2 2 2 2 2 2 2 2 2 2 2 2 2 2 2 2 2 2 2 2 2 2 2 2 2 2 2 2 2 2 2 2 2 32 32 2 2 2 2 2 2 2
32 32 101 32 32 32 32 32 32 32 2 2 2 2 2 2 2 2 2 2 2 2 2 2 2 2 2 2 2 2 2 2 2 2 2 2 2 2 2 2 32 101 32 2 2 32 32 2 2 2 2 32 101 2 2 2 2 2 2 2 2 2 2 2 2 2 2 2 2 2 2 2 2 2 2 32 2 2 2 2 2 2 2 2 32 101 32 101 101 32 101 101 101 101 101 101 101 32 101 101 101 101 101 101 101 32 32 32 101 101 32 32 101 101 101 101 101 101 101 101 101 101 101 32 32 101 101 101 32 2 32 101 32 32 32 32 2 2 2 2 32 32 101 101 101 101 101 101 101 32 101 101 101 101 101 101 101 101 101 101 101 101 101 101 101 101 101 101 101 101 101 101 101 101 101 101 101 101 101 32 101 101 101 101 32 32 2 2 2 2 32 32 2 2 2 2 2 2 2 2 2 2 2 2 2 2 2 2 2 2 2 2 2 2 2 2 2 2 2 2 2 2 2 2 2 2 2 2 2 2 2 2 2 2 2 2 2 2 2 2 2 2 2 2 2 2 2 2 2 2 2 2 2 2 2 2 2 2 2 2 2 2 2 2 2 2 2 2 2 2 2 2 2 2 2 2 2 2 2 2 2 2 2 2 2 2 2 2 2 2 2 32 101 32 2 2 2 2 2 2
32 101 101 32 32 101 32 32 2 2 2 2 2 2 2 2 2 2 2 2 2 2 2 2 2 2 32 2 2 2 2 2 2 2 2 2 2 2 2 2 2 32 2 2 2 2 2 2 2 2 2 2 2 2 2 2 2 2 2 2 2 2 2 2 2 2 2 2 2 2 2 2 2 2 2 2 2 2 2 2 2 2 2 2 101 101 32 101 101 101 101 101 101 32 101 101 101 101 101 101 101 101 101 101 32 101 101 32 101 101 101 101 101 101 101 101 32 101 101 101 101 101 101 32 32 101 101 32 32 32 32 32 32 32 32 32 32 2 2 32 32 32 32 101 101 101 101 32 101 101 101 101 101 101 101 101 101 101 101 101 32 101 101 101 101 101 101 101 101 101 101 101 101 101 101 101 101 101 101 32 32 32 101 101 32 2 2 2 2 2 32 32 2 2 2 2 2 2 2 2 2 2 2 2 2 2 2 2 2 2 2 2 2 2 2 2 2 2 2 2 2 2 2 2 2 2 2 2 2 2 2 2 2 2 2 32 2 2 2 2 2 2 2 2 2 2 2 2 2 2 2 2 2 2 2 2 2 2 2 2 2 2 2 2 2 2 2 2 2 2 2 2 2 2 2 2 2 2 2 2 2 2 2 2 2 2 2 2 2 2 2 2 32 32 2 2 2 2 2 2
32 101 101 32 32 101 101 2 2 2 2 2 2 2 2 2 2 2 2 2 2 2 2 2 2 2 32 2 2 2 2 2 2 2 2 2 32 2 2 2 2 2 2 2 2 2 2 2 2 2 2 2 2 2 2 2 2 2 2 2 2 2 2 2 32 2 2 2 2 2 2 2 2 2 2 2 32 2 2 2 2 2 2 2 32 101 32 101 101 32 101 101 101 32 32 101 101 101 101 101 101 101 101 101 101 101 101 101 101 101 101 101 101 101 101 101 32 32 101 101 101 101 101 101 32 32 101 32 32 32 32 32 32 32 32 32 2 32 32 32 32 32 32 32 101 101 32 32 32 32 101 101 101 101 101 101 101 101 101 101 101 101 101 101 101 101 101 101 101 32 32 101 101 101 101 101 101 101 101 32 32 32 101 32 2 2 2 2 2 2 2 2 2 2 2 2 2 2 2 2 2 2 2 2 2 2 2 2 2 2 2 2 2 2 2 2 2 2 2 2 2 2 2 2 2 2 2 2 2 2 2 2 2 2 2 2 2 2 2 2 2 2 2 2 2 2 2 2 2 2 2 2 2 2 2 2 2 2 2 2 2 2 2 2 2 2 2 2 2 2 2 2 2 2 2 2 2 2 2 2 2 2 2 2 2 2 2 2 2 2 2 2 2 2 2 2 2 2 2 2
32 101 101 32 32 101 101 2 2 2 2 2 2 2 2 2 2 32 2 2 2 2 32 32 2 32 32 2 2 2 2 2 2 2 2 32 2 2 2 2 2 2 2 2 2 2 2 2 2 2 2 2 2 2 2 2 2 2 2 2 2 2 2 2 32 2 2 2 2 2 2 2 2 2 2 2 2 2 2 2 2 2 2 2 32 32 101 32 32 101 101 101 101 32 32 101 101 101 101 101 101 101 101 101 101 101 101 101 101 101 101 101 101 101 101 101 32 32 32 32 32 32 101 101 32 32 101 32 32 32 32 32 32 32 32 32 32 32 32 2 32 32 2 2 32 32 32 32 2 32 101 101 101 101 101 101 101 101 32 101 101 101 101 32 101 101 32 32 32 32 32 101 101 101 101 101 101 101 101 2 2 32 32 32 2 2 2 2 2 2 2 2 2 2 2 2 2 2 2 2 2 2 2 2 2 2 2 2 2 2 2 2 2 2 2 2 2 2 2 2 2 2 2 2 2 2 2 2 2 2 2 2 2 2 2 2 2 2 2 2 2 2 2 2 2 2 2 2 2 2 2 2 2 2 2 2 2 2 2 2 2 2 2 2 2 2 2 2 2 2 2 2 2 2 2 2 2 2 2 2 2 2 2 2 2 2 2 2 2 2 2 2 2 2 2 2 2 2 2 2
32 32 32 32 32 32 32 2 2 2 2 2 2 2 2 2 2 2 2 2 2 32 32 32 2 32 2 2 2 2 2 2 2 2 2 32 2 2 2 2 2 2 2 2 2 2 2 2 2 2 2 2 2 2 2 2 2 2 2 2 2 2 2 2 2 2 2 2 2 2 2 2 2 2 2 2 2 2 2 2 2 2 2 32 2 2 32 101 101 101 101 101 101 32 32 101 101 101 101 101 101 101 101 101 32 101 101 101 32 101 101 101 101 101 101 101 32 32 101 101 32 2 32 32 32 101 32 32 101 101 101 32 101 101 32 32 32 32 2 2 2 2 2 2 2 2 32 32 2 2 32 101 101 101 101 32 101 32 101 101 101 32 101 32 101 101 101 101 101 32 32 32 101 101 101 32 101 101 32 32 32 32 32 32 2 2 2 2 2 2 2 2 2 2 2 2 2 2 2 2 2 2 2 2 2 2 2 2 2 2 2 2 2 2 2 2 2 2 2 2 2 2 2 2 2 2 2 2 2 2 2 2 2 2 2 2 2 2 2 2 2 2 2 2 2 2 2 2 2 2 2 2 2 2 2 2 2 2 2 2 2 2 2 2 2 2 2 2 2 2 2 2 2 2 2 2 2 2 2 2 2 2 2 2 2 2 2 2 2 2 2 2 2 2 2 2 2 2 2 2
32 32 2 32 2 32 32 2 2 2 2 2 2 2 2 32 2 2 2 2 2 32 32 2 2 2 2 2 2 2 2 2 2 2 2 2 2 2 2 2 2 2 2 2 2 2 2 2 32 32 2 2 2 2 2 2 2 2 2 2 2 2 2 2 2 2 2 2 2 2 2 2 2 2 32 32 2 2 2 2 2 2 2 2 2 2 2 32 101 101 101 101 32 101 32 101 101 101 101 101 101 101 101 101 32 101 101 101 101 32 101 101 101 101 101 101 101 101 101 101 101 2 2 32 101 101 32 101 101 101 101 101 101 101 101 101 2 2 2 2 2 2 2 2 2 2 2 2 2 2 2 32 32 32 101 32 101 32 32 101 32 32 101 101 101 101 101 101 101 32 2 32 32 32 2 2 32 32 32 32 32 32 32 2 2 2 2 2 2 2 2 2 2 2 2 2 2 2 2 2 2 2 2 2 2 2 2 2 2 2 2 2 2 2 2 2 2 2 2 2 2 2 2 2 2 2 2 2 2 2 2 2 2 2 2 2 2 2 2 2 2 2 2 2 2 2 2 2 2 2 2 2 2 2 2 2 2 2 2 2 2 2 2 2 2 2 2 2 2 2 2 2 2 2 2 2 2 2 2 2 2 2 2 2 2 2 2 2 2 2 2 2 2 2 2 2 2 2 2 2
2 2 2 2 32 32 32 32 2 2 2 2 2 2 2 2 2 2 2 2 32 32 2 2 2 2 2 2 2 2 2 2 2 2 2 2 2 2 2 2 2 2 2 2 2 2 2 2 101 32 2 2 2 2 2 2 2 2 2 2 2 2 2 2 2 2 2 2 2 2 2 2 2 32 2 2 2 2 2 2 2 2 2 32 2 2 2 32 32 32 32 32 32 101 32 101 101 101 32 101 101 101 101 32 32 32 101 32 32 32 101 101 101 101 101 101 101 101 101 101 101 32 2 32 101 101 101 101 101 101 101 101 101 101 101 101 32 2 2 2 2 2 2 32 32 2 2 2 2 2 2 2 2 2 32 32 32 32 2 2 2 32 101 101 101 101 101 32 2 2 2 2 32 2 32 32 32 32 32 32 32 2 2 2 2 2 2 2 2 2 2 2 2 2 2 2 2 2 2 2 2 2 2 2 2 2 2 2 2 2 2 2 2 2 2 2 2 2 2 2 2 2 2 2 2 2 2 2 2 2 2 2 2 2 2 2 2 2 2 2 2 2 2 2 2 2 2 2 2 2 2 2 2 2 2 2 2 2 2 2 2 2 2 2 2 2 2 2 2 2 2 2 2 2 2 2 2 2 2 2 2 2 2 2 2 2 2 2 2 2 2 2 2 2 2 2 2 2 2 2
2 2 2 32 32 32 32 32 32 2 2 2 2 2 2 2 2 2 2 2 2 2 2 2 2 2 2 2 2 2 2 2 2 2 2 2 2 2 2 2 2 2 2 2 2 2 2 2 32 32 2 2 2 2 2 2 2 2 2 2 2 2 2 2 2 2 2 2 2 2 2 2 2 2 2 2 2 2 2 2 2 2 2 2 32 2 2 2 32 32 32 2 2 32 32 101 101 101 101 101 101 101 101 32 32 101 101 101 101 101 101 101 101 101 101 101 101 101 101 101 101 101 32 101 32 101 101 101 101 101 101 101 101 101 101 32 2 2 2 2 2 2 2 2 2 2 2 32 2 2 2 2 2 2 2 2 2 2 2 2 2 32 32 32 32 32 32 32 2 2 2 2 32 2 32 32 32 2 2 32 2 2 2 2 2 2 2 2 2 2 2 2 2 2 2 2 2 2 2 2 2 2 2 2 2 2 2 2 2 2 2 2 2 2 2 2 2 2 2 2 2 2 2 2 2 2 2 2 2 2 2 2 2 2 2 2 2 2 2 2 2 2 2 2 2 2 2 2 2 2 2 2 2 2 2 2 2 2 2 2 2 2 2 2 2 2 2 2 2 2 2 2 2 2 2 2 2 2 2 2 2 2 2 2 2 2 2 2 2 2 2 2 2 2 2 2 2 2 2 2
2 2 2 32 32 32 32 32 2 2 2 2 2 2 2 2 2 2 2 2 2 2 2 2 2 2 2 2 2 2 2 2 2 32 32 2 2 2 2 2 2 2 2 2 2 2 2 2 32 32 32 2 2 2 2 2 2 2 2 2 2 2 2 2 2 2 2 2 2 2 2 2 2 2 2 2 2 2 2 2 2 2 2 32 2 2 2 32 32 101 32 32 2 2 32 101 101 101 101 101 101 101 101 101 101 101 101 101 101 101 32 101 101 101 101 101 101 101 101 101 101 101 32 32 32 101 101 101 101 101 101 32 32 32 2 2 2 2 2 2 2 2 2 2 2 2 2 2 2 2 2 2 2 2 2 2 2 2 2 2 2 2 2 32 32 32 2 2 2 2 2 2 2 2 2 32 2 2 2 2 2 2 2 2 2 2 2 2 2 2 2 2 2 2 2 2 2 2 2 2 2 2 2 2 2 2 2 2 2 2 2 2 2 2 2 2 2 2 2 2 2 2 2 2 2 2 2 2 2 2 2 2 2 2 2 2 2 2 2 2 2 2 2 2 2 2 2 2 2 2 2 2 2 2 2 2 2 2 2 2 2 2 2 2 2 2 2 2 2 2 2 2 2 2 2 2 2 2 2 2 2 2 2 2 2 2 2 2 2 2 2 2 2 2 2 2 2 2 2 32
2 2 2 32 32 32 32 32 32 2 2 2 2 2 2 2 2 2 2 2 2 2 2 2 2 2 2 2 2 2 2 2 2 32 32 2 2 2 2 2 2 2 2 2 2 2 2 2 32 32 32 2 2 2 2 2 2 2 2 2 2 2 2 2 2 2 2 2 2 2 2 2 2 2 2 2 2 2 2 2 2 2 2 32 2 32 32 32 32 101 32 32 2 2 2 32 32 101 101 101 101 101 101 101 101 101 101 101 101 101 101 101 101 32 101 101 101 101 101 101 101 101 32 32 101 101 101 101 32 32 2 32 32 2 2 2 2 2 2 2 2 2 2 2 2 2 2 2 2 2 2 2 2 2 2 2 2 2 2 2 2 2 2 2 2 2 2 2 2 2 2 2 2 2 2 2 2 2 2 2 2 2 2 2 2 2 2 2 2 2 2 2 2 32 2 2 2 2 2 2 2 2 2 2 2 2 2 2 2 2 2 2 2 2 2 2 2 2 2 2 2 2 2 2 2 2 2 2 2 2 2 2 2 2 2 2 2 2 2 2 2 2 2 2 2 2 2 2 2 2 2 2 2 2 2 2 2 2 2 2 2 2 2 2 2 2 2 2 2 2 2 2 2 2 2 2 2 2 2 2 2 2 2 2 2 2 2 2 2 2 2 2 2 2 2 2 2 2 2 32
2 2 2 32 32 32 32 2 2 2 2 2 2 2 2 2 2 2 2 2 2 2 2 32 32 2 2 2 2 2 2 2 2 2 32 2 2 2 2 2 2 2 2 2 2 2 2 2 2 2 2 2 32 32 2 2 2 2 2 2 2 2 2 2 2 2 2 2 2 2 2 2 2 2 2 2 2 2 2 2 2 2 2 2 32 32 32 2 32 32 32 32 2 2 2 2 32 101 101 101 101 101 101 101 101 101 101 101 101 101 101 101 101 101 101 101 101 101 101 101 101 101 32 101 101 101 101 32 2 2 2 2 2 2 2 2 2 2 2 2 2 2 2 2 2 2 2 2 2 2 2 2 2 2 2 2 2 2 2 2 2 2 2 2 2 2 2 2 2 2 2 2 2 2 2 2 2 2 2 2 2 2 2 2 2 2 2 2 2 2 2 2 2 2 2 2 2 2 2 2 2 2 2 2 2 2 2 2 2 2 2 2 2 2 2 2 2 2 2 2 2 2 2 2 2 2 2 2 2 2 2 2 2 2 2 2 2 2 2 2 2 2 2 2 2 2 2 2 2 2 2 32 32 2 2 2 2 2 2 2 2 2 2 2 2 2 2 2 2 2 2 2 2 2 2 2 2 2 2 2 2 2 2 2 2 2 2 2 2 2 2 2 2 2 2 2 2 2 32 32
2 32 32 32 32 32 32 2 2 2 2 2 2 2 2 2 2 2 2 2 2 2 2 2 2 2 2 2 2 2 2 2 2 2 2 2 2 2 2 2 2 2 2 2 2 2 2 2 2 2 2 2 32 2 2 32 2 2 2 2 2 2 2 2 2 2 2 2 2 2 2 2 2 2 2 2 2 2 2 2 2 2 2 32 32 32 2 32 101 101 32 32 32 2 2 2 32 32 32 101 101 101 101 101 101 101 101 101 101 101 101 32 101 101 101 101 101 101 101 101 32 32 101 101 101 101 2 2 2 2 2 2 2 2 2 2 2 2 2 2 2 2 2 2 2 2 2 2 2 2 2 2 2 2 2 2 2 2 2 2 2 2 2 2 2 2 2 2 2 2 2 2 2 2 2 2 2 2 2 2 2 2 2 2 2 2 2 2 2 2 2 2 2 2 2 2 2 2 2 2 2 2 2 2 2 2 2 2 2 2 2 2 2 2 2 2 2 2 2 2 2 2 2 2 2 2 2 2 2 2 2 2 2 2 2 2 2 2 2 2 2 2 2 2 2 2 2 2 2 2 2 2 2 2 2 2 2 2 2 2 2 2 2 2 2 2 2 2 2 2 2 2 2 2 2 2 2 2 2 2 2 2 2 2 2 2 2 2 2 2 2 2 2 2 2 2 2 2 2 32
2 32 32 32 32 32 32 32 2 2 2 2 2 2 2 2 2 2 2 2 2 2 2 2 2 2 2 2 2 2 2 2 2 2 2 2 2 2 2 2 2 2 2 2 2 2 2 2 2 32 32 2 2 2 2 2 32 2 2 2 2 2 2 2 2 2 2 2 2 2 2 2 2 2 2 2 2 2 2 2 32 2 2 32 32 32 32 32 101 101 101 32 32 2 2 2 32 32 32 32 101 101 101 101 101 101 101 101 101 101 101 32 101 32 32 101 101 101 101 32 32 101 101 101 32 2 2 2 2 2 2 2 2 2 2 2 2 2 2 2 2 2 2 2 2 2 2 2 2 2 2 2 2 2 2 2 2 2 2 2 2 2 2 2 2 2 2 2 2 2 2 2 2 2 2 2 2 2 2 2 2 2 2 2 2 2 2 2 2 2 2 2 2 2 2 2 2 2 2 2 2 2 2 2 2 2 2 2 2 2 2 2 2 2 2 2 2 2 2 2 2 2 2 2 2 2 2 2 2 32 2 2 2 2 2 2 2 2 2 2 2 2 2 2 2 2 2 2 2 2 2 2 2 2 2 2 2 2 2 2 2 2 2 2 2 2 2 2 2 2 2 2 2 2 2 2 2 2 2 2 2 2 2 2 2 2 2 2 2 2 2 2 2 2 2 2 2 2 2 2
2 2 32 32 32 32 32 32 2 2 2 2 2 2 2 2 2 2 2 2 2 2 2 2 2 2 2 2 2 2 2 2 2 2 2 2 2 2 2 2 2 2 2 2 2 2 2 2 2 2 32 2 2 2 2 2 2 2 2 2 2 2 2 2 2 2 2 2 2 2 2 2 2 2 2 2 2 2 2 2 2 2 32 101 101 32 32 32 32 32 101 101 32 2 2 2 32 32 32 101 101 101 101 101 101 101 101 101 101 101 101 101 101 101 32 32 32 101 32 32 32 32 32 32 2 2 2 2 2 2 2 2 2 2 2 2 2 2 2 2 2 2 2 2 2 2 2 2 2 2 2 2 2 2 2 2 2 2 2 2 2 2 2 2 2 2 2 2 2 2 2 2 2 2 2 2 2 2 2 2 2 2 2 2 2 2 2 2 2 2 2 2 2 2 2 2 2 2 2 2 2 2 2 2 2 2 2 2 2 2 2 2 2 2 2 2 2 2 2 2 2 2 2 2 2 2 2 2 2 2 2 2 2 2 2 2 2 2 2 2 2 2 2 2 2 2 2 2 2 2 2 2 2 2 2 2 2 2 2 2 2 2 2 2 2 2 2 2 2 2 2 2 2 2 2 2 2 2 2 2 2 2 2 2 2 2 2 2 2 2 2 2 2 2 2 2 2 2 2 2
2 2 32 101 101 32 32 32 2 2 2 2 2 2 2 2 2 2 2 2 2 2 2 2 2 2 2 2 2 2 2 2 2 2 2 2 2 2 2 2 2 2 2 2 2 2 2 2 2 2 2 2 2 2 2 2 2 2 2 2 2 2 2 2 2 2 2 2 2 2 2 2 2 2 2 2 2 2 2 2 2 2 2 101 101 101 101 101 101 32 32 32 32 32 32 2 32 101 101 101 101 101 101 101 101 101 101 101 101 101 101 101 101 32 32 32 101 101 32 32 32 32 32 32 32 32 2 2 2 2 2 2 2 2 2 2 2 2 2 2 2 2 2 2 2 2 2 2 2 2 2 2 2 2 2 2 2 2 2 2 2 2 2 2 2 2 2 2 2 2 2 2 2 2 2 2 2 2 2 2 2 2 2 2 2 2 2 2 2 2 2 2 2 2 2 2 2 2 2 2 2 2 2 2 2 2 2 2 2 2 2 2 2 2 2 2 2 2 2 2 2 2 2 2 2 2 32 2 2 32 2 2 2 2 2 2 2 2 2 2 2 2 2 2 2 2 2 2 2 2 2 2 2 2 2 2 2 2 2 2 2 2 2 2 2 2 2 2 2 2 2 2 2 2 2 2 2 2 2 2 2 2 2 2 2 2 2 2 2 2 2 2 2 2 2 2 2 2 2 2
2 2 32 32 32 32 32 2 2 2 2 2 2 2 2 2 2 2 2 2 2 2 2 2 2 2 32 2 2 2 2 32 2 2 2 2 2 2 2 2 2 2 2 2 2 2 2 2 2 2 2 2 2 2 2 2 2 2 2 2 2 2 2 2 2 2 2 2 2 2 2 2 2 2 2 2 2 2 2 2 2 2 2 32 101 101 101 101 101 101 101 32 101 101 32 32 32 32 32 101 101 101 101 101 101 101 101 101 101 101 101 101 101 101 32 101 101 32 32 2 2 2 2 2 32 32 2 2 2 2 2 2 2 2 2 2 2 2 2 2 2 2 2 2 2 2 2 2 2 2 2 2 2 2 2 2 2 2 2 2 2 2 2 2 2 2 2 2 2 2 2 2 2 2 2 2 2 2 2 2 2 2 2 2 2 2 2 2 2 2 2 2 2 2 2 2 2 2 2 2 2 2 2 2 2 2 2 2 2 2 2 2 2 2 2 2 2 2 2 2 2 2 2 2 2 2 2 2 2 32 2 2 2 2 2 2 2 2 2 2 2 2 2 2 2 2 2 2 2 2 2 2 2 2 2 2 2 2 2 2 2 2 2 2 2 2 2 2 2 2 2 2 2 2 2 2 2 2 2 2 2 2 2 2 2 2 2 2 2 2 2 2 2 2 2 2 2 2 2 2
2 2 32 32 32 32 32 32 2 2 2 2 2 2 2 2 2 2 2 2 2 2 2 2 2 2 32 32 2 32 32 32 2 2 2 2 2 2 2 2 2 2 2 2 2 2 2 2 2 2 2 2 2 2 2 2 2 2 2 32 2 2 2 2 2 2 2 2 2 2 2 2 2 2 2 32 2 2 2 2 2 2 2 2 32 101 101 101 101 101 101 101 101 32 32 32 32 32 101 101 101 101 101 101 101 101 101 101 101 101 101 101 101 101 101 101 101 32 32 2 2 2 2 2 32 32 2 2 2 2 2 2 2 2 2 2 2 2 2 2 2 2 2 2 2 2 2 2 2 2 2 2 2 2 2 2 2 2 2 2 2 2 2 2 2 2 2 2 2 2 2 2 2 2 2 2 2 2 2 2 2 2 2 2 2 2 2 2 2 2 2 2 2 2 2 2 2 2 2 2 2 2 2 2 2 2 2 2 2 2 2 2 2 2 2 2 2 2 2 2 2 2 2 2 2 2 2 2 2 2 2 2 2 2 2 2 2 2 2 2 2 2 2 2 2 2 2 2 2 2 2 2 2 2 2 2 2 2 2 2 2 2 2 2 2 2 2 2 2 2 2 2 2 2 2 2 2 2 2 2 2 2 2 2 2 2 2 2 2 2 2 2 2 2 2 2 2 2 2 2
2 2 32 32 32 2 2 32 2 2 2 2 2 2 2 2 2 2 2 2 2 2 2 2 2 32 32 32 32 101 32 2 2 2 32 2 2 2 2 2 2 2 2 2 2 2 2 2 2 2 2 2 2 2 2 2 2 2 32 32 32 2 2 2 2 2 2 2 2 2 2 2 2 2 2 101 32 32 32 2 2 2 2 2 2 32 101 101 101 101 101 101 101 101 32 32 32 32 101 101 101 101 101 101 101 101 101 101 101 101 101 101 101 101 101 101 32 32 32 2 2 2 2 2 2 2 2 2 2 2 2 2 2 2 2 2 2 2 2 2 2 2 2 2 2 2 2 2 2 2 2 2 2 2 2 2 2 2 2 2 2 2 2 2 2 2 2 2 2 2 2 2 2 2 2 2 2 2 2 2 2 2 2 2 2 2 2 2 2 2 2 2 2 2 2 2 2 2 2 2 2 2 2 2 2 2 2 2 2 2 2 2 2 2 2 2 2 2 2 2 2 2 2 2 2 2 2 2 2 2 2 2 2 2 2 2 2 2 2 2 2 2 2 2 2 2 2 2 2 2 2 2 2 2 2 2 2 2 2 2 2 2 2 2 2 2 2 2 2 2 2 2 2 2 2 2 2 2 2 2 2 2 2 2 2 2 2 2 2 2 2 2 2 2 2 2 2 2 2 2
2 2 2 2 2 2 32 32 32 32 2 2 2 2 2 2 2 2 2 2 2 2 2 2 2 32 32 32 32 32 32 2 2 32 32 2 2 2 2 2 2 2 2 2 2 2 2 2 2 2 2 2 2 2 2 2 2 2 2 2 2 2 2 2 2 2 2 2 2 2 2 2 2 2 2 101 101 101 101 32 32 2 2 32 2 2 32 101 101 101 101 101 101 101 32 32 32 32 32 101 101 101 101 101 101 101 101 101 101 101 101 101 101 101 101 2 32 32 2 2 2 2 2 2 2 2 2 2 2 2 2 2 2 2 2 2 2 2 2 2 2 2 2 2 2 2 2 2 2 2 2 2 2 2 2 2 2 2 2 2 2 2 2 2 2 2 2 2 2 2 2 2 2 2 2 2 2 2 2 2 2 2 2 2 2 2 2 2 2 2 2 2 2 2 2 2 2 2 2 2 2 2 2 2 2 2 2 2 2 2 2 2 2 2 2 2 2 2 2 2 2 32 2 32 2 2 2 2 2 2 2 2 2 2 2 2 2 2 2 2 2 2 2 2 2 2 2 2 2 2 2 2 2 2 2 2 2 2 2 2 2 2 2 2 2 2 2 2 2 2 2 2 2 2 2 2 2 2 2 2 2 2 2 2 2 2 2 2 2 2 2 2 2 2 2 2 2 2 2 2
2 2 2 2 2 2 32 32 32 32 32 32 2 2 2 2 2 2 2 2 2 2 2 2 32 32 32 32 2 2 2 2 32 32 32 2 2 2 2 2 2 2 2 2 2 2 2 2 2 2 2 2 2 2 2 2 2 2 2 2 2 2 2 2 2 2 2 2 2 2 2 2 2 2 2 101 101 101 101 101 101 32 32 32 32 2 2 101 101 101 101 101 32 32 32 101 32 32 32 101 101 101 101 101 101 101 101 101 101 101 101 101 101 101 32 32 32 32 2 2 2 2 2 2 2 2 2 2 2 2 2 2 2 2 2 2 2 2 2 2 2 2 2 2 2 2 2 2 2 2 2 2 2 2 2 2 2 2 2 2 2 2 2 2 2 2 2 2 2 2 2 2 2 2 2 2 2 2 2 2 2 2 2 2 2 2 2 2 2 2 2 2 2 2 2 2 2 2 2 2 2 2 2 2 2 2 2 2 2 2 2 2 2 2 2 2 2 2 2 2 2 2 2 32 32 2 2 2 2 2 2 2 2 2 2 2 2 2 2 2 2 2 2 2 2 2 2 2 2 2 2 2 2 2 2 2 2 2 2 2 2 32 2 2 2 2 2 2 2 2 2 2 2 2 2 2 2 2 2 2 2 2 2 2 2 2 2 2 2 2 2 2 2 2 2 2 2 2 2 2
2 2 2 2 2 2 2 2 2 32 32 32 2 2 2 2 2 2 2 2 2 2 2 2 32 32 2 2 2 2 2 2 2 32 32 2 2 2 2 2 2 2 2 2 2 2 2 2 2 2 2 2 2 2 2 2 2 2 2 2 2 2 2 2 2 2 2 2 32 32 2 2 2 2 2 32 32 101 101 101 101 101 101 32 32 32 2 2 32 32 2 2 32 101 32 32 32 32 32 101 101 101 101 101 101 101 101 101 101 101 32 101 101 101 2 32 32 32 2 2 2 2 2 2 2 2 2 2 2 2 2 2 2 2 2 2 2 2 2 2 2 2 2 2 2 2 2 2 2 2 2 2 2 2 2 2 2 2 2 2 2 2 2 2 2 2 2 2 2 2 2 2 2 2 2 2 2 2 2 2 2 2 2 2 2 2 2 2 2 2 2 2 2 2 2 2 2 2 2 2 2 2 2 2 2 2 2 2 2 2 2 2 2 2 2 2 2 2 2 2 2 2 2 2 32 32 2 2 2 2 2 2 2 2 2 2 2 2 2 2 2 2 2 2 2 2 2 2 2 2 2 2 2 2 2 2 2 2 2 2 2 2 2 2 2 2 2 2 2 2 2 2 2 2 2 2 2 2 2 2 2 2 2 2 2 2 2 2 2 2 2 32 2 2 2 2 2 2 2 2
2 32 2 2 2 2 2 2 32 32 32 2 2 2 2 2 2 2 2 2 2 2 32 32 32 2 2 2 2 2 2 2 2 2 32 2 2 2 2 2 2 2 2 2 2 2 2 2 2 32 32 2 2 2 2 2 2 2 2 2 2 2 2 2 2 2 2 2 32 32 32 2 2 2 2 2 32 101 101 101 101 101 101 101 101 101 32 32 32 2 2 32 32 101 101 101 101 32 101 101 101 101 32 32 32 32 32 101 101 101 101 101 101 2 2 2 32 32 2 2 2 2 2 2 2 2 2 2 2 2 2 2 2 2 2 2 2 2 2 2 2 2 2 2 2 2 2 2 2 2 2 2 2 2 2 2 2 2 2 2 2 2 2 2 2 2 2 2 2 2 2 2 2 2 2 2 2 2 2 2 2 2 2 2 2 2 2 2 2 2 2 2 2 2 2 2 2 2 2 2 2 2 2 2 2 2 2 2 2 2 2 2 2 2 2 2 2 2 2 2 2 2 2 2 2 2 2 2 2 2 2 2 2 2 2 2 2 2 2 2 2 2 2 2 2 2 2 2 2 2 2 2 2 2 2 2 2 2 2 2 2 2 2 2 2 2 2 2 2 2 2 2 2 2 2 2 2 2 2 2 2 2 2 2 2 2 2 2 2 2 2 2 2 2 2 2 2 2 2 2
2 32 32 32 2 2 2 2 32 2 2 2 2 2 2 2 2 2 2 2 2 2 32 32 2 2 2 2 2 2 2 2 2 2 2 2 2 2 2 2 2 2 2 2 2 2 2 2 32 32 32 32 2 2 32 2 2 2 2 2 2 2 2 2 2 2 2 2 32 32 32 32 32 2 2 2 32 101 32 101 101 101 101 101 101 101 101 101 101 32 101 101 32 32 101 101 101 101 101 32 32 32 32 32 101 101 101 101 101 101 101 101 101 2 2 2 32 32 2 2 2 2 2 2 2 2 2 2 2 2 2 2 2 2 2 2 2 2 2 2 2 2 2 2 2 2 2 2 2 2 2 2 2 2 2 2 2 2 2 2 2 2 2 2 2 2 2 2 2 2 2 2 2 2 2 2 2 2 2 2 2 2 2 2 2 2 2 2 2 2 2 2 2 2 2 2 2 2 2 2 2 2 2 2 2 2 2 2 2 2 2 2 2 2 2 2 2 2 2 2 2 2 2 2 2 2 2 2 2 2 2 2 2 2 2 2 2 2 2 2 2 2 2 2 2 2 2 2 2 2 2 2 2 2 2 2 2 2 2 2 2 2 2 2 2 2 2 2 2 2 2 2 2 2 2 2 2 2 2 2 2 2 2 2 2 2 2 2 2 2 2 2 2 2 2 2 2 2 2 2
2 32 101 32 2 2 2 2 2 2 2 2 2 2 2 2 2 2 2 2 2 2 2 2 2 2 2 2 2 2 2 2 2 2 2 2 2 2 2 2 2 2 2 2 2 2 2 2 2 2 2 32 2 2 2 2 2 2 2 2 2 2 2 2 2 2 2 2 2 2 32 32 32 32 2 2 2 32 32 32 32 32 32 101 101 101 101 101 101 32 32 32 101 101 101 101 101 101 101 101 32 32 32 32 101 101 101 101 101 101 101 101 2 2 2 32 32 32 2 2 2 2 2 2 2 2 2 2 2 2 2 2 2 2 2 2 2 2 2 2 2 2 2 2 2 2 2 2 2 2 2 32 2 2 2 2 2 2 2 2 2 2 2 2 2 2 2 2 2 2 2 2 2 2 2 2 2 2 2 2 2 2 2 2 2 2 2 2 2 2 2 2 2 2 2 2 2 2 2 2 2 2 2 2 2 2 2 2 2 2 2 2 2 2 2 2 2 2 2 2 2 2 2 2 2 2 2 2 2 2 2 2 2 2 2 2 2 2 2 2 2 2 2 2 2 2 2 2 2 2 2 2 2 2 2 2 2 2 2 2 2 2 2 2 2 2 2 2 2 2 2 2 2 2 2 2 2 2 2 2 2 2 2 2 2 2 2 2 2 2 2 2 2 2 2 2 2 2 2 2
2 2 32 32 2 2 2 2 2 2 2 2 2 2 2 2 2 2 2 2 2 2 2 2 2 2 2 2 2 2 2 2 2 2 2 2 2 2 2 2 2 2 2 2 2 2 2 2 2 2 2 2 2 2 2 2 2 2 2 2 2 2 2 2 2 2 2 2 32 32 2 32 32 32 32 32 2 2 2 32 32 2 32 101 101 101 101 101 32 2 32 101 101 101 101 101 101 101 101 101 101 32 32 101 101 101 101 101 32 101 101 101 2 2 2 32 32 32 2 2 2 2 2 32 101 32 2 2 2 2 2 2 2 2 2 2 2 2 2 2 2 2 2 2 2 2 2 2 2 2 2 32 2 2 2 2 2 2 2 2 2 2 2 2 2 2 2 2 2 2 2 2 2 2 2 2 2 2 2 2 2 2 2 2 2 2 2 2 2 2 2 2 2 2 2 2 2 2 2 2 2 2 2 2 2 2 2 2 2 2 2 2 2 2 2 2 2 2 2 2 2 2 2 2 2 2 2 2 2 2 2 2 2 2 2 2 2 2 2 2 2 2 2 2 2 2 2 2 2 2 2 2 2 2 2 2 2 2 2 2 2 2 2 2 2 2 2 2 2 2 2 2 2 2 2 2 2 2 2 2 2 2 2 2 2 2 2 2 2 2 2 2 2 2 2 2 2 2 2 2
2 2 32 2 2 2 2 2 2 2 2 2 2 2 2 2 2 2 2 2 2 2 2 2 2 2 2 2 2 2 2 2 2 2 2 2 2 2 2 2 2 2 2 2 2 2 2 2 2 2 2 2 2 2 2 2 2 2 2 2 2 2 2 2 2 2 2 32 32 32 32 32 32 32 32 32 32 2 2 2 32 32 32 32 101 101 32 101 32 32 101 101 101 101 101 101 101 32 32 101 101 101 101 101 101 101 101 101 101 101 101 32 2 2 2 32 32 32 32 32 32 32 32 101 101 101 2 2 2 2 2 2 2 2 2 2 2 2 2 2 2 2 2 2 2 2 2 2 2 2 2 2 2 2 2 2 2 2 2 2 2 2 2 2 2 2 2 2 2 2 2 2 2 2 2 2 2 2 2 2 2 2 2 2 2 2 2 2 2 2 2 2 2 2 2 2 2 2 2 2 2 2 2 2 2 2 2 2 2 2 2 2 2 2 2 2 2 2 2 2 2 2 2 2 2 2 2 2 2 2 2 2 2 2 2 2 2 2 2 2 2 2 2 2 2 2 2 2 2 2 2 2 2 2 2 2 2 2 2 2 2 2 2 2 2 2 2 2 2 2 2 2 2 2 2 2 2 2 2 2 2 2 2 2 2 2 2 2 2 2 2 2 2 2 2 2 2 2 2 2
2 2 32 32 2 2 2 2 2 2 2 2 2 2 2 2 2 2 2 2 2 2 2 2 2 2 2 2 2 2 2 2 2 2 2 2 2 2 2 2 2 2 2 2 2 2 2 2 2 2 2 2 2 2 2 2 2 2 2 2 2 2 2 2 2 2 32 32 2 32 2 2 2 32 32 32 32 32 2 2 32 101 32 32 101 32 32 101 32 101 101 101 101 101 101 101 101 2 2 32 101 101 101 101 101 101 101 101 101 101 101 2 2 2 2 32 32 2 32 32 2 2 32 32 32 32 2 2 32 32 32 2 2 2 2 2 2 2 2 2 2 2 2 2 2 2 2 2 2 2 2 2 2 2 32 32 32 2 2 2 2 2 2 2 2 2 2 2 2 2 2 2 2 2 2 2 2 2 2 2 2 2 2 2 2 2 2 2 2 2 2 2 2 2 2 2 2 2 2 2 2 2 2 2 2 2 2 2 2 2 2 2 2 2 2 2 2 2 2 2 2 2 2 2 2 2 2 2 2 2 2 2 2 2 2 2 2 2 2 2 2 2 2 2 2 2 2 2 2 2 2 2 2 2 2 2 2 2 2 2 2 2 2 2 2 2 2 2 2 2 2 2 2 2 2 2 2 2 2 2 2 2 2 2 2 2 2 2 2 2 2 2 2 2 2 2 2 2 2 2
2 2 32 32 2 2 2 2 2 2 2 2 2 2 2 2 2 2 2 2 2 2 2 2 2 2 2 2 2 2 2 2 2 2 2 2 2 2 2 2 2 2 2 2 2 2 32 32 2 2 2 2 2 2 2 2 2 2 2 2 2 2 2 2 2 2 2 32 2 2 2 2 2 2 2 32 32 32 2 32 32 101 101 32 32 32 32 32 101 101 101 101 101 101 101 101 32 32 2 2 101 101 101 101 101 101 101 101 101 101 32 2 2 2 2 2 2 2 2 2 2 2 2 2 2 2 2 32 32 32 32 32 32 32 2 2 2 2 2 2 2 2 2 2 2 2 2 2 2 2 2 2 2 2 32 32 32 2 2 2 2 2 2 2 2 2 2 2 2 2 2 2 2 2 2 2 2 2 2 2 2 2 2 2 2 2 2 2 2 2 2 2 2 2 2 2 2 2 2 2 2 2 2 2 2 2 2 2 2 2 2 2 2 2 2 2 2 2 2 2 2 2 2 2 2 2 2 2 2 2 2 2 2 2 2 2 2 2 2 2 2 2 2 2 2 2 2 2 2 2 2 2 2 2 2 2 2 2 2 2 2 2 2 2 2 2 2 2 2 2 2 2 2 2 2 2 2 2 2 2 2 2 2 2 2 2 2 2 2 2 2 2 2 2 2 2 2 2 2 2
2 2 2 2 2 2 2 2 2 2 2 2 2 2 2 2 2 2 2 2 2 2 2 2 2 2 2 2 2 2 2 2 2 2 2 2 2 2 2 2 2 2 2 2 2 2 32 32 2 2 2 2 2 2 2 2 2 2 2 2 2 2 2 2 2 2 2 2 2 2 2 32 2 2 2 32 32 32 32 32 32 101 101 101 101 101 101 32 101 101 101 101 101 101 101 101 101 32 101 32 32 101 101 101 101 101 101 101 101 101 32 32 2 2 2 2 2 2 2 2 2 2 2 2 2 2 2 2 2 2 2 32 32 32 32 2 2 2 2 2 2 2 2 2 2 2 2 2 2 2 2 2 2 2 32 32 2 2 2 2 2 2 2 2 2 2 2 2 2 2 2 2 2 2 2 2 2 2 2 2 2 2 2 2 2 2 2 2 2 2 2 2 2 2 2 2 2 2 2 2 2 2 2 2 2 2 2 2 2 2 2 2 2 2 2 2 2 2 2 2 2 2 2 2 2 2 2 2 2 2 2 2 2 2 2 2 2 2 2 2 2 2 2 2 2 2 2 2 2 2 2 2 2 2 2 2 2 2 2 2 2 2 2 2 2 2 2 2 2 2 2 2 2 2 2 2 2 2 2 2 2 2 2 2 2 2 2 2 2 2 2 2 2 2 2 2 2 2 2 2
2 2 2 2 2 2 2 2 2 2 2 2 2 2 2 2 2 2 2 2 2 2 2 2 2 2 2 2 2 2 2 2 2 2 2 2 2 2 2 2 2 2 2 2 2 2 2 2 2 2 2 2 2 2 2 2 2 2 2 2 2 2 2 2 2 2 2 2 2 2 2 32 32 2 2 2 32 32 32 101 32 32 101 101 101 101 101 101 101 101 101 101 101 101 101 101 101 101 101 101 101 101 101 101 101 101 101 101 101 101 32 2 2 2 2 2 2 2 2 2 2 2 2 2 2 2 2 2 2 2 2 2 2 2 32 2 2 2 2 2 2 2 2 2 2 2 2 2 2 2 2 2 2 2 2 32 2 2 2 2 2 2 2 2 2 2 2 2 2 2 2 2 2 2 2 2 2 2 2 2 2 2 2 2 2 2 2 2 2 2 2 2 2 2 2 2 2 2 2 2 2 2 2 2 2 2 2 32 2 2 2 2 2 2 2 2 2 2 2 2 2 2 2 2 2 2 2 2 2 2 2 2 2 2 2 2 2 2 2 2 2 2 2 2 2 2 2 2 2 2 2 2 2 2 2 2 2 2 2 2 2 2 2 2 2 2 2 2 2 2 2 2 2 2 2 2 2 2 2 2 2 2 2 2 2 2 2 2 2 2 2 2 2 2 2 2 2 2 2 2
2 2 2 2 2 2 2 2 2 2 2 2 2 2 2 2 2 2 2 2 2 2 2 2 2 2 2 2 2 2 2 2 32 2 2 2 2 2 2 2 2 2 2 2 2 32 2 2 2 2 2 2 2 2 2 2 2 2 2 2 2 2 2 2 2 2 2 2 2 32 32 32 32 32 2 2 2 32 32 101 32 32 101 32 32 101 101 101 101 101 101 32 101 101 101 101 101 101 101 101 101 101 101 101 101 101 101 101 101 101 32 2 2 2 2 2 2 2 2 2 2 2 2 2 2 2 32 2 2 2 2 2 2 2 2 2 2 2 2 2 2 2 2 2 2 2 2 2 2 2 2 2 2 2 2 2 2 2 2 2 2 2 2 2 2 2 2 2 2 2 2 2 2 2 2 2 2 2 2 2 2 2 2 2 2 2 2 2 2 2 2 2 2 2 2 2 2 2 2 2 2 2 2 2 2 2 2 32 2 2 2 2 2 2 2 2 2 2 2 2 2 2 2 2 2 2 2 2 2 2 2 2 2 2 2 2 2 2 2 2 2 2 2 2 2 2 2 2 2 2 2 2 2 2 2 2 2 2 2 2 2 2 2 2 2 2 2 2 2 2 2 2 2 2 2 2 2 2 2 2 2 2 2 2 2 2 2 2 2 2 2 2 2 2 2 2 2 2 2 2
2 2 2 2 2 2 2 2 2 2 2 2 2 2 2 2 2 2 2 2 2 2 2 2 2 2 2 2 2 2 2 2 2 2 2 2 2 2 2 2 2 2 2 32 32 32 32 2 2 2 2 2 2 32 2 2 2 2 2 2 2 2 2 2 2 2 2 2 2 2 32 32 32 32 32 2 32 32 32 32 32 32 32 32 32 101 32 101 101 101 101 101 101 101 101 101 101 101 101 101 101 101 101 101 101 101 101 101 101 101 101 2 2 2 2 2 2 2 2 2 2 2 2 2 2 2 32 2 2 2 2 2 2 2 2 2 2 2 2 2 2 2 2 2 2 2 2 2 2 2 2 2 2 2 2 2 2 2 2 2 2 2 2 2 2 2 2 2 2 2 2 2 2 2 2 2 2 2 2 2 2 2 2 2 2 2 2 2 2 2 2 2 2 2 2 2 2 2 2 2 2 2 2 2 2 2 2 2 2 2 2 2 2 2 2 2 2 2 2 2 2 2 2 2 2 2 2 2 2 2 2 2 2 2 2 2 2 2 2 2 2 2 2 2 2 2 2 2 2 2 2 2 2 2 2 2 2 2 2 2 2 2 2 2 2 2 2 2 2 2 2 2 2 2 2 2 2 2 2 2 2 2 2 2 2 2 2 2 2 2 2 2 2 2 2 2 2 2 2 2
2 2 2 2 2 2 2 32 2 2 2 2 2 2 2 2 2 2 2 2 2 2 2 2 2 2 2 2 2 2 2 2 2 2 2 2 2 2 2 2 2 2 32 32 32 32 32 2 2 2 2 2 32 32 2 2 2 2 2 2 2 2 2 2 2 2 2 2 2 2 2 32 32 32 32 32 101 32 2 2 32 32 32 32 101 101 101 101 101 101 32 101 101 101 101 101 101 101 101 101 101 101 101 101 101 101 101 101 101 101 32 32 2 2 2 2 2 2 2 2 2 2 2 2 2 2 2 2 2 2 2 2 2 2 2 2 2 2 2 2 2 2 2 2 2 2 2 2 2 2 2 2 2 2 2 2 2 2 2 2 2 2 2 2 2 2 2 2 2 2 2 2 2 2 2 2 2 2 2 2 2 2 2 2 2 2 2 2 2 2 2 2 2 2 2 2 2 2 2 2 2 2 2 2 2 2 2 2 2 2 2 2 2 2 2 2 2 2 2 2 2 2 2 2 2 2 2 2 2 2 2 2 2 2 2 2 2 2 2 2 2 2 2 2 2 2 2 2 2 2 2 2 2 2 2 2 2 2 2 2 2 2 2 2 2 2 2 2 2 2 2 2 2 2 2 2 2 2 2 2 2 2 2 2 2 2 2 2 2 2 2 2 2 2 2 2 2 2 2 2
2 2 2 2 2 2 2 2 2 2 2 2 2 2 2 2 2 2 2 2 2 2 2 2 2 2 2 2 2 2 2 2 2 2 2 2 2 2 2 2 2 32 32 32 32 2 2 2 2 2 32 32 32 32 2 2 2 32 32 32 2 2 2 2 2 2 2 2 2 2 32 101 101 32 32 101 101 32 32 32 32 32 32 32 101 101 101 101 101 101 32 32 32 101 101 101 101 101 101 101 101 101 101 101 101 32 32 32 101 101 32 32 2 2 2 2 2 2 2 2 2 2 2 2 2 2 2 2 2 2 2 2 2 2 2 2 2 2 2 2 2 2 2 2 2 2 2 2 2 2 2 2 2 2 2 2 2 2 2 2 2 2 2 2 2 2 2 2 2 2 2 2 2 2 2 2 2 2 2 2 2 2 2 2 2 2 2 2 2 2 2 2 2 2 2 2 2 2 2 2 2 2 2 2 2 2 2 2 2 2 2 2 2 2 2 2 2 2 2 2 2 2 2 2 2 2 2 2 2 2 2 2 2 2 2 2 2 2 2 2 2 2 2 2 2 2 2 2 2 2 2 2 2 2 2 2 2 2 2 2 2 2 2 2 2 2 2 2 2 2 2 2 2 2 2 2 2 2 2 2 2 2 2 2 2 2 2 2 2 2 2 2 2 2 2 2 2 2 2 2
2 2 2 2 2 32 2 2 2 2 2 2 2 2 2 2 2 2 2 2 2 2 2 2 2 2 2 2 2 2 32 2 2 2 2 2 2 2 2 2 32 101 32 32 2 2 2 2 2 32 32 32 32 2 2 2 32 2 2 32 2 2 2 2 2 2 2 2 2 32 101 101 101 32 32 32 32 32 32 32 32 32 32 32 32 101 101 101 101 32 2 32 101 101 101 101 101 101 101 101 101 101 101 101 101 32 101 101 101 101 32 32 32 2 2 2 2 2 2 2 2 2 2 2 2 2 2 2 2 2 2 2 2 2 2 2 2 2 2 2 2 2 2 2 2 2 2 2 2 2 2 2 2 2 2 2 2 2 2 2 2 2 2 2 2 2 2 2 2 2 2 2 2 2 2 2 2 2 2 2 2 2 2 2 2 2 2 2 2 2 2 2 2 2 2 2 2 2 2 2 2 2 2 2 2 2 2 2 2 2 2 2 2 2 2 2 2 2 2 2 2 2 2 2 2 2 2 2 2 2 2 2 2 2 2 2 2 2 2 2 2 2 2 2 2 2 2 2 2 2 2 2 2 2 2 2 2 2 2 2 2 2 2 2 2 2 2 2 2 2 2 2 2 2 2 2 2 2 2 2 2 2 2 2 32 2 2 2 2 2 2 2 2 2 2 2 2 2 2 2
2 2 32 32 32 32 2 2 2 2 2 2 2 2 2 2 2 2 2 2 2 2 2 2 2 2 2 2 2 2 32 32 2 2 2 32 2 2 2 2 32 101 32 2 2 2 2 2 32 32 32 2 2 2 2 32 2 2 2 2 32 2 2 2 2 2 2 32 101 101 101 101 101 32 32 32 32 32 32 32 32 32 32 101 101 101 101 101 32 32 32 101 101 101 101 101 101 101 101 32 101 101 101 101 101 101 101 101 101 101 101 32 32 2 2 2 2 2 2 2 2 2 2 2 2 2 2 2 2 2 2 2 2 2 2 2 2 2 2 2 2 2 2 2 2 2 2 2 2 2 2 2 2 2 2 2 2 2 2 2 2 2 2 2 2 2 2 2 2 2 2 2 2 2 2 2 2 2 2 2 2 2 2 2 2 2 2 2 2 2 2 2 2 2 2 2 2 2 2 2 2 2 2 2 2 2 2 2 2 2 2 2 2 2 2 2 2 2 2 2 2 2 2 2 2 2 2 2 2 2 2 2 2 2 2 2 2 2 2 2 2 2 2 2 2 2 2 2 2 2 2 2 2 2 2 2 2 2 2 2 2 2 2 2 2 2 2 2 2 2 2 2 2 2 2 2 2 2 2 2 2 2 2 2 32 32 2 2 2 2 2 2 2 2 2 2 2 2 2 2
32 32 32 32 32 2 2 2 2 2 2 2 2 2 2 2 2 2 2 2 2 2 2 2 2 2 2 2 2 2 32 32 2 2 2 2 2 32 2 32 101 32 32 2 2 2 2 2 2 2 2 2 2 32 32 2 2 2 2 2 2 32 2 2 2 2 32 101 101 101 101 101 101 32 32 32 101 101 101 32 32 101 101 101 101 101 101 101 32 32 32 101 32 101 32 32 101 101 101 101 101 101 101 101 101 101 101 101 101 101 32 32 32 2 2 2 2 2 2 2 2 2 2 2 2 2 2 2 2 2 2 2 2 2 2 2 2 2 2 2 2 2 2 2 2 2 2 2 2 2 2 2 2 2 2 2 2 2 2 2 2 2 2 2 2 2 2 2 2 2 2 2 2 2 2 2 2 2 2 2 2 2 2 2 2 2 2 2 2 2 2 2 2 2 2 2 2 2 2 2 2 2 2 2 2 2 2 2 2 2 2 2 2 2 2 2 2 2 2 2 2 2 2 2 2 2 2 2 2 2 2 2 2 2 2 2 2 2 2 2 2 2 2 2 2 2 2 2 2 2 2 2 2 2 2 2 2 2 2 2 2 2 2 2 2 2 2 2 2 2 2 2 2 2 2 2 2 2 2 2 2 2 2 2 2 32 2 2 2 2 2 2 2 2 2 2 2 2 2 2
32 32 32 32 2 2 2 2 2 2 2 2 2 2 2 2 2 2 2 32 32 2 2 2 2 2 2 2 2 2 2 32 2 2 32 2 2 32 32 32 32 2 2 2 2 2 2 2 2 2 2 2 32 32 2 2 2 2 2 2 2 32 32 2 2 32 32 101 101 101 101 101 101 32 32 32 101 101 101 101 101 101 101 101 101 101 101 101 101 101 101 101 32 32 32 101 101 101 101 101 101 101 32 101 32 101 101 101 101 101 101 101 32 2 2 2 2 2 2 2 2 2 2 2 2 2 2 2 2 2 2 2 2 2 2 2 2 2 2 2 2 2 2 2 2 2 2 2 2 2 2 2 2 2 2 2 2 2 2 2 2 2 2 2 2 2 2 2 2 2 2 2 2 2 2 2 2 2 2 2 2 2 2 2 2 2 2 2 2 2 2 2 2 2 2 2 2 2 2 2 2 2 2 2 2 2 2 2 2 2 2 2 2 2 2 2 2 2 2 2 2 2 2 2 2 2 2 2 2 2 2 2 2 2 2 2 2 2 2 2 2 2 2 2 2 2 2 2 2 2 2 2 2 2 2 2 2 2 2 2 2 2 2 2 2 2 2 2 2 2 2 2 2 2 2 2 2 2 2 2 2 2 2 2 2 2 2 2 2 2 2 2 2 2 2 2 2 2 2 2
32 32 2 2 2 2 2 2 2 2 2 2 2 2 2 2 2 2 2 2 32 32 2 2 2 2 2 2 2 2 2 2 2 2 2 2 2 2 32 32 32 2 2 2 2 2 2 2 32 2 2 32 32 2 2 2 2 2 2 2 2 2 32 32 32 32 32 101 101 101 101 101 101 101 101 101 101 101 101 101 101 101 101 101 101 101 101 101 32 32 101 101 101 101 101 101 101 101 101 101 101 32 32 32 101 101 101 101 101 101 101 101 101 32 2 2 2 2 2 2 2 2 2 2 2 2 2 2 2 2 2 2 2 2 2 2 2 2 2 2 2 2 2 2 2 2 2 2 2 2 2 2 2 2 2 2 2 2 2 2 2 2 2 2 2 2 2 2 2 2 2 2 2 2 2 2 2 2 2 2 2 2 2 2 2 2 2 2 2 2 2 2 2 2 2 2 2 2 2 2 2 2 2 2 2 2 2 2 2 2 2 2 2 2 2 2 2 2 2 2 2 2 2 2 2 2 2 2 2 2 2 2 2 2 2 2 2 2 2 2 2 2 2 2 2 2 2 2 2 2 2 2 2 2 2 2 2 2 2 2 2 2 2 2 2 2 2 2 2 2 2 2 2 2 2 2 2 2 2 2 2 2 2 2 2 2 2 2 2 2 2 2 2 2 2 2 2 2 2 2
32 2 2 2 2 2 2 2 2 2 2 2 2 2 2 2 2 2 2 2 32 2 2 2 2 2 2 2 2 2 2 2 2 2 2 2 2 2 2 2 2 2 2 2 2 2 2 2 32 32 2 2 2 2 2 2 2 2 2 2 2 2 2 32 32 2 32 32 101 101 101 101 101 101 101 32 101 101 101 101 101 101 101 101 101 101 101 32 32 101 101 101 101 101 101 101 101 101 101 101 101 101 101 32 32 101 101 101 101 101 101 101 32 101 32 2 2 2 2 2 2 2 2 2 2 2 2 2 2 2 2 2 2 2 2 2 2 2 2 2 2 2 2 2 2 2 2 2 2 2 2 2 2 2 2 2 2 2 2 2 2 2 2 2 2 2 2 2 2 2 2 2 2 2 2 2 2 2 2 2 2 2 2 2 2 2 2 2 2 2 2 2 2 2 2 2 2 2 2 2 2 2 2 2 2 2 2 2 2 2 2 2 2 2 2 2 2 2 2 2 2 2 2 2 2 2 2 2 2 2 2 2 2 2 2 2 2 2 2 2 2 2 2 2 2 2 2 2 2 2 2 2 2 2 2 2 2 2 2 2 2 2 2 2 2 2 2 2 2 2 2 2 2 2 2 2 2 2 2 2 2 2 2 2 2 2 2 2 2 2 2 2 2 2 2 2 2 2 2 2
2 2 2 2 2 2 2 2 2 2 2 2 2 2 2 2 2 2 2 2 2 2 2 2 2 2 2 2 2 2 2 2 2 2 2 2 2 2 2 2 2 2 2 2 2 2 2 2 32 2 2 2 2 2 2 2 2 2 2 2 2 2 32 32 2 2 2 2 32 101 101 101 101 101 101 101 101 101 101 101 101 101 101 101 101 101 101 101 101 101 101 101 101 101 101 101 101 101 101 101 101 101 101 101 101 101 101 101 101 101 101 101 101 101 32 2 2 2 2 2 2 2 2 2 2 2 2 2 2 2 2 2 2 2 2 2 2 2 2 2 2 2 2 2 2 2 2 2 2 2 2 2 2 2 2 2 2 2 2 2 2 2 2 2 2 2 2 2 2 2 2 2 2 2 2 2 2 2 2 2 2 2 2 2 2 2 2 2 2 2 2 2 2 2 2 2 2 2 2 2 2 2 2 2 2 2 2 2 2 2 2 2 2 2 2 2 2 2 2 2 2 2 2 2 2 2 2 2 2 2 2 2 2 2 2 2 2 2 2 2 2 2 2 2 2 2 2 2 2 2 2 2 2 2 2 2 2 2 2 2 2 2 2 2 2 2 2 2 2 2 2 2 2 2 2 2 2 2 2 2 2 2 2 2 2 2 2 2 2 2 2 2 2 2 2 2 2 2 2 2
2 2 2 2 2 2 2 2 2 2 2 2 2 2 2 2 2 2 2 32 2 2 2 2 2 2 2 2 2 2 2 2 2 2 2 2 2 2 2 2 2 2 2 2 2 2 2 2 2 2 2 2 2 2 2 2 2 2 2 2 2 32 32 32 2 2 2 2 2 32 101 101 101 101 101 101 101 101 101 101 101 101 101 101 101 101 101 101 101 101 101 101 101 101 101 101 101 32 101 101 101 101 101 101 101 101 101 101 101 32 101 101 32 32 2 2 2 2 2 2 2 2 2 2 2 2 2 2 2 2 2 2 2 2 2 2 2 2 2 2 2 2 2 2 2 2 2 2 2 2 2 2 2 2 2 2 2 2 2 2 2 2 2 2 2 2 2 2 2 2 2 2 2 2 2 2 2 2 2 2 2 2 2 2 2 2 2 2 2 2 2 2 2 2 2 2 2 2 2 2 2 2 2 2 2 2 2 2 2 2 2 2 2 2 2 2 2 2 2 2 2 2 2 2 2 2 2 2 2 2 2 32 2 2 2 2 2 2 2 2 2 2 2 2 2 2 2 2 2 2 2 2 2 2 2 2 2 2 2 2 2 2 2 2 2 2 2 2 2 2 2 2 2 2 2 2 2 2 2 2 2 2 2 2 2 2 2 2 2 2 2 2 2 2 2 2 2 2 2 2
2 2 2 2 2 2 2 2 2 2 2 2 2 2 2 2 32 2 2 2 2 2 2 2 2 2 2 2 2 2 2 2 2 2 2 2 2 2 2 2 2 2 2 2 2 2 2 2 2 2 2 2 2 2 2 2 2 2 2 2 32 32 32 2 2 2 2 2 2 32 101 101 101 101 101 101 101 101 101 101 101 101 101 101 101 101 32 32 32 101 101 101 101 101 101 101 101 101 101 101 101 101 101 101 101 101 101 101 101 101 101 101 32 32 2 2 2 2 2 2 2 2 2 2 2 2 2 2 2 2 2 2 2 2 2 2 2 2 2 2 2 2 2 2 2 2 2 2 2 2 2 2 2 2 2 2 2 2 2 2 2 2 2 2 2 2 2 2 2 2 2 2 2 2 2 2 2 2 2 2 2 2 2 2 2 2 2 2 2 2 2 2 2 2 2 2 2 2 2 2 2 2 2 2 2 2 2 2 2 2 2 2 2 2 2 2 2 2 2 2 2 2 2 2 2 2 2 2 2 2 2 32 2 2 2 2 2 2 2 2 2 2 2 2 2 2 2 2 2 2 2 2 2 2 2 2 2 2 2 2 2 2 2 2 2 2 2 2 2 2 2 2 2 2 2 2 2 2 2 2 2 2 2 2 2 2 2 2 2 2 2 2 2 2 2 2 2 2 2 2
2 2 2 2 2 2 2 2 2 2 2 2 2 2 2 2 2 2 2 2 2 2 2 2 2 2 2 2 2 2 2 2 2 2 2 2 2 2 2 2 2 2 2 32 32 2 2 2 2 2 2 2 2 2 2 2 2 2 2 32 32 32 32 2 2 2 2 2 32 101 101 101 101 101 101 101 101 101 101 101 101 101 101 101 101 32 32 32 32 101 101 101 101 101 101 101 101 32 101 101 101 101 101 101 101 101 101 101 101 101 101 101 32 32 2 2 2 2 2 2 2 2 2 2 2 2 2 2 2 2 2 2 2 2 2 2 2 2 2 2 2 2 2 2 2 2 2 2 2 2 2 2 2 2 2 2 2 2 2 2 2 2 2 2 2 2 2 2 2 2 2 2 2 2 2 2 2 2 2 2 2 2 2 2 2 2 2 2 2 2 2 2 2 2 2 2 2 2 2 2 2 2 2 2 2 2 2 2 2 2 2 2 2 2 2 2 2 2 2 2 2 2 2 2 2 2 2 2 2 2 2 2 2 2 2 2 2 2 2 2 2 2 2 2 2 2 2 2 2 2 2 2 2 2 2 2 2 2 2 2 2 2 2 2 2 2 2 2 2 2 2 2 2 2 2 2 2 2 2 2 2 2 2 2 2 2 2 2 2 2 2 2 2 2 2 2 2 2 2 2
2 2 2 2 2 2 2 2 2 2 2 2 2 2 2 2 2 2 2 2 2 2 2 2 2 2 2 2 2 2 2 2 2 2 2 2 2 2 2 2 2 2 32 32 32 32 2 2 2 2 2 2 2 2 2 2 2 2 32 32 32 32 32 32 2 2 2 2 32 101 101 101 101 101 101 101 101 32 101 101 101 101 101 101 101 101 101 101 101 101 101 101 101 101 101 101 101 101 32 101 101 101 101 101 101 101 101 101 101 101 101 32 32 32 32 2 2 2 2 2 2 2 2 2 2 2 2 2 2 2 2 2 2 2 2 2 2 2 2 2 2 2 2 2 2 2 2 2 2 2 2 2 2 2 2 2 2 2 2 2 2 2 2 2 2 2 2 2 2 2 2 2 2 2 2 2 2 2 2 2 2 2 2 2 2 2 2 2 2 2 2 2 2 2 2 2 2 2 2 2 2 2 2 2 2 2 2 2 2 2 2 2 2 2 2 2 2 2 2 2 2 2 2 32 2 2 2 2 2 2 2 2 2 2 2 2 2 2 2 2 2 2 2 2 2 2 2 2 2 2 2 2 2 2 2 2 2 2 2 2 2 2 2 2 2 2 2 2 2 2 2 2 2 2 2 2 2 2 2 2 2 2 2 2 2 2 2 2 2 2 2 2 2 2 2 2 2 2 2 2
2 2 2 2 2 2 2 2 2 2 2 2 2 2 32 2 2 2 2 2 2 2 2 2 2 2 2 2 2 2 2 2 2 2 2 2 2 2 2 2 2 32 32 32 32 32 2 2 2 2 2 2 2 2 2 2 2 32 101 101 32 101 101 32 2 2 32 32 101 101 101 101 101 101 101 101 32 32 101 101 32 101 101 101 101 32 101 101 101 101 101 101 101 101 101 101 32 101 32 101 101 101 101 101 101 101 101 101 101 101 101 32 32 32 32 32 2 2 2 2 2 2 2 2 2 2 2 2 2 2 2 2 2 2 2 2 2 2 2 2 2 2 2 2 2 2 2 2 2 2 2 2 2 2 2 2 2 2 2 2 2 2 2 2 2 2 2 2 2 2 2 2 2 2 2 2 2 2 2 2 2 2 2 2 2 2 2 2 2 2 2 2 2 2 2 2 2 2 2 2 2 2 2 2 2 2 2 2 2 2 2 2 2 2 2 2 2 2 2 2 2 2 2 2 2 2 2 2 2 2 2 2 2 2 2 2 2 32 2 2 2 2 2 2 2 2 2 2 2 2 2 2 2 2 2 2 2 2 2 2 2 2 2 2 2 2 2 2 2 2 2 2 2 2 2 2 2 2 2 2 2 2 2 2 2 2 2 2 2 2 2 2 2 2 2 2 2 2 2 2
2 2 2 2 2 2 2 2 2 32 2 2 2 2 2 2 2 2 2 2 2 2 2 2 32 32 2 2 2 2 2 2 2 2 2 2 2 2 2 32 101 32 32 32 32 2 2 32 2 2 2 2 2 2 2 2 32 101 101 101 101 101 101 101 32 32 32 101 101 101 101 101 101 32 101 101 101 101 101 101 101 101 101 101 101 101 101 101 101 101 101 101 101 101 101 101 32 101 101 32 101 101 32 32 32 101 101 101 101 101 32 101 32 2 32 32 32 2 2 2 2 2 2 2 2 2 2 2 2 2 2 2 2 2 2 2 32 2 2 2 2 2 2 2 2 2 2 2 2 2 2 2 2 2 2 2 2 2 2 2 2 2 2 2 2 2 2 2 2 2 2 2 2 2 2 2 2 2 2 2 2 2 2 2 2 2 2 2 2 2 2 2 2 2 2 2 2 2 2 2 2 2 2 2 2 2 2 2 2 2 2 2 2 2 2 2 2 2 2 2 2 2 2 2 2 2 2 2 2 2 2 2 2 2 2 2 2 2 2 2 2 2 2 2 2 2 2 2 2 2 2 2 2 2 2 2 2 2 2 2 2 2 2 2 2 2 2 2 2 2 2 2 2 2 2 2 2 2 2 2 2 2 2 2 2 2 2 2 2 2 2 2 2 2 2 2 2 2 2 2
2 2 2 2 2 2 2 2 2 2 2 2 2 2 2 2 2 2 2 2 2 2 2 2 32 32 2 2 2 2 2 2 2 2 2 2 2 2 32 101 101 32 2 32 2 2 2 32 32 2 2 2 2 2 2 32 101 101 101 101 101 101 101 101 101 101 101 101 101 101 101 101 101 32 101 101 101 101 101 32 101 101 101 101 101 101 101 101 101 101 101 101 32 32 101 101 101 101 101 101 101 32 32 32 32 101 101 101 32 32 32 101 101 32 32 32 32 32 2 2 2 2 2 2 2 2 2 2 2 2 2 2 2 2 2 2 2 2 2 2 2 2 2 2 2 2 2 2 2 2 2 2 2 2 2 2 2 2 2 2 2 2 2 2 2 2 2 2 2 2 2 2 2 2 2 2 2 2 2 2 2 2 2 2 2 2 2 2 2 2 2 2 2 2 2 2 2 2 2 2 2 2 2 2 2 2 2 2 2 2 2 2 2 2 2 2 2 2 2 2 2 2 2 2 2 2 2 2 2 2 2 2 2 2 2 2 2 2 2 2 2 2 2 2 2 2 2 2 2 2 2 2 2 2 2 2 2 2 2 2 2 2 2 2 2 2 2 2 2 2 2 2 2 2 2 2 2 2 2 2 2 2 2 2 2 2 2 2 2 2 2 2 2 32 32 2 2 2 2 2
2 2 2 2 2 32 2 2 2 2 2 2 2 2 2 2 32 32 2 2 2 2 2 2 2 2 2 2 2 2 2 2 2 2 2 2 2 32 101 101 101 32 32 2 2 2 2 2 2 32 2 2 2 32 101 101 101 32 101 101 101 101 101 101 32 101 101 101 101 32 32 101 101 101 101 101 101 101 101 32 101 101 101 101 101 101 101 101 101 101 101 101 101 101 101 101 101 101 101 101 101 32 32 32 32 101 101 101 101 101 32 101 101 32 32 32 32 2 2 2 32 32 2 2 2 2 2 2 2 2 2 2 2 2 2 2 2 2 2 2 2 2 2 2 2 2 2 2 2 2 2 2 2 2 2 2 2 2 2 2 2 2 2 2 2 2 2 2 2 2 2 2 2 2 2 2 2 2 2 2 2 2 2 2 2 2 2 2 2 2 2 2 2 2 2 2 2 2 2 2 2 2 2 2 2 2 2 2 2 2 2 2 2 2 2 2 2 2 2 2 2 2 2 2 2 2 2 2 2 2 2 2 2 2 2 2 2 2 2 2 2 2 2 2 2 2 2 2 2 2 2 2 2 2 2 2 2 2 2 2 2 2 2 2 2 2 2 2 2 2 2 2 2 2 2 2 2 2 2 2 2 2 2 2 2 2 2 2 2 2 2 2 32 32 32 2 2 2 2 2
2 2 2 2 2 2 2 2 2 2 2 2 2 2 2 2 2 32 2 2 2 2 2 2 2 2 2 2 2 2 2 2 2 2 2 2 2 101 101 101 101 32 32 2 2 2 2 2 2 2 2 2 32 101 101 101 101 101 101 101 101 101 32 101 101 101 101 101 101 101 101 101 101 101 101 101 101 101 101 101 101 101 101 101 101 101 101 101 101 101 101 101 101 101 101 101 101 32 32 101 101 32 32 32 101 101 101 101 101 101 32 101 101 101 32 32 32 2 2 2 32 32 2 2 2 2 2 2 2 2 2 2 32 2 2 2 2 2 2 2 32 2 2 2 2 2 2 2 2 2 2 2 2 2 2 2 2 2 2 2 2 2 2 2 2 2 2 2 2 2 2 2 2 2 2 32 2 2 2 2 2 2 2 2 2 2 2 2 2 2 2 2 2 2 2 2 2 2 2 2 2 2 2 2 2 2 2 2 2 2 2 2 2 2 2 2 2 2 2 2 2 2 2 2 2 2 2 2 2 2 2 2 2 2 2 2 2 2 2 2 2 2 2 2 2 2 2 2 2 2 2 2 2 2 2 2 2 2 2 2 2 2 2 2 2 2 2 2 2 2 2 2 2 2 2 2 2 2 2 2 2 2 2 2 2 2 2 2 2 2 2 2 2 2 2 2 2 2 2 2
2 2 2 2 2 2 2 2 2 2 2 2 2 2 2 2 2 2 2 2 2 2 2 2 2 2 2 2 2 2 2 2 2 2 32 2 2 32 101 101 32 2 32 32 2 2 2 2 2 2 2 2 32 101 101 101 101 101 101 101 101 101 101 101 101 101 101 101 101 101 101 101 101 101 101 101 101 101 101 101 101 101 101 101 101 101 101 101 101 101 101 101 101 101 101 101 101 32 32 101 101 101 101 101 101 101 101 101 101 101 101 101 101 101 32 32 32 2 2 2 32 32 2 2 2 2 2 2 2 2 2 2 2 2 32 2 2 2 2 2 32 2 2 2 2 2 2 2 2 2 2 2 2 2 2 2 2 2 2 2 2 2 2 2 2 2 2 2 2 2 2 2 2 2 2 2 2 2 2 2 2 2 2 2 2 2 2 2 2 2 2 2 2 2 2 2 2 2 2 2 2 2 2 2 2 2 2 2 2 2 2 2 2 2 2 2 2 2 2 2 2 2 2 2 2 2 2 2 2 2 2 2 2 2 2 2 2 2 2 2 2 2 2 2 2 2 2 2 2 2 2 2 2 2 2 2 2 2 2 2 2 2 2 2 2 2 2 2 2 2 2 2 2 2 2 2 2 2 2 2 2 2 2 2 2 2 2 2 2 2 2 2 2 2 2 2 32 2 2 2
2 2 2 2 2 2 2 2 2 2 32 2 2 2 2 2 2 2 32 2 2 2 2 2 2 2 2 2 2 2 2 2 32 32 32 32 32 32 32 32 32 2 32 101 32 2 2 2 2 2 2 2 32 32 101 101 101 101 101 101 101 32 32 101 101 101 101 101 101 32 101 101 101 101 101 101 101 101 101 101 101 101 101 101 101 101 101 101 101 101 101 101 101 101 101 101 101 32 101 101 101 101 101 101 101 101 101 101 101 101 101 101 101 101 32 32 2 2 2 2 32 32 2 2 2 2 2 2 2 2 2 2 2 2 2 32 2 2 2 2 2 2 2 2 2 2 2 2 2 2 2 2 2 2 2 2 2 2 2 32 32 2 2 2 2 2 2 2 2 2 2 2 2 2 2 2 2 2 2 2 2 2 2 2 2 2 2 2 2 2 2 2 2 2 2 2 2 2 2 2 2 2 2 2 2 2 2 2 2 2 2 2 2 2 2 2 2 2 2 2 2 2 2 2 2 2 2 2 2 2 2 2 2 2 2 2 2 2 2 2 2 2 2 2 2 2 2 2 2 2 2 2 2 2 2 2 2 2 2 2 2 2 2 2 2 2 2 2 2 2 2 2 2 2 2 2 2 2 2 2 2 2 2 2 2 2 2 2 2 2 2 2 2 2 2 2 32 2 32 32
2 2 2 2 2 2 2 2 2 2 2 32 2 2 2 2 2 2 2 2 2 2 2 2 2 2 2 2 32 32 101 32 32 32 101 32 32 101 32 32 32 2 2 32 101 32 2 2 2 2 2 32 32 101 101 101 101 32 101 101 101 101 32 101 101 101 101 101 101 101 101 101 101 101 101 101 101 101 101 101 32 101 101 101 101 101 101 101 101 101 101 101 101 101 101 101 101 101 101 101 101 101 101 101 101 32 101 101 101 101 32 101 101 32 32 32 2 2 2 2 32 32 32 2 2 2 2 2 2 2 2 2 2 2 2 2 2 2 2 2 2 2 2 2 2 2 2 2 2 2 2 2 2 2 2 2 2 32 2 2 2 32 32 2 2 2 2 2 2 2 2 2 2 2 2 2 2 2 2 2 2 2 2 2 2 2 2 2 2 2 2 2 2 2 2 2 2 2 2 2 2 2 2 2 2 2 2 2 2 2 2 2 2 2 2 2 2 2 2 2 2 2 2 2 2 2 2 2 2 2 2 2 2 2 2 2 2 2 2 2 2 2 2 2 2 2 2 2 2 2 2 2 2 2 2 2 2 2 2 2 2 2 2 2 2 2 2 2 2 2 2 2 2 2 2 2 2 2 2 2 2 2 2 2 2 2 2 2 2 2 2 2 2 2 2 2 2 32 32 32
2 2 2 2 2 2 2 2 2 2 2 32 2 2 2 2 2 2 2 2 2 2 2 2 2 2 2 2 2 101 101 101 32 101 101 101 101 101 32 2 2 2 2 2 32 32 32 2 2 2 32 32 32 32 32 101 101 101 32 32 101 101 32 101 101 101 101 32 32 101 101 32 101 101 101 101 101 101 101 101 101 101 101 101 101 101 101 101 101 101 101 101 101 101 101 101 32 101 101 101 101 101 101 101 32 32 101 101 101 101 32 32 32 32 32 32 2 2 2 2 32 32 32 32 2 2 2 2 2 2 2 2 2 2 2 2 2 2 2 2 2 2 2 2 2 32 32 32 2 2 2 2 2 2 2 32 32 2 2 2 2 2 32 2 2 2 2 2 2 2 2 2 2 2 2 2 2 2 2 2 2 2 2 2 2 2 2 2 2 2 2 2 2 2 2 2 2 2 2 2 2 2 2 2 2 2 2 2 2 2 2 2 2 2 2 2 2 2 2 2 2 2 2 2 2 2 2 2 2 2 2 2 2 2 2 2 2 2 2 2 2 2 2 2 2 2 2 2 2 2 2 2 2 2 32 2 2 2 2 2 2 2 2 2 2 2 2 2 2 2 2 2 2 2 2 2 2 2 2 2 2 2 2 2 2 2 2 2 2 2 2 2 2 2 2 2 2 32 32 32
2 2 2 2 2 2 2 2 2 2 2 2 2 2 2 2 2 2 2 2 2 2 2 2 2 2 2 2 2 32 32 101 32 32 101 101 101 101 101 32 2 2 2 2 2 2 32 2 2 32 32 101 101 101 32 32 101 101 32 32 32 32 101 32 32 101 101 101 101 32 32 32 101 101 101 101 101 101 101 101 101 101 101 101 101 101 101 101 101 101 101 101 101 101 101 101 101 101 101 101 101 101 101 101 32 101 101 101 101 32 32 101 101 32 32 32 2 2 2 2 32 32 32 2 2 2 2 2 2 2 2 2 2 2 2 2 2 2 2 2 2 2 2 2 2 32 32 32 2 2 2 2 2 2 32 2 2 2 2 2 2 2 32 2 2 2 2 2 2 2 2 2 2 2 2 2 2 2 2 2 2 2 2 2 2 2 2 2 2 2 2 2 2 2 2 2 2 2 2 2 2 2 2 2 2 2 2 2 2 2 2 2 2 2 2 2 2 2 2 2 2 2 2 2 2 2 2 2 2 2 2 2 2 2 2 2 2 2 2 2 2 2 2 2 2 2 2 2 2 2 2 2 2 2 2 2 2 2 2 2 2 2 2 2 2 2 2 2 2 2 2 2 2 2 2 2 2 2 2 2 2 2 2 2 2 2 2 2 2 2 2 2 2 2 2 2 2 32 32 32
2 2 2 2 2 2 2 2 2 2 2 2 2 2 2 2 2 2 2 2 32 32 2 2 2 2 2 2 32 32 32 32 32 2 32 101 101 101 101 101 2 2 2 2 2 2 2 32 32 101 32 101 101 101 101 32 32 101 101 101 32 101 101 101 101 32 101 32 101 101 101 32 32 101 101 101 101 101 101 101 101 101 101 101 101 101 101 101 101 101 101 101 101 101 101 101 101 101 101 101 101 101 101 101 32 101 101 101 32 32 32 101 32 32 32 32 2 2 2 2 2 2 2 2 2 2 2 2 2 2 2 2 2 2 2 2 2 2 2 2 32 2 2 2 2 2 32 32 32 32 32 32 2 2 2 2 2 2 2 2 2 2 32 2 2 2 2 2 2 2 2 2 2 2 2 2 2 2 2 2 2 2 2 2 2 2 2 2 2 2 2 2 2 2 2 2 2 2 2 2 2 2 2 2 2 2 2 2 2 2 2 2 32 32 32 32 2 2 2 2 2 2 2 2 2 2 2 2 2 2 2 2 2 2 2 2 2 2 2 2 2 2 2 2 2 2 2 2 2 2 2 2 2 2 2 2 2 2 2 2 2 2 2 2 2 2 2 2 2 2 2 2 2 2 2 2 2 2 2 2 2 2 2 2 2 2 2 2 2 2 2 2 2 2 2 2 2 32 101 32
2 2 2 2 2 2 2 2 2 2 2 2 2 2 2 2 2 2 2 2 32 32 32 2 2 2 2 2 32 32 101 32 101 32 32 32 32 101 101 101 32 2 2 2 2 2 2 2 32 101 101 32 32 32 101 101 32 32 101 101 32 101 101 101 101 101 101 32 101 101 101 101 101 101 101 101 101 101 32 32 32 101 101 101 101 101 101 101 101 101 101 101 101 101 101 101 101 101 101 101 101 101 101 101 32 101 101 101 32 32 101 101 32 32 32 2 2 2 2 2 2 2 2 2 2 2 2 2 2 2 2 2 2 2 2 2 2 2 2 2 2 2 2 2 2 2 32 32 2 2 2 2 2 2 2 2 2 2 2 2 2 2 2 2 2 2 2 2 2 2 2 2 2 2 2 2 2 2 2 2 2 2 2 2 2 2 2 2 2 2 2 2 2 2 2 2 2 2 2 2 2 2 2 2 2 2 2 2 2 2 2 2 32 32 32 32 2 2 2 2 2 2 2 2 2 2 2 2 2 2 2 2 2 2 2 2 2 2 2 2 2 2 2 2 2 2 2 2 2 2 2 2 2 2 2 2 2 2 2 2 2 2 2 2 2 2 2 2 2 2 2 2 2 2 2 2 2 2 2 2 2 2 2 2 2 2 2 2 2 2 2 2 2 2 2 2 2 32 32 32
2 2 2 2 2 2 2 2 2 2 2 2 2 2 2 2 2 2 2 2 2 101 101 32 32 32 32 101 32 32 101 101 101 101 32 32 32 32 101 32 32 32 2 2 2 2 2 2 32 101 101 101 32 32 32 101 101 101 32 32 101 101 101 101 101 101 101 101 32 101 101 101 101 101 101 101 101 101 101 101 101 101 101 101 101 101 101 101 101 101 101 101 101 101 101 32 101 101 101 101 101 101 101 32 32 32 101 101 32 101 32 32 101 32 32 2 2 2 2 2 2 2 2 2 2 2 2 2 2 2 2 2 2 2 2 2 2 2 2 2 2 2 2 2 2 2 2 2 2 2 2 2 2 2 2 2 2 2 2 2 2 2 32 2 2 2 2 2 2 2 2 2 2 2 2 2 2 2 2 2 2 2 2 2 2 2 2 2 2 2 2 2 2 2 2 2 2 2 2 2 2 2 2 2 2 2 2 2 2 2 2 2 2 32 32 32 32 2 2 2 2 2 2 2 2 2 2 2 2 2 2 2 2 2 2 2 2 2 2 2 2 2 2 2 2 2 2 2 2 2 2 2 2 2 2 2 2 2 2 2 2 2 2 2 2 2 2 2 2 2 2 2 2 2 2 2 2 2 2 2 2 2 2 2 2 2 2 2 2 2 2 2 2 2 2 2 2 2 2 2
2 2 2 2 2 2 2 2 2 2 2 2 2 2 2 2 2 2 2 2 2 101 101 101 101 101 101 32 32 32 32 101 101 101 32 32 32 32 32 101 101 32 32 2 2 2 2 2 2 32 101 101 32 101 101 32 101 101 101 32 101 101 101 101 101 101 101 101 101 101 32 101 101 101 101 101 101 101 101 101 101 101 101 101 101 101 101 101 101 101 101 101 101 101 32 101 101 32 32 32 2 101 32 32 32 101 101 101 101 101 101 32 32 32 32 32 32 32 32 32 2 2 2 2 2 2 2 32 2 2 2 2 2 2 2 2 2 2 2 2 2 2 2 2 2 2 2 2 2 2 2 2 2 2 2 2 2 2 2 2 2 2 32 2 2 2 2 2 2 2 2 2 2 2 2 2 2 2 2 2 2 2 2 2 2 2 2 2 2 2 2 2 2 2 2 2 2 2 2 2 2 2 2 2 2 2 2 2 2 2 2 2 2 32 32 32 32 2 2 2 2 2 2 2 2 2 2 2 2 2 2 2 2 2 2 2 2 2 2 2 2 2 2 2 2 2 2 2 2 2 2 2 2 2 2 2 2 2 2 2 2 2 2 2 2 2 2 2 2 2 2 2 2 2 2 2 2 2 2 2 2 2 2 2 2 2 2 2 2 2 2 2 2 2 2 2 2 2 2 2
2 2 2 2 2 2 2 2 2 2 2 2 2 2 2 2 2 2 2 2 2 101 101 101 101 32 32 32 2 32 32 101 101 101 32 32 2 2 2 32 32 32 32 32 2 2 2 2 2 32 32 101 101 101 101 101 32 101 32 32 101 101 101 101 101 101 101 101 101 101 101 101 101 101 101 101 101 101 101 101 101 101 101 101 101 101 32 101 101 101 101 101 101 101 32 32 101 32 2 2 2 101 101 101 101 101 101 101 101 101 32 32 32 32 101 101 101 101 32 32 2 2 2 2 2 2 2 32 2 2 2 2 2 2 2 2 2 2 2 2 2 2 2 2 2 2 2 2 2 2 2 2 2 2 2 2 2 2 2 2 2 2 32 2 2 2 2 2 2 2 2 32 32 2 2 2 2 2 2 2 2 2 2 2 2 2 2 2 2 2 2 2 2 2 2 2 2 2 2 2 2 2 2 2 2 2 2 2 2 2 2 2 2 32 32 2 32 2 2 2 2 2 2 2 2 2 2 2 2 2 2 2 2 2 2 2 2 2 2 2 2 2 2 2 2 2 2 2 2 2 2 2 2 2 2 2 2 2 2 2 2 2 2 2 2 2 2 2 2 2 2 2 2 2 2 2 2 2 2 2 2 2 2 2 2 2 2 2 2 2 2 2 2 2 2 32 2 2 2 2
2 2 2 2 2 2 2 2 2 2 2 2 2 2 2 2 2 2 2 2 32 101 101 101 32 2 2 2 2 32 32 32 32 32 32 32 2 2 2 2 32 32 32 32 32 2 2 32 32 32 32 32 32 32 101 101 32 101 101 101 101 101 101 101 32 101 101 101 101 32 101 101 101 101 101 101 101 101 101 101 101 101 101 101 101 101 101 101 101 101 101 101 101 32 32 32 32 32 32 32 2 32 101 32 32 101 101 101 101 101 32 32 32 32 101 101 101 101 2 32 2 2 2 2 2 2 2 2 2 2 2 2 2 2 2 2 2 2 2 2 2 2 2 2 2 2 2 2 2 2 2 2 2 2 2 2 2 2 2 2 2 2 32 32 2 2 2 2 32 2 2 2 2 2 2 2 2 2 2 2 2 2 2 2 2 2 2 2 2 2 2 2 2 2 2 2 2 2 2 2 2 2 2 2 2 2 2 2 2 2 2 2 2 2 2 32 2 2 2 2 2 2 2 2 2 2 2 2 2 2 2 2 2 2 2 2 2 2 2 2 2 2 2 2 2 2 2 2 2 2 2 2 2 2 2 2 2 2 2 2 2 2 2 2 2 2 2 2 2 2 2 2 2 2 2 2 2 2 2 2 2 2 2 2 2 2 2 2 2 2 2 2 2 2 2 2 2 2 2 2
2 2 2 2 2 2 2 2 2 2 2 2 2 2 2 2 2 2 2 2 32 101 101 101 32 2 2 2 2 32 32 32 101 101 101 101 101 32 2 2 2 2 32 32 32 32 2 2 32 32 2 2 2 32 101 101 32 101 101 101 101 101 101 101 101 32 101 101 101 101 101 101 101 101 101 101 101 101 32 101 101 101 101 101 101 101 101 101 101 101 101 101 2 32 32 32 2 2 32 2 2 32 32 32 101 32 32 32 32 2 2 2 2 2 2 2 2 2 2 2 2 2 2 2 32 2 2 2 2 2 2 2 2 2 2 2 2 2 2 2 2 2 2 2 2 2 2 2 2 2 2 2 2 2 2 2 2 2 2 2 2 2 32 32 2 2 2 2 2 2 2 2 2 2 2 2 2 2 2 2 2 2 32 32 2 2 2 2 2 2 2 2 2 2 2 2 2 2 2 2 2 2 2 2 2 2 2 2 2 2 2 2 2 2 2 2 2 2 2 2 2 2 2 2 2 2 2 2 2 2 2 2 2 2 2 2 2 2 2 2 2 2 2 2 2 2 2 2 2 2 2 2 2 2 2 2 2 2 2 2 2 2 2 2 2 2 2 2 2 2 2 2 2 2 2 2 2 2 2 2 2 2 2 2 2 2 2 2 2 2 2 2 2 2 2 2 2 2 2 2
2 2 2 2 2 32 2 2 2 2 2 2 2 2 2 2 2 2 32 32 32 101 101 32 32 101 32 32 32 32 32 32 101 101 101 101 101 101 101 2 2 2 2 32 32 32 32 2 32 2 2 2 32 32 32 32 101 101 101 101 101 101 32 32 101 101 101 101 101 101 101 101 101 32 101 101 101 101 101 101 101 101 101 101 101 101 101 101 101 101 101 2 32 32 32 2 32 32 32 2 2 2 32 32 32 101 32 32 2 2 2 2 2 2 2 2 2 2 2 2 2 2 2 2 32 2 2 2 2 2 2 2 2 2 2 2 2 2 2 2 2 2 2 2 2 2 2 2 2 2 2 2 2 2 2 2 2 2 2 2 2 2 2 2 2 2 2 2 2 2 2 2 2 2 2 2 2 2 2 2 2 2 2 2 2 2 2 2 2 2 2 2 2 2 2 2 2 2 2 2 2 2 2 2 2 2 2 2 2 2 2 2 2 2 2 2 2 2 2 2 2 2 2 2 2 2 2 2 2 2 2 2 2 2 2 2 2 2 2 2 2 2 2 2 2 2 2 2 2 2 2 2 2 2 2 2 2 2 2 2 2 2 2 2 2 2 2 2 2 2 2 2 2 2 2 2 2 2 2 2 2 2 2 2 2 2 2 2 2 2 2 2 2 2 2 2 2 2 2 2
2 2 2 2 2 2 2 2 2 2 2 2 2 2 2 2 2 32 32 32 32 32 32 32 32 32 101 101 101 101 32 32 32 101 101 101 101 101 101 101 32 2 2 2 32 32 32 32 32 2 2 2 32 32 101 101 101 101 101 101 32 32 32 32 101 101 101 101 101 101 101 101 101 101 101 101 32 101 101 101 101 101 101 101 101 101 101 101 101 101 32 32 32 32 2 32 32 2 2 2 2 2 32 32 32 32 32 32 2 2 2 2 2 2 2 2 2 2 2 32 32 2 32 2 2 2 2 2 2 2 2 2 2 2 2 2 2 2 2 2 2 2 2 2 2 2 2 2 2 2 2 2 2 2 2 2 2 2 2 2 2 32 32 2 2 2 2 2 2 2 2 32 2 2 2 2 2 2 2 2 2 2 2 2 32 32 2 2 2 2 2 2 2 2 2 2 2 2 2 2 2 2 2 2 2 2 2 2 2 2 2 2 32 2 2 2 2 2 2 32 2 2 2 2 2 2 2 2 2 2 2 2 2 2 2 2 2 2 2 2 2 2 2 2 2 2 2 2 2 2 2 2 2 2 2 2 2 2 2 2 2 2 2 2 2 2 2 2 2 2 2 2 2 2 2 2 2 2 2 2 2 2 2 2 2 2 2 2 2 2 2 2 2 32 2 2 2 2 2 2
32 32 2 2 2 2 2 2 2 2 2 2 2 2 2 2 2 32 32 32 32 32 32 101 32 32 32 32 101 101 32 2 2 2 32 32 32 32 101 101 101 32 2 2 32 32 2 32 32 2 2 32 101 101 101 101 101 101 101 32 101 101 101 101 101 101 101 101 101 101 101 101 101 101 101 101 32 101 101 101 101 101 101 101 101 101 101 101 101 101 32 32 32 2 32 32 32 2 2 2 2 2 2 32 2 32 101 101 32 2 2 2 2 2 2 2 2 2 2 2 2 2 2 2 2 2 2 2 2 2 2 2 2 2 2 2 2 2 2 2 2 2 2 2 2 2 2 2 2 2 2 2 2 2 2 2 2 32 2 32 32 32 32 2 2 2 2 2 2 2 2 2 2 2 2 2 2 2 2 2 2 2 2 32 32 2 2 2 2 2 2 2 2 2 2 2 2 2 2 2 2 2 2 2 2 2 2 2 2 2 2 2 2 2 2 2 2 2 2 32 2 2 2 2 2 2 2 2 2 2 2 2 2 2 2 2 2 2 2 2 2 2 2 2 2 2 2 2 2 2 2 2 2 2 2 2 2 2 2 2 2 2 2 2 2 2 2 2 2 2 2 2 2 2 2 2 2 2 2 2 2 2 2 2 2 2 2 2 2 2 2 2 2 32 2 2 2 2 2 2
2 2 2 2 2 2 2 2 2 2 2 2 2 2 2 2 32 32 32 32 101 32 32 32 32 32 101 32 32 2 2 2 2 2 2 32 32 32 32 32 101 32 2 32 32 2 2 2 32 32 32 101 32 101 101 101 101 101 101 32 101 32 101 101 101 101 101 101 101 101 101 101 101 101 32 32 32 101 101 101 32 32 32 32 101 101 101 101 101 32 32 32 32 32 32 2 2 2 2 2 2 2 2 2 2 2 32 32 32 2 2 2 2 2 2 2 2 2 2 2 2 2 2 2 2 32 2 2 2 2 2 2 2 2 2 2 2 2 2 2 2 2 2 2 2 2 2 2 2 2 2 2 2 32 32 2 2 2 32 32 2 32 32 2 2 2 2 2 2 2 2 32 32 2 2 2 2 2 2 2 2 2 32 32 2 2 2 2 2 2 2 2 2 2 2 2 2 2 2 2 2 2 2 2 2 2 2 2 2 2 2 2 2 2 2 2 2 2 2 32 32 2 2 2 2 2 2 2 2 2 2 2 2 2 2 2 2 2 2 2 2 2 2 2 2 2 2 2 2 2 2 2 2 2 2 2 2 2 2 2 2 2 2 2 2 2 2 2 2 2 2 2 2 2 2 2 2 2 2 2 2 2 2 2 2 2 2 2 2 2 2 2 2 2 2 2 2 32 2 2
2 2 2 2 2 2 2 2 2 2 32 32 32 2 32 32 32 32 32 32 101 32 32 32 101 32 101 32 2 2 2 2 2 2 2 2 32 32 32 32 32 32 32 32 32 2 2 2 32 32 101 32 101 101 101 101 101 101 101 101 101 32 32 101 101 101 101 101 101 101 101 101 101 101 2 2 32 32 32 32 2 2 32 32 101 101 101 101 101 101 32 32 32 32 2 2 2 2 2 2 2 2 2 2 2 32 32 32 32 2 2 2 2 2 2 2 2 2 2 2 2 2 2 2 2 32 32 32 2 2 2 2 2 2 2 2 2 2 2 2 2 2 2 2 2 2 2 2 32 32 2 2 2 32 32 2 32 2 2 2 2 2 2 2 2 2 2 32 32 2 32 2 2 2 2 2 2 32 2 2 2 2 32 2 2 2 2 2 2 2 2 2 2 2 2 2 2 2 2 2 2 2 2 2 2 2 2 2 2 2 2 2 2 2 2 2 2 2 2 2 32 32 2 2 2 2 2 2 2 2 2 2 2 2 2 2 2 2 2 2 2 2 2 2 2 2 2 2 2 2 2 2 2 2 2 2 2 2 2 2 2 2 2 2 2 2 2 2 2 2 2 2 2 2 2 2 2 2 2 2 2 2 2 2 2 2 2 2 2 2 2 2 2 2 2 2 2 2 2 2
2 2 2 2 2 2 2 2 2 2 32 32 32 32 32 32 32 32 32 101 32 32 32 32 32 32 32 2 2 2 2 2 32 2 2 2 2 32 32 32 32 32 32 32 32 2 2 32 32 32 101 32 101 101 101 101 101 101 32 32 101 101 101 32 32 101 101 101 101 101 101 101 101 101 2 2 2 2 2 32 32 32 32 32 101 101 101 101 32 101 32 32 32 32 2 2 2 2 2 2 2 2 2 2 32 32 101 32 32 2 2 2 2 2 2 2 2 2 2 2 2 2 2 2 2 2 32 32 2 2 32 2 2 2 2 2 2 2 2 2 2 2 2 2 2 32 2 2 32 32 32 2 2 2 32 32 32 2 2 2 2 2 2 2 2 32 32 32 32 2 32 2 2 2 2 32 32 2 2 2 2 2 2 2 2 2 2 2 2 2 2 2 2 2 2 2 2 2 2 2 2 2 2 2 2 2 2 2 2 2 2 2 2 2 2 2 2 2 2 2 2 2 2 2 2 2 2 2 2 2 2 2 2 2 2 2 2 2 2 2 2 2 2 2 2 2 2 2 2 2 2 2 2 2 2 2 2 2 2 2 2 2 2 2 2 2 2 2 2 2 2 2 2 2 2 2 2 2 2 2 2 2 2 2 2 2 2 2 2 2 2 2 2 2 2 2 2 2 2 2
2 2 2 2 2 2 2 2 2 2 32 101 32 32 32 32 32 32 101 101 32 32 32 101 32 2 2 2 2 32 32 32 2 2 2 2 2 32 32 32 32 32 32 2 2 2 32 32 32 32 32 101 101 101 101 32 101 101 101 101 101 101 101 101 101 101 101 101 101 101 101 101 101 101 2 2 2 2 2 2 2 32 32 32 101 101 101 101 32 32 32 32 32 32 32 32 2 2 2 2 2 2 2 32 32 101 101 32 32 2 2 2 2 2 2 2 2 2 2 2 2 2 2 2 2 2 2 2 2 2 32 2 2 2 32 32 32 32 2 2 2 2 2 2 32 32 32 32 32 32 2 32 32 2 2 32 32 32 2 2 2 2 2 2 2 2 2 32 2 2 2 32 2 2 2 2 32 32 32 2 2 2 2 2 2 2 2 2 2 2 2 2 2 2 2 2 2 2 2 2 2 2 2 2 2 2 2 2 2 2 2 2 2 2 2 2 2 2 2 2 2 2 2 2 2 2 2 2 2 2 2 2 2 2 2 2 2 2 2 2 2 2 2 2 2 2 2 2 2 2 2 2 2 2 2 2 2 2 2 2 2 2 2 2 2 2 2 2 2 2 2 2 2 2 2 2 2 2 2 2 2 2 2 2 2 2 2 2 2 2 2 2 2 2 2 2 2 2 2 2
2 2 2 2 2 2 2 2 2 2 32 101 101 101 101 32 101 32 101 101 101 101 101 101 32 2 2 2 32 32 32 32 2 2 2 2 2 2 32 32 32 32 32 2 2 32 32 2 2 2 32 101 101 101 101 101 101 101 101 101 101 101 101 101 101 101 101 101 101 101 101 101 101 32 32 32 2 2 2 2 2 32 32 2 32 101 101 101 32 2 32 32 32 32 32 32 2 2 2 2 2 2 2 32 101 101 101 101 32 2 2 2 2 2 2 2 2 2 2 2 2 2 2 2 2 2 2 2 2 32 32 32 2 2 2 32 32 32 32 32 32 32 2 2 2 32 32 32 32 2 2 32 2 2 2 2 2 2 2 2 2 2 2 2 2 2 2 2 2 2 2 2 2 2 2 2 2 32 32 32 2 2 2 2 2 2 2 2 2 2 2 2 2 2 2 2 2 2 2 2 2 2 2 2 2 2 2 2 2 2 2 2 2 2 2 2 2 2 2 2 2 2 2 2 2 2 2 2 2 2 2 2 2 2 2 2 2 2 2 2 2 2 2 2 2 2 2 2 2 2 2 2 2 2 2 2 2 2 2 2 2 2 2 2 2 2 2 2 2 2 2 2 32 32 2 2 2 32 32 32 32 32 32 32 32 2 2 2 2 2 2 2 2 2 2 2 2 2 2 2
2 2 2 2 2 2 2 2 2 2 32 101 101 101 101 101 32 32 32 32 32 32 101 32 2 2 2 2 2 2 2 32 32 32 2 2 2 2 2 32 32 32 2 2 32 32 2 2 2 32 101 32 32 101 101 101 101 101 32 32 32 101 101 101 101 101 101 101 101 101 101 101 101 2 32 101 32 2 2 2 32 32 32 32 101 101 101 101 32 2 32 32 32 2 2 2 2 2 2 2 2 2 2 101 101 101 32 32 2 2 2 2 2 2 2 2 2 2 2 2 2 2 2 2 2 2 2 2 2 32 32 32 32 2 2 2 2 32 32 32 32 32 2 2 2 2 2 32 101 32 32 32 2 2 2 2 2 2 2 2 2 32 2 2 2 32 32 2 2 2 2 2 2 2 32 2 2 32 2 2 32 32 2 2 2 2 2 2 2 2 2 2 2 2 2 2 2 2 2 2 2 2 2 2 2 2 2 2 2 2 2 2 2 2 2 2 2 2 2 2 2 2 2 2 2 2 2 2 2 2 2 2 2 2 2 2 2 2 2 2 2 2 2 2 2 2 2 2 2 2 2 2 2 2 2 2 2 2 2 2 2 2 2 2 2 2 2 2 2 2 2 2 32 32 32 2 2 32 32 32 32 32 32 101 32 32 2 2 2 2 2 2 2 2 2 2 2 2 2 2
2 2 2 2 2 2 2 2 2 32 32 101 101 101 101 101 101 101 32 32 2 2 32 2 2 2 2 2 2 2 2 2 32 32 32 2 2 2 2 32 32 32 2 2 32 32 2 2 2 32 101 101 32 32 32 32 32 101 101 32 32 32 101 101 101 101 101 101 101 101 101 101 101 32 32 101 32 2 2 2 2 32 101 101 101 101 101 101 101 2 32 2 2 2 2 2 2 2 2 2 2 2 32 101 32 32 32 32 2 2 2 2 2 2 2 2 2 2 2 2 2 2 2 2 2 2 2 2 2 2 2 32 32 2 2 2 2 2 2 2 2 32 32 32 2 2 2 32 32 32 32 32 2 2 2 2 32 2 2 2 2 2 2 2 2 32 32 2 2 2 2 2 2 2 2 2 2 2 2 2 2 2 2 2 2 2 2 2 2 2 2 2 2 2 2 32 32 2 2 2 2 2 2 2 2 2 2 2 2 2 2 2 2 2 2 2 2 2 2 2 2 2 2 2 2 2 2 2 2 2 2 2 2 2 2 2 2 2 2 2 2 2 2 2 2 32 2 2 2 2 2 2 2 2 2 2 2 2 2 2 2 2 2 2 2 2 2 2 2 2 2 2 2 2 32 32 32 32 32 32 32 32 32 32 32 32 2 2 2 2 2 2 2 2 2 2 2 2 2 2
2 2 2 2 2 2 2 2 32 101 101 101 101 32 32 101 101 101 32 2 2 2 2 32 2 2 2 2 2 2 2 2 2 32 32 32 2 2 2 2 32 32 32 32 32 2 2 2 32 101 101 101 101 101 101 101 32 101 101 101 101 101 101 101 32 32 101 101 101 101 32 101 101 101 101 101 2 2 2 2 32 101 101 101 101 101 101 101 101 32 32 32 2 2 32 2 2 2 2 2 2 2 32 32 101 32 101 101 2 2 2 2 2 2 2 2 2 2 2 2 2 2 2 2 2 2 2 2 2 2 2 2 2 2 2 2 2 32 2 2 2 2 32 32 2 2 2 32 32 32 32 32 2 2 2 2 2 2 2 2 2 2 2 2 2 32 32 2 2 2 2 2 2 2 2 2 2 2 2 2 2 2 2 32 32 32 2 32 32 2 2 2 2 32 2 32 32 32 2 2 2 2 2 2 2 2 2 2 2 2 2 2 2 2 2 2 2 2 2 2 2 2 2 2 2 2 2 2 2 2 2 2 2 2 2 2 2 2 2 2 2 2 2 2 2 2 2 2 2 2 2 2 2 2 2 2 2 2 2 2 2 2 2 2 2 2 2 2 2 2 2 2 2 2 32 101 32 2 2 2 2 2 2 32 32 2 2 2 2 2 2 2 2 2 2 2 2 2 2 2
2 2 2 2 2 2 2 32 101 101 101 101 101 101 101 101 101 101 32 2 2 2 2 32 32 2 2 2 2 2 2 2 2 2 32 32 32 32 2 2 2 32 101 101 2 2 2 2 32 101 101 101 32 101 101 101 101 101 101 101 32 101 101 101 32 32 101 101 101 101 101 101 32 101 101 101 2 2 2 2 32 32 32 32 32 32 101 101 101 101 101 32 101 32 32 32 32 2 2 2 2 2 2 32 32 101 101 32 2 2 2 2 2 2 2 2 2 2 2 2 2 2 2 2 2 2 2 2 2 2 2 2 2 2 2 2 2 2 2 2 2 2 2 2 2 2 2 32 2 2 32 32 32 2 2 2 2 2 2 2 2 2 2 2 2 2 2 2 2 2 2 2 2 2 2 2 2 2 2 2 2 2 2 32 32 32 2 32 32 32 2 2 2 2 2 32 2 2 2 2 2 2 2 2 2 2 2 2 2 2 2 2 2 2 2 2 2 2 2 2 2 2 2 2 2 2 2 2 2 2 2 2 2 2 2 2 2 2 2 2 2 2 2 2 2 2 2 2 2 2 2 2 2 2 2 2 2 2 2 2 2 2 2 2 2 2 2 2 2 2 2 2 32 32 32 32 2 2 2 2 2 2 2 2 2 2 2 2 2 2 2 2 2 2 2 2 2 2 2 2
2 2 2 2 2 2 32 101 101 101 101 101 101 101 101 101 32 32 32 32 2 2 2 2 32 32 2 2 2 2 2 2 2 2 2 32 32 32 32 2 2 2 101 101 32 2 2 2 32 101 101 101 101 101 101 101 101 101 101 101 32 32 101 101 32 101 101 101 101 101 101 101 32 32 32 2 2 2 2 2 32 32 32 32 101 32 101 101 101 32 32 32 32 32 32 32 32 2 2 2 2 2 2 32 32 101 101 101 2 2 2 2 2 2 2 2 2 2 2 2 2 2 2 2 2 2 2 2 2 2 2 2 2 2 2 2 2 2 2 2 2 2 2 2 2 2 2 2 2 2 32 32 2 32 2 2 2 2 2 2 2 2 2 2 2 2 2 2 2 32 32 2 2 2 2 2 2 2 2 32 2 2 2 32 32 32 2 2 2 2 2 2 2 2 2 2 2 2 2 2 2 2 2 2 2 2 2 2 2 2 2 2 2 2 2 2 2 2 2 2 2 2 2 2 2 2 2 2 2 2 2 2 2 2 2 2 2 2 2 2 2 2 2 2 2 2 2 2 2 2 2 2 2 2 2 2 2 2 2 2 2 2 2 2 2 2 2 2 2 2 2 2 2 2 2 2 2 2 2 2 2 2 2 2 32 2 2 2 2 2 2 2 2 2 2 2 2 2 2 2
2 2 2 2 2 2 32 101 32 32 101 101 32 32 101 101 32 32 32 32 2 2 2 2 32 32 32 32 2 2 2 2 2 2 2 101 32 101 101 32 2 32 101 101 32 2 2 32 101 101 101 101 101 101 101 101 32 101 101 101 101 101 101 101 32 101 101 32 101 32 101 101 32 32 101 32 32 101 32 32 32 32 32 32 101 101 101 101 101 32 32 32 2 32 32 32 32 2 2 2 2 2 2 2 32 101 101 101 2 2 2 2 2 2 2 2 2 2 2 2 2 2 2 2 2 2 2 2 2 2 2 2 2 2 2 2 2 2 2 2 2 2 2 2 2 2 2 2 32 32 101 32 32 32 32 2 2 2 2 2 2 2 2 2 2 2 2 2 2 32 32 32 32 32 2 2 2 2 2 32 2 2 2 32 32 2 2 2 2 2 2 2 2 2 2 2 2 2 2 2 2 2 2 2 2 2 2 2 2 2 2 2 2 2 2 2 2 2 2 2 2 2 2 2 2 2 2 2 2 2 2 2 2 2 2 2 2 2 2 2 2 2 2 2 2 2 2 2 2 2 2 2 2 2 2 2 2 2 2 2 2 2 2 2 2 2 2 2 2 2 2 2 2 2 2 2 2 2 2 2 2 2 2 2 32 32 2 2 2 2 2 2 2 2 2 2 2 2 2 2
